; generated by Slic3r 1.3.0-dev on 2017-12-21 at 15:06:01

; Print Config Notes: 
; DMF_3D_0.3mmThin222R25%
; 
; external perimeters extrusion width = 0.60mm (4.82mm^3/s)
; perimeters extrusion width = 0.54mm (5.71mm^3/s)
; infill extrusion width = 0.99mm (11.11mm^3/s)
; solid infill extrusion width = 0.51mm (5.35mm^3/s)
; top infill extrusion width = 0.51mm (5.35mm^3/s)

M190 S70 ; set bed temperature and wait for it to be reached
M104 S220 ; set temperature
G92.1 ; clear offsets
G28 ; home all axes
; Filament gcode

M109 S220 ; set temperature and wait for it to be reached
G21 ; set units to millimeters
G90 ; use absolute coordinates
M82 ; use absolute distances for extrusion
G92 E0
G1 Z0.300 F4500.000
G1 E-0.60000 F900.00000
G92 E0
G1 X26.824 Y22.474 F4500.000
G1 E0.65000 F900.00000
G1 F1920
G1 X28.475 Y21.513 E0.78776
G1 X29.447 Y21.306 E0.85949
G1 X123.779 Y11.638 E7.70120
G1 X124.370 Y11.594 E7.74393
G1 X125.134 Y11.583 E7.79909
G1 X125.897 Y11.625 E7.85424
G1 X126.972 Y11.776 E7.93255
G1 X127.406 Y11.868 E7.96454
G1 X128.145 Y12.069 E8.01979
G1 X129.106 Y12.414 E8.09343
G1 X156.185 Y24.017 E10.21903
G1 X156.540 Y24.193 E10.24760
G1 X157.145 Y24.571 E10.29903
G1 X157.511 Y24.857 E10.33258
G1 X158.021 Y25.350 E10.38376
G1 X158.276 Y25.650 E10.41218
G1 X158.512 Y25.969 E10.44081
G1 X158.719 Y26.296 E10.46870
G1 X158.909 Y26.650 E10.49769
G1 X159.067 Y26.997 E10.52524
G1 X159.205 Y27.371 E10.55397
G1 X159.386 Y28.056 E10.60506
G1 X174.585 Y106.784 E16.39016
G1 X174.663 Y107.316 E16.42899
G1 X174.690 Y107.868 E16.46886
G1 X174.687 Y171.022 E21.02544
G1 X174.654 Y171.491 E21.05932
G1 X174.531 Y172.188 E21.11044
G1 X174.404 Y172.629 E21.14350
G1 X174.139 Y173.287 E21.19468
G1 X173.953 Y173.642 E21.22364
G1 X173.711 Y174.031 E21.25666
G1 X173.268 Y174.597 E21.30854
G1 X172.945 Y174.931 E21.34202
G1 X172.401 Y175.387 E21.39326
G1 X172.079 Y175.608 E21.42141
G1 X171.677 Y175.840 E21.45496
G1 X171.319 Y176.012 E21.48361
G1 X144.304 Y187.586 E23.60404
G1 X143.344 Y187.931 E23.67766
G1 X142.918 Y188.054 E23.70966
G1 X142.171 Y188.224 E23.76491
G1 X141.097 Y188.375 E23.84317
G1 X140.333 Y188.417 E23.89838
G1 X139.569 Y188.406 E23.95354
G1 X138.978 Y188.362 E23.99627
G1 X44.646 Y178.694 E30.83798
G1 X42.828 Y178.110 E30.97573
G1 X41.403 Y176.839 E31.11349
G1 X40.592 Y174.984 E31.25954
G1 X25.393 Y96.256 E37.04463
G1 X25.310 Y95.383 E37.10792
G1 X25.310 Y25.889 E42.12193
G1 X25.705 Y24.021 E42.25969
G1 X26.789 Y22.523 E42.39312
G1 X27.349 Y22.729 F4500.000
G1 F1920
G1 X29.501 Y21.839 E42.56118
G1 X123.834 Y12.171 E49.40290
G1 X124.407 Y12.129 E49.44438
G1 X125.134 Y12.119 E49.49684
G1 X126.143 Y12.189 E49.56978
G1 X126.861 Y12.300 E49.62222
G1 X127.295 Y12.392 E49.65421
G1 X127.997 Y12.583 E49.70675
G1 X128.895 Y12.906 E49.77554
G1 X155.968 Y24.507 E51.90062
G1 X156.289 Y24.666 E51.92647
G1 X156.830 Y25.004 E51.97251
G1 X157.166 Y25.267 E52.00335
G1 X157.623 Y25.708 E52.04917
G1 X157.854 Y25.980 E52.07489
G1 X158.067 Y26.269 E52.10078
G1 X158.427 Y26.884 E52.15220
G1 X158.696 Y27.536 E52.20310
G1 X158.860 Y28.157 E52.24944
G1 X174.059 Y106.885 E58.03454
G1 X174.130 Y107.372 E58.07005
G1 X174.155 Y107.868 E58.10587
G1 X174.152 Y171.004 E62.66109
G1 X174.122 Y171.434 E62.69222
G1 X174.011 Y172.059 E62.73799
G1 X173.895 Y172.464 E62.76840
G1 X173.657 Y173.053 E62.81422
G1 X173.489 Y173.374 E62.84041
G1 X173.266 Y173.731 E62.87078
G1 X172.870 Y174.239 E62.91722
G1 X172.574 Y174.545 E62.94800
G1 X172.086 Y174.954 E62.99387
G1 X171.795 Y175.154 E63.01935
G1 X171.425 Y175.367 E63.05019
G1 X171.101 Y175.523 E63.07610
G1 X144.093 Y187.094 E65.19602
G1 X143.196 Y187.417 E65.26479
G1 X142.770 Y187.539 E65.29679
G1 X142.060 Y187.700 E65.34933
G1 X141.060 Y187.840 E65.42222
G1 X140.333 Y187.881 E65.47472
G1 X139.606 Y187.871 E65.52719
G1 X139.033 Y187.829 E65.56866
G1 X44.700 Y178.161 E72.41037
G1 X43.000 Y177.590 E72.53978
G1 X41.711 Y176.343 E72.66919
G1 X41.118 Y174.883 E72.78290
G1 X25.919 Y96.155 E78.56799
G1 X25.845 Y95.383 E78.62392
G1 X25.845 Y25.889 E83.63793
G1 X26.240 Y24.139 E83.76734
G1 X27.312 Y22.776 E83.89242
G1 X27.870 Y23.005 F4500.000
G1 F1920
G1 X29.556 Y22.372 E84.02236
G1 X123.888 Y12.704 E90.86407
G1 X124.444 Y12.663 E90.90430
G1 X125.134 Y12.654 E90.95407
G1 X126.068 Y12.720 E91.02162
G1 X126.750 Y12.824 E91.07136
G1 X127.183 Y12.916 E91.10335
G1 X127.850 Y13.098 E91.15319
G1 X128.684 Y13.399 E91.21714
G1 X155.682 Y24.966 E93.33630
G1 X156.037 Y25.139 E93.36481
G1 X156.515 Y25.437 E93.40547
G1 X156.822 Y25.677 E93.43360
G1 X157.226 Y26.067 E93.47407
G1 X157.623 Y26.568 E93.52020
G1 X157.946 Y27.118 E93.56620
G1 X158.186 Y27.701 E93.61175
G1 X158.334 Y28.259 E93.65334
G1 X173.533 Y106.987 E99.43843
G1 X173.597 Y107.428 E99.47062
G1 X173.619 Y107.868 E99.50240
G1 X173.617 Y170.985 E104.05626
G1 X173.589 Y171.377 E104.08464
G1 X173.491 Y171.929 E104.12506
G1 X173.385 Y172.298 E104.15281
G1 X173.176 Y172.819 E104.19328
G1 X173.026 Y173.106 E104.21669
G1 X172.822 Y173.432 E104.24441
G1 X172.472 Y173.880 E104.28542
G1 X172.202 Y174.160 E104.31349
G1 X171.771 Y174.521 E104.35401
G1 X171.511 Y174.699 E104.37681
G1 X171.173 Y174.895 E104.40493
G1 X170.884 Y175.033 E104.42811
G1 X143.882 Y186.601 E106.54751
G1 X143.049 Y186.902 E106.61144
G1 X142.623 Y187.024 E106.64344
G1 X141.949 Y187.176 E106.69327
G1 X141.022 Y187.306 E106.76078
G1 X140.333 Y187.346 E106.81058
G1 X139.643 Y187.337 E106.86035
G1 X139.087 Y187.296 E106.90058
G1 X44.755 Y177.628 E113.74229
G1 X43.181 Y177.071 E113.86277
G1 X42.038 Y175.853 E113.98325
G1 X41.644 Y174.781 E114.06563
G1 X26.445 Y96.053 E119.85072
G1 X26.381 Y95.383 E119.89929
G1 X26.381 Y25.889 E124.91330
G1 X26.775 Y24.266 E125.03379
G1 X27.831 Y23.051 E125.14994
G1 E124.54994 F900.00000
G92 E0
G1 X122.934 Y96.757 F4500.000
G1 E0.65000 F900.00000
G1 F720
G1 X123.513 Y96.312 E0.70271
G1 X124.188 Y96.033 E0.75543
G1 X124.884 Y95.941 E0.80604
G1 X125.632 Y96.031 E0.86043
G1 X126.312 Y96.312 E0.91351
G1 X126.892 Y96.757 E0.96622
G1 X127.336 Y97.337 E1.01893
G1 X127.616 Y98.012 E1.07165
G1 X127.711 Y98.736 E1.12436
G1 X127.616 Y99.460 E1.17707
G1 X127.336 Y100.135 E1.22978
G1 X126.892 Y100.715 E1.28250
G1 X126.312 Y101.160 E1.33521
G1 X125.637 Y101.439 E1.38792
G1 X124.913 Y101.535 E1.44063
G1 X124.188 Y101.439 E1.49334
G1 X123.513 Y101.160 E1.54606
G1 X122.934 Y100.715 E1.59877
G1 X122.489 Y100.135 E1.65148
G1 X122.209 Y99.460 E1.70420
G1 X122.113 Y98.731 E1.75727
G1 X122.220 Y97.985 E1.81166
G1 X122.489 Y97.337 E1.86227
G1 X122.897 Y96.805 E1.91066
G1 X123.316 Y97.139 F4500.000
G1 F720
G1 X123.783 Y96.780 E1.95320
G1 X124.328 Y96.555 E1.99574
G1 X124.887 Y96.481 E2.03640
G1 X125.495 Y96.554 E2.08062
G1 X126.042 Y96.780 E2.12329
G1 X126.510 Y97.139 E2.16583
G1 X126.868 Y97.607 E2.20836
G1 X127.094 Y98.152 E2.25090
G1 X127.171 Y98.736 E2.29344
G1 X127.094 Y99.321 E2.33597
G1 X126.868 Y99.865 E2.37851
G1 X126.510 Y100.333 E2.42105
G1 X126.042 Y100.692 E2.46359
G1 X125.497 Y100.918 E2.50612
G1 X124.913 Y100.994 E2.54866
G1 X124.328 Y100.918 E2.59120
G1 X123.783 Y100.692 E2.63373
G1 X123.316 Y100.333 E2.67627
G1 X122.957 Y99.865 E2.71881
G1 X122.731 Y99.321 E2.76135
G1 X122.654 Y98.734 E2.80401
G1 X122.741 Y98.128 E2.84823
G1 X122.957 Y97.607 E2.88890
G1 X123.279 Y97.187 E2.92711
G1 X123.316 Y97.139 F4500.000
G1 E2.32711 F900.00000
G92 E0
G1 X145.207 Y84.572 F4500.000
G1 E0.65000 F900.00000
G1 F720
G1 X144.999 Y84.069 E0.68924
G1 X144.923 Y83.496 E0.73096
G1 X144.999 Y82.923 E0.77267
G1 X145.220 Y82.389 E0.81436
G1 X145.572 Y81.930 E0.85607
G1 X146.030 Y81.578 E0.89779
G1 X146.564 Y81.357 E0.93950
G1 X147.104 Y81.286 E0.97875
G1 X147.704 Y81.354 E1.02231
G1 X148.245 Y81.578 E1.06456
G1 X148.704 Y81.930 E1.10628
G1 X149.055 Y82.389 E1.14799
G1 X149.276 Y82.923 E1.18969
G1 X149.352 Y83.496 E1.23140
G1 X149.276 Y84.069 E1.27312
G1 X149.055 Y84.603 E1.31481
G1 X148.703 Y85.062 E1.35653
G1 X148.245 Y85.414 E1.39823
G1 X147.711 Y85.635 E1.43994
G1 X147.138 Y85.710 E1.48165
G1 X146.564 Y85.635 E1.52336
G1 X146.030 Y85.414 E1.56507
G1 X145.566 Y85.057 E1.60733
G1 X145.242 Y84.620 E1.64656
G1 X145.677 Y84.306 F4500.000
G1 F720
G1 X145.521 Y83.929 E1.67598
G1 X145.463 Y83.496 E1.70752
G1 X145.521 Y83.063 E1.73906
G1 X145.688 Y82.659 E1.77058
G1 X145.954 Y82.312 E1.80212
G1 X146.300 Y82.046 E1.83366
G1 X146.704 Y81.879 E1.86519
G1 X147.109 Y81.826 E1.89462
G1 X147.568 Y81.878 E1.92800
G1 X147.975 Y82.046 E1.95972
G1 X148.321 Y82.312 E1.99126
G1 X148.587 Y82.659 E2.02280
G1 X148.755 Y83.063 E2.05432
G1 X148.812 Y83.496 E2.08586
G1 X148.755 Y83.929 E2.11740
G1 X148.587 Y84.333 E2.14892
G1 X148.321 Y84.680 E2.18046
G1 X147.975 Y84.946 E2.21199
G1 X147.571 Y85.113 E2.24352
G1 X147.138 Y85.170 E2.27506
G1 X146.704 Y85.113 E2.30659
G1 X146.300 Y84.946 E2.33813
G1 X145.952 Y84.678 E2.36985
G1 X145.712 Y84.354 E2.39891
G1 X145.677 Y84.306 F4500.000
G1 E1.79891 F900.00000
G92 E0
G1 X147.138 Y39.990 F4500.000
G1 E0.65000 F900.00000
G1 F720
G1 X146.564 Y39.915 E0.69171
G1 X146.062 Y39.707 E0.73096
G1 X145.576 Y39.348 E0.77452
G1 X145.220 Y38.883 E0.81678
G1 X144.999 Y38.349 E0.85848
G1 X144.923 Y37.776 E0.90019
G1 X144.999 Y37.203 E0.94190
G1 X145.220 Y36.669 E0.98360
G1 X145.572 Y36.210 E1.02531
G1 X146.030 Y35.858 E1.06703
G1 X146.564 Y35.637 E1.10874
G1 X147.104 Y35.566 E1.14799
G1 X147.704 Y35.634 E1.19154
G1 X148.245 Y35.858 E1.23380
G1 X148.704 Y36.210 E1.27552
G1 X149.055 Y36.669 E1.31723
G1 X149.276 Y37.203 E1.35892
G1 X149.352 Y37.776 E1.40064
G1 X149.276 Y38.349 E1.44235
G1 X149.055 Y38.883 E1.48405
G1 X148.703 Y39.342 E1.52576
G1 X148.245 Y39.694 E1.56748
G1 X147.711 Y39.915 E1.60917
G1 X147.197 Y39.983 E1.64656
G1 X147.138 Y39.450 F4500.000
G1 F720
G1 X146.704 Y39.393 E1.67809
G1 X146.327 Y39.237 E1.70752
G1 X145.955 Y38.962 E1.74090
G1 X145.688 Y38.613 E1.77263
G1 X145.521 Y38.209 E1.80416
G1 X145.463 Y37.776 E1.83569
G1 X145.521 Y37.343 E1.86723
G1 X145.688 Y36.939 E1.89876
G1 X145.954 Y36.592 E1.93029
G1 X146.300 Y36.326 E1.96183
G1 X146.704 Y36.159 E1.99336
G1 X147.109 Y36.106 E2.02279
G1 X147.568 Y36.158 E2.05617
G1 X147.975 Y36.326 E2.08790
G1 X148.321 Y36.592 E2.11944
G1 X148.587 Y36.939 E2.15097
G1 X148.755 Y37.343 E2.18250
G1 X148.812 Y37.776 E2.21403
G1 X148.755 Y38.209 E2.24557
G1 X148.587 Y38.613 E2.27710
G1 X148.321 Y38.960 E2.30863
G1 X147.975 Y39.226 E2.34017
G1 X147.571 Y39.393 E2.37169
G1 X147.197 Y39.442 E2.39890
G1 X147.138 Y39.450 F4500.000
G1 E1.79890 F900.00000
G92 E0
G1 X127.180 Y24.139 F4500.000
G1 E0.65000 F900.00000
G1 F720
G1 X126.892 Y24.515 E0.68422
G1 X126.312 Y24.960 E0.73693
G1 X125.637 Y25.239 E0.78964
G1 X124.913 Y25.335 E0.84235
G1 X124.188 Y25.239 E0.89506
G1 X123.513 Y24.960 E0.94778
G1 X122.934 Y24.515 E1.00049
G1 X122.489 Y23.935 E1.05321
G1 X122.209 Y23.260 E1.10592
G1 X122.114 Y22.536 E1.15863
G1 X122.209 Y21.812 E1.21134
G1 X122.489 Y21.137 E1.26405
G1 X122.934 Y20.557 E1.31677
G1 X123.513 Y20.112 E1.36948
G1 X124.188 Y19.833 E1.42219
G1 X124.884 Y19.741 E1.47281
G1 X125.632 Y19.831 E1.52720
G1 X126.312 Y20.112 E1.58027
G1 X126.892 Y20.557 E1.63299
G1 X127.336 Y21.137 E1.68570
G1 X127.616 Y21.812 E1.73841
G1 X127.711 Y22.536 E1.79112
G1 X127.616 Y23.260 E1.84383
G1 X127.336 Y23.935 E1.89655
G1 X127.217 Y24.091 E1.91071
G1 X126.755 Y23.813 F4500.000
G1 F720
G1 X126.510 Y24.133 E1.93984
G1 X126.042 Y24.492 E1.98238
G1 X125.497 Y24.718 E2.02492
G1 X124.913 Y24.794 E2.06745
G1 X124.328 Y24.718 E2.10999
G1 X123.783 Y24.492 E2.15252
G1 X123.316 Y24.133 E2.19506
G1 X122.957 Y23.665 E2.23760
G1 X122.731 Y23.121 E2.28014
G1 X122.654 Y22.536 E2.32267
G1 X122.731 Y21.952 E2.36521
G1 X122.957 Y21.407 E2.40775
G1 X123.316 Y20.939 E2.45029
G1 X123.783 Y20.580 E2.49282
G1 X124.328 Y20.355 E2.53536
G1 X124.887 Y20.281 E2.57603
G1 X125.495 Y20.354 E2.62025
G1 X126.042 Y20.580 E2.66291
G1 X126.510 Y20.939 E2.70545
G1 X126.868 Y21.407 E2.74799
G1 X127.094 Y21.952 E2.79053
G1 X127.171 Y22.536 E2.83306
G1 X127.094 Y23.121 E2.87560
G1 X126.868 Y23.665 E2.91814
G1 X126.792 Y23.765 E2.92722
G1 X126.933 Y24.171 F4500.000
G1 E2.32722 F900.00000
G92 E0
G1 X130.427 Y28.960 F4500.000
G1 E0.65000 F900.00000
G1 F1920
G1 X153.831 Y28.960 E2.33859
G1 X153.993 Y29.011 E2.35086
G1 X154.040 Y29.099 E2.35807
G1 X154.049 Y92.088 E6.90272
G1 X154.039 Y92.181 E6.90942
G1 X153.987 Y92.264 E6.91650
G1 X153.845 Y92.312 E6.92730
G1 X130.427 Y92.312 E8.61694
G1 X130.427 Y98.721 E9.07939
G1 X130.413 Y99.121 E9.10821
G1 X130.373 Y99.503 E9.13598
G1 X130.306 Y99.882 E9.16375
G1 X130.213 Y100.256 E9.19152
G1 X130.094 Y100.622 E9.21928
G1 X129.950 Y100.979 E9.24706
G1 X129.781 Y101.325 E9.27482
G1 X129.589 Y101.658 E9.30259
G1 X129.373 Y101.977 E9.33036
G1 X129.136 Y102.280 E9.35813
G1 X128.879 Y102.566 E9.38589
G1 X128.602 Y102.834 E9.41365
G1 X128.307 Y103.081 E9.44144
G1 X127.996 Y103.307 E9.46920
G1 X127.670 Y103.511 E9.49696
G1 X127.330 Y103.692 E9.52473
G1 X126.978 Y103.848 E9.55250
G1 X126.616 Y103.980 E9.58027
G1 X126.247 Y104.086 E9.60803
G1 X125.870 Y104.166 E9.63580
G1 X125.489 Y104.220 E9.66357
G1 X125.105 Y104.247 E9.69134
G1 X124.720 Y104.247 E9.71910
G1 X124.336 Y104.220 E9.74687
G1 X123.955 Y104.166 E9.77464
G1 X123.579 Y104.086 E9.80241
G1 X123.209 Y103.980 E9.83017
G1 X122.847 Y103.848 E9.85794
G1 X122.495 Y103.692 E9.88571
G1 X122.156 Y103.511 E9.91348
G1 X121.829 Y103.307 E9.94124
G1 X121.518 Y103.081 E9.96900
G1 X121.223 Y102.834 E9.99679
G1 X120.946 Y102.566 E10.02455
G1 X120.689 Y102.280 E10.05231
G1 X120.452 Y101.977 E10.08008
G1 X120.237 Y101.658 E10.10785
G1 X120.044 Y101.325 E10.13562
G1 X119.875 Y100.979 E10.16338
G1 X119.731 Y100.622 E10.19116
G1 X119.612 Y100.256 E10.21892
G1 X119.519 Y99.882 E10.24669
G1 X119.452 Y99.503 E10.27446
G1 X119.412 Y99.121 E10.30223
G1 X119.398 Y98.721 E10.33105
G1 X119.398 Y92.312 E10.79350
G1 X95.994 Y92.312 E12.48209
G1 X95.872 Y92.290 E12.49101
G1 X95.785 Y92.173 E12.50159
G1 X95.776 Y29.184 E17.04622
G1 X95.786 Y29.091 E17.05295
G1 X95.838 Y29.008 E17.06001
G1 X95.980 Y28.960 E17.07081
G1 X119.398 Y28.960 E18.76046
G1 X119.398 Y22.551 E19.22291
G1 X119.412 Y22.151 E19.25173
G1 X119.452 Y21.769 E19.27949
G1 X119.519 Y21.390 E19.30726
G1 X119.612 Y21.016 E19.33503
G1 X119.731 Y20.650 E19.36280
G1 X119.875 Y20.293 E19.39057
G1 X120.044 Y19.947 E19.41833
G1 X120.237 Y19.614 E19.44610
G1 X120.452 Y19.295 E19.47387
G1 X120.689 Y18.992 E19.50164
G1 X120.946 Y18.706 E19.52941
G1 X121.223 Y18.438 E19.55717
G1 X121.518 Y18.191 E19.58495
G1 X121.829 Y17.965 E19.61271
G1 X122.156 Y17.761 E19.64047
G1 X122.495 Y17.580 E19.66824
G1 X122.847 Y17.424 E19.69602
G1 X123.209 Y17.292 E19.72379
G1 X123.579 Y17.186 E19.75155
G1 X123.955 Y17.106 E19.77932
G1 X124.336 Y17.052 E19.80709
G1 X124.719 Y17.026 E19.83476
G1 X125.125 Y17.027 E19.86403
G1 X125.489 Y17.052 E19.89038
G1 X125.870 Y17.106 E19.91815
G1 X126.247 Y17.186 E19.94592
G1 X126.616 Y17.292 E19.97368
G1 X126.978 Y17.424 E20.00145
G1 X127.330 Y17.580 E20.02923
G1 X127.670 Y17.761 E20.05699
G1 X127.996 Y17.965 E20.08476
G1 X128.307 Y18.191 E20.11252
G1 X128.602 Y18.438 E20.14030
G1 X128.879 Y18.706 E20.16806
G1 X129.136 Y18.992 E20.19582
G1 X129.373 Y19.295 E20.22360
G1 X129.589 Y19.614 E20.25137
G1 X129.781 Y19.947 E20.27913
G1 X129.950 Y20.293 E20.30690
G1 X130.094 Y20.650 E20.33467
G1 X130.213 Y21.016 E20.36244
G1 X130.306 Y21.390 E20.39020
G1 X130.373 Y21.769 E20.41797
G1 X130.413 Y22.151 E20.44574
G1 X130.427 Y22.551 E20.47456
G1 X130.427 Y28.900 E20.93268
G1 X130.963 Y28.425 F4500.000
G1 F1440
G1 X153.878 Y28.425 E22.58601
G1 X154.089 Y28.462 E22.60148
G1 X154.272 Y28.551 E22.61618
G1 X154.441 Y28.712 E22.63296
G1 X154.544 Y28.906 E22.64881
G1 X154.585 Y29.156 E22.66711
G1 X154.585 Y92.116 E27.20970
G1 X154.542 Y92.372 E27.22838
G1 X154.474 Y92.511 E27.23953
G1 X154.379 Y92.632 E27.25068
G1 X154.182 Y92.774 E27.26822
G1 X154.041 Y92.825 E27.27899
G1 X153.883 Y92.847 E27.29053
G1 X130.963 Y92.847 E28.94424
G1 X130.963 Y98.731 E29.36872
G1 X130.948 Y99.158 E29.39956
G1 X130.904 Y99.578 E29.43003
G1 X130.830 Y99.994 E29.46050
G1 X130.728 Y100.404 E29.49096
G1 X130.597 Y100.805 E29.52143
