; generated by Slic3r 1.3.1-dev on 2019-05-14 at 16:35:18

; Print Config Notes: 
; DMF_3D_0.3mmThin232C40%
; 
; external perimeters extrusion width = 0.60mm (4.82mm^3/s)
; perimeters extrusion width = 0.54mm (5.71mm^3/s)
; infill extrusion width = 0.70mm (7.63mm^3/s)
; solid infill extrusion width = 0.51mm (5.35mm^3/s)
; top infill extrusion width = 0.51mm (5.35mm^3/s)

M107
M190 S70 ; set bed temperature and wait for it to be reached
M104 S220 ; set temperature
G28 ; home all axes
; Filament gcode

M109 S220 ; set temperature and wait for it to be reached
G21 ; set units to millimeters
G90 ; use absolute coordinates
M82 ; use absolute distances for extrusion
G92 E0
G1 Z0.300 F4500.000
G1 E-0.60000 F900.00000
G92 E0
G1 X39.743 Y67.272 F4500.000
G1 E0.65000 F900.00000
G1 F1920
G1 X41.393 Y66.312 E0.77755
G1 X42.341 Y66.107 E0.84237
G1 X136.067 Y56.004 E7.14004
G1 X136.682 Y55.958 E7.18122
G1 X137.446 Y55.947 E7.23229
G1 X138.530 Y56.023 E7.30482
G1 X139.285 Y56.140 E7.35589
G1 X140.031 Y56.310 E7.40702
G1 X140.457 Y56.432 E7.43663
G1 X141.423 Y56.780 E7.50522
G1 X168.359 Y68.361 E9.46393
G1 X168.830 Y68.588 E9.49886
G1 X169.166 Y68.785 E9.52487
G1 X169.486 Y69.003 E9.55079
G1 X169.799 Y69.251 E9.57742
G1 X170.082 Y69.509 E9.60300
G1 X170.560 Y70.040 E9.65073
G1 X170.795 Y70.359 E9.67720
G1 X171.002 Y70.685 E9.70303
G1 X171.220 Y71.095 E9.73404
G1 X171.375 Y71.449 E9.75984
G1 X171.507 Y71.820 E9.78613
G1 X171.614 Y72.203 E9.81275
G1 X171.691 Y72.576 E9.83815
G1 X171.744 Y72.968 E9.86461
G1 X171.769 Y73.362 E9.89095
G1 X171.772 Y136.480 E14.10760
G1 X171.736 Y137.106 E14.14951
G1 X171.679 Y137.493 E14.17564
G1 X171.597 Y137.865 E14.20108
G1 X171.375 Y138.551 E14.24926
G1 X171.220 Y138.905 E14.27504
G1 X171.037 Y139.254 E14.30142
G1 X170.795 Y139.641 E14.33186
G1 X170.553 Y139.970 E14.35917
G1 X170.082 Y140.491 E14.40608
G1 X169.802 Y140.746 E14.43138
G1 X169.490 Y140.994 E14.45798
G1 X169.166 Y141.216 E14.48424
G1 X168.768 Y141.445 E14.51491
G1 X168.413 Y141.616 E14.54121
G1 X141.423 Y153.220 E16.50388
G1 X140.458 Y153.567 E16.57243
G1 X139.719 Y153.768 E16.62356
G1 X138.969 Y153.915 E16.67461
G1 X138.530 Y153.977 E16.70426
G1 X137.768 Y154.042 E16.75536
G1 X137.003 Y154.053 E16.80643
G1 X136.103 Y153.999 E16.86668
G1 X42.377 Y144.631 E23.15928
G1 X40.558 Y144.052 E23.28683
G1 X39.130 Y142.785 E23.41439
G1 X38.338 Y141.047 E23.54194
G1 X38.228 Y140.047 E23.60913
G1 X38.228 Y70.687 E28.24275
G1 X38.624 Y68.820 E28.37030
G1 X39.708 Y67.321 E28.49385
G1 X40.268 Y67.528 F4500.000
G1 F1920
G1 X42.399 Y66.640 E28.64810
G1 X136.125 Y56.537 E34.94577
G1 X136.719 Y56.493 E34.98560
G1 X137.446 Y56.483 E35.03418
G1 X138.455 Y56.553 E35.10172
G1 X139.174 Y56.664 E35.15029
G1 X139.883 Y56.825 E35.19892
G1 X140.310 Y56.947 E35.22853
G1 X141.212 Y57.272 E35.29259
G1 X168.147 Y68.853 E37.25130
G1 X168.578 Y69.060 E37.28325
G1 X169.172 Y69.437 E37.33020
G1 X169.710 Y69.894 E37.37740
G1 X170.138 Y70.370 E37.42012
G1 X170.538 Y70.953 E37.46739
G1 X170.738 Y71.330 E37.49588
G1 X170.998 Y71.985 E37.54297
G1 X171.164 Y72.669 E37.59000
G1 X171.211 Y73.024 E37.61393
G1 X171.234 Y73.380 E37.63775
G1 X171.236 Y136.480 E41.85316
G1 X171.204 Y137.050 E41.89128
G1 X171.078 Y137.736 E41.93791
G1 X170.878 Y138.350 E41.98103
G1 X170.573 Y138.986 E42.02818
G1 X170.351 Y139.342 E42.05617
G1 X170.131 Y139.639 E42.08085
G1 X169.710 Y140.105 E42.12285
G1 X169.457 Y140.337 E42.14575
G1 X169.175 Y140.561 E42.16979
G1 X168.882 Y140.761 E42.19354
G1 X168.517 Y140.972 E42.22173
G1 X168.195 Y141.126 E42.24551
G1 X141.212 Y152.728 E44.20773
G1 X140.310 Y153.053 E44.27175
G1 X139.608 Y153.244 E44.32038
G1 X138.895 Y153.385 E44.36894
G1 X138.455 Y153.447 E44.39858
G1 X137.730 Y153.507 E44.44718
G1 X137.003 Y153.517 E44.49575
G1 X136.156 Y153.466 E44.55244
G1 X42.430 Y144.098 E50.84504
G1 X40.729 Y143.531 E50.96486
G1 X39.436 Y142.288 E51.08469
G1 X38.764 Y140.047 E51.24096
G1 X38.764 Y70.687 E55.87458
G1 X39.159 Y68.938 E55.99440
G1 X40.230 Y67.575 E56.11022
G1 X40.789 Y67.804 F4500.000
G1 F1920
G1 X42.456 Y67.172 E56.22933
G1 X136.182 Y57.070 E62.52700
G1 X136.757 Y57.027 E62.56549
G1 X137.446 Y57.018 E62.61157
G1 X138.380 Y57.084 E62.67412
G1 X139.062 Y57.188 E62.72020
G1 X139.736 Y57.340 E62.76633
G1 X140.162 Y57.462 E62.79594
G1 X141.000 Y57.764 E62.85546
G1 X167.936 Y69.345 E64.81418
G1 X168.327 Y69.533 E64.84315
G1 X168.857 Y69.870 E64.88515
G1 X169.338 Y70.280 E64.92736
G1 X169.716 Y70.699 E64.96508
G1 X170.074 Y71.221 E65.00735
G1 X170.257 Y71.564 E65.03332
G1 X170.488 Y72.151 E65.07544
G1 X170.636 Y72.763 E65.11751
G1 X170.698 Y73.399 E65.16017
G1 X170.700 Y136.480 E69.37436
G1 X170.671 Y136.993 E69.40869
G1 X170.558 Y137.607 E69.45041
G1 X170.382 Y138.149 E69.48847
G1 X170.109 Y138.718 E69.53065
G1 X169.907 Y139.043 E69.55618
G1 X169.710 Y139.308 E69.57822
G1 X169.338 Y139.720 E69.61531
G1 X169.112 Y139.927 E69.63581
G1 X168.860 Y140.127 E69.65730
G1 X168.539 Y140.344 E69.68320
G1 X168.265 Y140.500 E69.70424
G1 X167.936 Y140.655 E69.72855
G1 X141.000 Y152.236 E71.68727
G1 X140.162 Y152.538 E71.74676
G1 X139.496 Y152.720 E71.79289
G1 X139.062 Y152.812 E71.82253
G1 X138.135 Y152.942 E71.88507
G1 X137.446 Y152.982 E71.93116
G1 X136.757 Y152.973 E71.97723
G1 X136.209 Y152.933 E72.01389
G1 X42.484 Y143.565 E78.30649
G1 X40.908 Y143.012 E78.41805
G1 X39.763 Y141.797 E78.52961
G1 X39.300 Y140.047 E78.65049
G1 X39.300 Y70.687 E83.28412
G1 X39.694 Y69.065 E83.39567
G1 X40.750 Y67.849 E83.50322
G1 E82.90322 F900.00000
G92 E0
G1 X138.681 Y140.597 F4500.000
G1 E0.65000 F900.00000
G1 F720
G1 X139.273 Y141.052 E0.69989
G1 X139.734 Y141.651 E0.75040
G1 X140.023 Y142.350 E0.80093
G1 X140.122 Y143.100 E0.85145
G1 X140.023 Y143.850 E0.90198
G1 X139.734 Y144.549 E0.95250
G1 X139.273 Y145.148 E1.00302
G1 X138.673 Y145.609 E1.05354
G1 X137.975 Y145.898 E1.10407
G1 X137.225 Y145.997 E1.15459
G1 X136.475 Y145.898 E1.20512
G1 X135.776 Y145.609 E1.25564
G1 X135.176 Y145.148 E1.30617
G1 X134.716 Y144.549 E1.35668
G1 X134.427 Y143.850 E1.40721
G1 X134.327 Y143.095 E1.45808
G1 X134.439 Y142.321 E1.51034
G1 X134.716 Y141.651 E1.55872
G1 X135.176 Y141.052 E1.60924
G1 X135.776 Y140.591 E1.65977
G1 X136.475 Y140.302 E1.71029
G1 X137.193 Y140.207 E1.75867
G1 X137.970 Y140.300 E1.81093
G1 X138.627 Y140.572 E1.85844
G1 X138.403 Y141.059 F4500.000
G1 F720
G1 X138.891 Y141.434 E1.89954
G1 X139.266 Y141.922 E1.94064
G1 X139.501 Y142.490 E1.98174
G1 X139.582 Y143.100 E2.02284
G1 X139.501 Y143.710 E2.06395
G1 X139.266 Y144.278 E2.10505
G1 X138.891 Y144.766 E2.14615
G1 X138.403 Y145.141 E2.18725
G1 X137.835 Y145.376 E2.22835
G1 X137.225 Y145.457 E2.26945
G1 X136.615 Y145.376 E2.31056
G1 X136.046 Y145.141 E2.35166
G1 X135.558 Y144.766 E2.39276
G1 X135.184 Y144.278 E2.43386
G1 X134.948 Y143.710 E2.47496
G1 X134.868 Y143.098 E2.51619
G1 X134.959 Y142.463 E2.55903
G1 X135.184 Y141.922 E2.59821
G1 X135.558 Y141.434 E2.63931
G1 X136.046 Y141.059 E2.68041
G1 X136.615 Y140.824 E2.72151
G1 X137.196 Y140.747 E2.76070
G1 X137.833 Y140.823 E2.80353
G1 X138.348 Y141.036 E2.84075
G1 X138.403 Y141.059 F4500.000
G1 E2.24075 F900.00000
G92 E0
G1 X157.555 Y128.915 F4500.000
G1 E0.65000 F900.00000
G1 F720
G1 X157.351 Y128.422 E0.68565
G1 X157.277 Y127.860 E0.72355
G1 X157.351 Y127.298 E0.76144
G1 X157.568 Y126.773 E0.79934
G1 X157.913 Y126.323 E0.83725
G1 X158.363 Y125.978 E0.87515
G1 X158.887 Y125.761 E0.91304
G1 X159.416 Y125.691 E0.94869
G1 X160.005 Y125.758 E0.98827
G1 X160.536 Y125.978 E1.02669
G1 X160.987 Y126.323 E1.06459
G1 X161.332 Y126.773 E1.10248
G1 X161.549 Y127.298 E1.14039
G1 X161.623 Y127.860 E1.17828
G1 X161.549 Y128.422 E1.21618
G1 X161.345 Y128.915 E1.25183
G1 X160.993 Y129.392 E1.29141
G1 X160.536 Y129.742 E1.32983
G1 X160.012 Y129.959 E1.36773
G1 X159.450 Y130.033 E1.40563
G1 X158.887 Y129.959 E1.44352
G1 X158.363 Y129.742 E1.48142
G1 X157.907 Y129.392 E1.51983
G1 X157.591 Y128.964 E1.55541
G1 X158.025 Y128.650 F4500.000
G1 F720
G1 X157.873 Y128.283 E1.58197
G1 X157.817 Y127.860 E1.61045
G1 X157.873 Y127.437 E1.63892
G1 X158.036 Y127.044 E1.66740
G1 X158.295 Y126.705 E1.69588
G1 X158.633 Y126.446 E1.72436
G1 X159.027 Y126.283 E1.75284
G1 X159.421 Y126.231 E1.77939
G1 X159.870 Y126.282 E1.80955
G1 X160.266 Y126.446 E1.83821
G1 X160.605 Y126.705 E1.86669
G1 X160.864 Y127.044 E1.89517
G1 X161.027 Y127.437 E1.92365
G1 X161.083 Y127.860 E1.95212
G1 X161.027 Y128.283 E1.98060
G1 X160.875 Y128.650 E2.00716
G1 X160.607 Y129.013 E2.03732
G1 X160.266 Y129.274 E2.06598
G1 X159.872 Y129.437 E2.09446
G1 X159.450 Y129.493 E2.12294
G1 X159.027 Y129.437 E2.15141
G1 X158.633 Y129.274 E2.17989
G1 X158.293 Y129.013 E2.20855
G1 X158.060 Y128.698 E2.23471
G1 X158.025 Y128.650 F4500.000
G1 E1.63471 F900.00000
G92 E0
G1 X159.450 Y84.313 F4500.000
G1 E0.65000 F900.00000
G1 F720
G1 X158.887 Y84.239 E0.68790
G1 X158.363 Y84.022 E0.72579
G1 X157.913 Y83.677 E0.76370
G1 X157.568 Y83.226 E0.80160
G1 X157.351 Y82.702 E0.83950
G1 X157.277 Y82.140 E0.87739
G1 X157.351 Y81.578 E0.91529
G1 X157.568 Y81.053 E0.95319
G1 X157.913 Y80.603 E0.99110
G1 X158.363 Y80.258 E1.02900
G1 X158.887 Y80.041 E1.06689
G1 X159.416 Y79.971 E1.10254
G1 X160.005 Y80.038 E1.14212
G1 X160.536 Y80.258 E1.18054
G1 X160.987 Y80.603 E1.21843
G1 X161.332 Y81.053 E1.25633
G1 X161.549 Y81.578 E1.29424
G1 X161.623 Y82.140 E1.33213
G1 X161.549 Y82.702 E1.37003
G1 X161.332 Y83.226 E1.40792
G1 X160.987 Y83.677 E1.44582
G1 X160.536 Y84.022 E1.48373
G1 X160.012 Y84.239 E1.52163
G1 X159.509 Y84.305 E1.55552
G1 X159.450 Y83.773 F4500.000
G1 F720
G1 X159.027 Y83.717 E1.58400
G1 X158.633 Y83.554 E1.61247
G1 X158.295 Y83.295 E1.64095
G1 X158.036 Y82.956 E1.66943
G1 X157.873 Y82.563 E1.69791
G1 X157.817 Y82.140 E1.72638
G1 X157.873 Y81.717 E1.75486
G1 X158.036 Y81.324 E1.78334
G1 X158.295 Y80.985 E1.81182
G1 X158.633 Y80.726 E1.84030
G1 X159.027 Y80.563 E1.86877
G1 X159.421 Y80.511 E1.89532
G1 X159.870 Y80.562 E1.92549
G1 X160.266 Y80.726 E1.95415
G1 X160.605 Y80.985 E1.98263
G1 X160.864 Y81.324 E2.01110
G1 X161.027 Y81.717 E2.03959
G1 X161.083 Y82.140 E2.06806
G1 X161.027 Y82.563 E2.09654
G1 X160.864 Y82.956 E2.12501
G1 X160.605 Y83.295 E2.15349
G1 X160.266 Y83.554 E2.18197
G1 X159.872 Y83.717 E2.21045
G1 X159.509 Y83.765 E2.23492
G1 X159.450 Y83.773 F4500.000
G1 E1.63492 F900.00000
G92 E0
G1 X139.592 Y68.534 F4500.000
G1 E0.65000 F900.00000
G1 F720
G1 X139.273 Y68.948 E0.68493
G1 X138.673 Y69.409 E0.73545
G1 X137.975 Y69.698 E0.78597
G1 X137.225 Y69.797 E0.83650
G1 X136.475 Y69.698 E0.88702
G1 X135.776 Y69.409 E0.93755
G1 X135.176 Y68.948 E0.98807
G1 X134.716 Y68.349 E1.03859
G1 X134.427 Y67.650 E1.08911
G1 X134.327 Y66.895 E1.13999
G1 X134.439 Y66.121 E1.19225
G1 X134.716 Y65.451 E1.24063
G1 X135.176 Y64.852 E1.29115
G1 X135.776 Y64.391 E1.34167
G1 X136.475 Y64.102 E1.39220
G1 X137.193 Y64.007 E1.44058
G1 X137.970 Y64.100 E1.49284
G1 X138.673 Y64.391 E1.54371
G1 X139.273 Y64.852 E1.59424
G1 X139.734 Y65.451 E1.64476
G1 X140.023 Y66.150 E1.69528
G1 X140.122 Y66.900 E1.74580
G1 X140.023 Y67.650 E1.79633
G1 X139.734 Y68.349 E1.84685
G1 X139.628 Y68.486 E1.85844
G1 X139.167 Y68.208 F4500.000
G1 F720
G1 X138.891 Y68.566 E1.88865
G1 X138.403 Y68.941 E1.92976
G1 X137.835 Y69.176 E1.97086
G1 X137.225 Y69.257 E2.01196
G1 X136.615 Y69.176 E2.05306
G1 X136.046 Y68.941 E2.09416
G1 X135.558 Y68.566 E2.13527
G1 X135.184 Y68.078 E2.17637
G1 X134.948 Y67.510 E2.21747
G1 X134.868 Y66.898 E2.25870
G1 X134.959 Y66.263 E2.30153
G1 X135.184 Y65.722 E2.34072
G1 X135.558 Y65.234 E2.38182
G1 X136.046 Y64.859 E2.42292
G1 X136.615 Y64.624 E2.46402
G1 X137.196 Y64.547 E2.50321
G1 X137.833 Y64.623 E2.54604
G1 X138.403 Y64.859 E2.58727
G1 X138.891 Y65.234 E2.62837
G1 X139.266 Y65.722 E2.66947
G1 X139.501 Y66.290 E2.71057
G1 X139.582 Y66.900 E2.75168
G1 X139.501 Y67.510 E2.79278
G1 X139.266 Y68.078 E2.83388
G1 X139.203 Y68.160 E2.84075
G1 X139.345 Y68.566 F4500.000
G1 E2.24075 F900.00000
G92 E0
G1 X142.739 Y73.356 F4500.000
G1 E0.65000 F900.00000
G1 F1920
G1 X166.127 Y73.356 E2.21241
G1 X166.266 Y73.381 E2.22186
G1 X166.325 Y73.492 E2.23030
G1 X166.327 Y136.488 E6.43875
G1 X166.293 Y136.623 E6.44801
G1 X166.141 Y136.644 E6.45824
G1 X142.739 Y136.644 E8.02163
G1 X142.739 Y143.085 E8.45197
G1 X142.725 Y143.485 E8.47866
G1 X142.685 Y143.867 E8.50436
G1 X142.622 Y144.226 E8.52869
G1 X142.525 Y144.621 E8.55588
G1 X142.406 Y144.986 E8.58150
G1 X142.262 Y145.343 E8.60721
G1 X142.093 Y145.689 E8.63292
G1 X141.901 Y146.022 E8.65863
G1 X141.686 Y146.341 E8.68434
G1 X141.449 Y146.644 E8.71005
G1 X141.191 Y146.930 E8.73576
G1 X140.914 Y147.198 E8.76147
G1 X140.620 Y147.445 E8.78719
G1 X140.308 Y147.671 E8.81290
G1 X139.982 Y147.875 E8.83860
G1 X139.642 Y148.056 E8.86431
G1 X139.290 Y148.212 E8.89003
G1 X138.929 Y148.344 E8.91574
G1 X138.559 Y148.450 E8.94145
G1 X138.182 Y148.530 E8.96716
G1 X137.801 Y148.584 E8.99287
G1 X137.417 Y148.610 E9.01858
G1 X137.032 Y148.610 E9.04429
G1 X136.648 Y148.584 E9.07000
G1 X136.267 Y148.530 E9.09572
G1 X135.891 Y148.450 E9.12143
G1 X135.521 Y148.344 E9.14713
G1 X135.159 Y148.212 E9.17285
G1 X134.808 Y148.056 E9.19856
G1 X134.468 Y147.875 E9.22427
G1 X134.142 Y147.671 E9.24998
G1 X133.830 Y147.445 E9.27569
G1 X133.535 Y147.198 E9.30140
G1 X133.259 Y146.930 E9.32711
G1 X133.001 Y146.644 E9.35282
G1 X132.764 Y146.341 E9.37854
G1 X132.549 Y146.022 E9.40424
G1 X132.356 Y145.689 E9.42996
G1 X132.188 Y145.343 E9.45567
G1 X132.044 Y144.986 E9.48138
G1 X131.925 Y144.620 E9.50709
G1 X131.831 Y144.246 E9.53280
G1 X131.765 Y143.867 E9.55852
G1 X131.724 Y143.485 E9.58422
G1 X131.710 Y143.085 E9.61091
G1 X131.710 Y136.644 E10.04124
G1 X108.323 Y136.644 E11.60364
G1 X108.184 Y136.619 E11.61311
G1 X108.125 Y136.508 E11.62153
G1 X108.123 Y73.512 E15.82999
G1 X108.157 Y73.378 E15.83924
G1 X108.308 Y73.356 E15.84949
G1 X131.710 Y73.356 E17.41287
G1 X131.710 Y66.915 E17.84321
G1 X131.724 Y66.515 E17.86989
G1 X131.765 Y66.133 E17.89560
G1 X131.831 Y65.754 E17.92131
G1 X131.925 Y65.380 E17.94702
G1 X132.044 Y65.014 E17.97273
G1 X132.188 Y64.657 E17.99845
G1 X132.356 Y64.311 E18.02415
G1 X132.549 Y63.978 E18.04987
G1 X132.764 Y63.659 E18.07558
G1 X133.001 Y63.356 E18.10129
G1 X133.259 Y63.070 E18.12700
G1 X133.535 Y62.802 E18.15271
G1 X133.830 Y62.555 E18.17842
G1 X134.142 Y62.329 E18.20413
G1 X134.468 Y62.125 E18.22984
G1 X134.808 Y61.944 E18.25555
G1 X135.159 Y61.788 E18.28127
G1 X135.521 Y61.656 E18.30698
G1 X135.891 Y61.550 E18.33269
G1 X136.267 Y61.470 E18.35840
G1 X136.648 Y61.416 E18.38411
G1 X137.031 Y61.390 E18.40973
G1 X137.438 Y61.391 E18.43692
G1 X137.801 Y61.416 E18.46124
G1 X138.182 Y61.470 E18.48695
G1 X138.559 Y61.550 E18.51266
G1 X138.929 Y61.656 E18.53837
G1 X139.290 Y61.788 E18.56408
G1 X139.642 Y61.944 E18.58980
G1 X139.982 Y62.125 E18.61551
G1 X140.308 Y62.329 E18.64121
G1 X140.620 Y62.555 E18.66693
G1 X140.914 Y62.802 E18.69264
G1 X141.191 Y63.070 E18.71835
G1 X141.449 Y63.356 E18.74406
G1 X141.686 Y63.659 E18.76977
G1 X141.901 Y63.978 E18.79548
G1 X142.093 Y64.311 E18.82119
G1 X142.262 Y64.657 E18.84690
G1 X142.406 Y65.014 E18.87261
G1 X142.525 Y65.380 E18.89832
G1 X142.618 Y65.754 E18.92404
G1 X142.685 Y66.133 E18.94975
G1 X142.725 Y66.515 E18.97545
G1 X142.739 Y66.915 E19.00214
G1 X142.739 Y73.296 E19.42847
G1 X143.275 Y72.821 F4500.000
G1 F1440
G1 X166.174 Y72.821 E20.95823
G1 X166.391 Y72.859 E20.97296
G1 X166.590 Y72.967 E20.98812
G1 X166.729 Y73.110 E21.00144
G1 X166.822 Y73.286 E21.01476
G1 X166.865 Y73.530 E21.03131
G1 X166.858 Y136.572 E25.24283
G1 X166.821 Y136.719 E25.25293
G1 X166.757 Y136.850 E25.26269
G1 X166.667 Y136.965 E25.27245
G1 X166.555 Y137.059 E25.28220
G1 X166.422 Y137.130 E25.29230
G1 X166.179 Y137.179 E25.30887
G1 X143.275 Y137.179 E26.83898
G1 X143.275 Y143.095 E27.23415
G1 X143.260 Y143.522 E27.26272
G1 X143.216 Y143.942 E27.29092
G1 X143.146 Y144.336 E27.31769
G1 X143.040 Y144.768 E27.34737
G1 X142.910 Y145.169 E27.37555
G1 X142.752 Y145.561 E27.40376
G1 X142.567 Y145.940 E27.43197
G1 X142.355 Y146.306 E27.46018
G1 X142.119 Y146.656 E27.48839
G1 X141.859 Y146.989 E27.51660
G1 X141.577 Y147.303 E27.54481
