; generated by Slic3r 1.2.9 on 2017-09-13 at 14:42:54

; DMF_3D_0.3mmThin222R25%

; external perimeters extrusion width = 0.60mm
; perimeters extrusion width = 0.54mm
; infill extrusion width = 0.90mm
; solid infill extrusion width = 0.51mm
; top infill extrusion width = 0.51mm

M107
M190 S70 ; set bed temperature
M104 S220 ; set temperature
G92.1 ; clear offsets
G28 ; home all axes
M109 S220 ; wait for temperature to be reached
G21 ; set units to millimeters
G90 ; use absolute coordinates
M82 ; use absolute distances for extrusion
G92 E0
G1 Z0.300 F4500.000
G1 E-0.60000 F900.00000
G92 E0
G1 X35.595 Y61.156 F4500.000
G1 E0.65000 F900.00000
G1 X36.074 Y60.877 E0.68701 F1920.000
G1 X37.046 Y60.670 E0.75343
G1 X131.379 Y51.002 E7.08835
G1 X132.290 Y50.947 E7.14937
G1 X133.054 Y50.958 E7.20042
G1 X133.817 Y51.023 E7.25152 F1920.000
G1 X134.572 Y51.140 E7.30257
G1 X135.005 Y51.232 E7.33219
G1 X135.744 Y51.433 E7.38334
G1 X136.705 Y51.778 E7.45153
G1 X163.663 Y63.327 E9.41079
G1 X164.073 Y63.521 E9.44109
G1 X164.419 Y63.718 E9.46768
G1 X164.744 Y63.934 E9.49375
G1 X165.056 Y64.175 E9.52011
G1 X165.346 Y64.433 E9.54604
G1 X165.621 Y64.714 E9.57225
G1 X165.876 Y65.014 E9.59857
G1 X166.111 Y65.333 E9.62508
G1 X166.318 Y65.660 E9.65091
G1 X166.509 Y66.013 E9.67774
G1 X166.666 Y66.361 E9.70325
G1 X166.805 Y66.735 E9.72986
G1 X166.914 Y67.107 E9.75575
G1 X166.999 Y67.494 E9.78221
G1 X167.056 Y67.882 E9.80841
G1 X167.091 Y68.504 E9.85006
G1 X167.091 Y131.496 E14.05826
G1 X167.063 Y132.048 E14.09517
G1 X166.998 Y132.512 E14.12651
G1 X166.827 Y133.197 E14.17368
G1 X166.666 Y133.638 E14.20504
G1 X166.354 Y134.278 E14.25262
G1 X166.151 Y134.608 E14.27846
G1 X165.877 Y134.985 E14.30962
G1 X165.611 Y135.297 E14.33699
G1 X165.111 Y135.778 E14.38333
G1 X164.744 Y136.065 E14.41449
G1 X164.140 Y136.443 E14.46210
G1 X163.784 Y136.619 E14.48860
G1 X136.705 Y148.222 E16.45670
G1 X135.745 Y148.567 E16.52487
G1 X135.005 Y148.768 E16.57604
G1 X134.256 Y148.916 E16.62708
G1 X133.498 Y149.011 E16.67813
G1 X133.055 Y149.042 E16.70779
G1 X132.290 Y149.053 E16.75886
G1 X131.379 Y148.998 E16.81988
G1 X37.046 Y139.330 E23.15480
G1 X35.229 Y138.746 E23.28235
G1 X33.804 Y137.475 E23.40991
G1 X33.016 Y135.736 E23.53746
G1 X32.909 Y134.747 E23.60388
G1 X32.909 Y65.253 E28.24648
G1 X33.305 Y63.385 E28.37403
G1 X34.424 Y61.838 E28.50159
G1 X35.543 Y61.186 E28.58812
G1 X35.832 Y61.728 F4500.000
G1 X37.101 Y61.203 E28.67988 F1920.000
G1 X131.433 Y51.535 E35.01480
G1 X132.290 Y51.483 E35.07217
G1 X133.017 Y51.493 E35.12072
G1 X133.742 Y51.553 E35.16932 F1920.000
G1 X134.460 Y51.664 E35.21788
G1 X134.894 Y51.756 E35.24750
G1 X135.597 Y51.947 E35.29615
G1 X136.494 Y52.270 E35.35985
G1 X163.452 Y63.820 E37.31911
G1 X163.822 Y63.995 E37.34644
G1 X164.429 Y64.368 E37.39404
G1 X164.974 Y64.819 E37.44133
G1 X165.454 Y65.344 E37.48882
G1 X165.854 Y65.928 E37.53615
G1 X166.170 Y66.563 E37.58348
G1 X166.394 Y67.237 E37.63095
G1 X166.471 Y67.586 E37.65488
G1 X166.523 Y67.938 E37.67859
G1 X166.555 Y68.504 E37.71649
G1 X166.555 Y131.496 E41.92470
G1 X166.530 Y131.992 E41.95786
G1 X166.470 Y132.419 E41.98666
G1 X166.317 Y133.032 E42.02890
G1 X166.170 Y133.437 E42.05771
G1 X165.890 Y134.010 E42.10031
G1 X165.706 Y134.309 E42.12370
G1 X165.455 Y134.655 E42.15232
G1 X165.214 Y134.937 E42.17707
G1 X164.767 Y135.368 E42.21858
G1 X164.429 Y135.632 E42.24721
G1 X163.888 Y135.970 E42.28984
G1 X163.566 Y136.130 E42.31381
G1 X136.494 Y147.730 E44.28144
G1 X135.867 Y147.965 E44.32619
G1 X135.171 Y148.175 E44.37475
G1 X134.461 Y148.336 E44.42340
G1 X133.742 Y148.447 E44.47194
G1 X132.734 Y148.517 E44.53950
G1 X132.006 Y148.507 E44.58808
G1 X131.433 Y148.465 E44.62648
G1 X37.101 Y138.797 E50.96140
G1 X35.401 Y138.226 E51.08122
G1 X34.111 Y136.979 E51.20105
G1 X33.445 Y134.747 E51.35666
G1 X33.445 Y65.253 E55.99927
G1 X33.840 Y63.503 E56.11909
G1 X34.948 Y62.093 E56.23891
G1 X35.776 Y61.751 E56.29876
G1 X35.998 Y62.171 F4500.000
G1 X37.156 Y61.736 E56.38136 F1920.000
G1 X131.488 Y52.068 E62.71628
G1 X132.290 Y52.018 E62.76999
G1 X132.980 Y52.027 E62.81605
G1 X133.668 Y52.084 E62.86216 F1920.000
G1 X134.349 Y52.188 E62.90822
G1 X134.783 Y52.280 E62.93784
G1 X135.449 Y52.462 E62.98398
G1 X136.283 Y52.762 E63.04320
G1 X163.241 Y64.312 E65.00245
G1 X163.571 Y64.468 E65.02682
G1 X164.114 Y64.801 E65.06940
G1 X164.602 Y65.204 E65.11172
G1 X165.032 Y65.673 E65.15420
G1 X165.391 Y66.196 E65.19655
G1 X165.673 Y66.764 E65.23890
G1 X165.875 Y67.366 E65.28136
G1 X165.990 Y67.993 E65.32396
G1 X166.020 Y68.504 E65.35812
G1 X166.020 Y131.496 E69.56633
G1 X165.998 Y131.936 E69.59575
G1 X165.943 Y132.325 E69.62201
G1 X165.808 Y132.867 E69.65931
G1 X165.673 Y133.236 E69.68558
G1 X165.426 Y133.742 E69.72320
G1 X165.262 Y134.009 E69.74413
G1 X165.033 Y134.325 E69.77023
G1 X164.818 Y134.577 E69.79235
G1 X164.422 Y134.958 E69.82902
G1 X164.114 Y135.199 E69.85513
G1 X163.636 Y135.497 E69.89277
G1 X163.349 Y135.640 E69.91422
G1 X136.283 Y147.238 E71.88136
G1 X135.449 Y147.538 E71.94056
G1 X134.783 Y147.720 E71.98672
G1 X134.107 Y147.855 E72.03277
G1 X133.423 Y147.942 E72.07884
G1 X132.980 Y147.973 E72.10848
G1 X132.290 Y147.982 E72.15457
G1 X131.488 Y147.932 E72.20828
G1 X37.156 Y138.264 E78.54320
G1 X35.582 Y137.707 E78.65476
G1 X34.439 Y136.489 E78.76632
G1 X33.980 Y134.747 E78.88663
G1 X33.980 Y65.253 E83.52923
G1 X34.375 Y63.630 E83.64079
G1 X35.470 Y62.369 E83.75235
G1 X35.942 Y62.192 E83.78605
G1 E83.18605 F900.00000
G92 E0
G1 X129.820 Y137.349 F4500.000
G1 E0.65000 F900.00000
G1 X130.088 Y136.701 E0.69686 F720.000
G1 X130.533 Y136.121 E0.74567
G1 X131.113 Y135.676 E0.79448
G1 X131.788 Y135.397 E0.84329
G1 X132.483 Y135.305 E0.89016 F720.000
G1 X133.232 Y135.395 E0.94052
G1 X133.911 Y135.676 E0.98966
G1 X134.491 Y136.121 E1.03847
G1 X134.936 Y136.701 E1.08728
G1 X135.215 Y137.376 E1.13609
G1 X135.311 Y138.100 E1.18489
G1 X135.215 Y138.824 E1.23370
G1 X134.936 Y139.499 E1.28251
G1 X134.491 Y140.079 E1.33132
G1 X133.911 Y140.524 E1.38013
G1 X133.236 Y140.803 E1.42894
G1 X132.512 Y140.899 E1.47774
G1 X131.788 Y140.803 E1.52655
G1 X131.113 Y140.524 E1.57536
G1 X130.533 Y140.079 E1.62416
G1 X130.088 Y139.499 E1.67298
G1 X129.809 Y138.824 E1.72178
G1 X129.713 Y138.095 E1.77092
G1 X129.811 Y137.408 E1.81728
G1 X130.340 Y137.492 F4500.000
G1 X130.556 Y136.971 E1.85493 F720.000
G1 X130.915 Y136.503 E1.89432
G1 X131.383 Y136.144 E1.93371
G1 X131.927 Y135.919 E1.97309
G1 X132.486 Y135.845 E2.01075 F720.000
G1 X133.095 Y135.918 E2.05169
G1 X133.641 Y136.144 E2.09120
G1 X134.109 Y136.503 E2.13059
G1 X134.468 Y136.971 E2.16997
G1 X134.693 Y137.515 E2.20936
G1 X134.770 Y138.100 E2.24874
G1 X134.693 Y138.685 E2.28813
G1 X134.468 Y139.229 E2.32752
G1 X134.109 Y139.697 E2.36690
G1 X133.641 Y140.056 E2.40629
G1 X133.097 Y140.281 E2.44568
G1 X132.512 Y140.358 E2.48506
G1 X131.927 Y140.281 E2.52445
G1 X131.383 Y140.056 E2.56383
G1 X130.915 Y139.697 E2.60322
G1 X130.556 Y139.229 E2.64261
G1 X130.331 Y138.685 E2.68199
G1 X130.253 Y138.098 E2.72150
G1 X130.332 Y137.551 E2.75843
G1 X130.071 Y137.196 F4500.000
G1 E2.15843 F900.00000
G92 E0
G1 X152.806 Y123.936 F4500.000
G1 E0.65000 F900.00000
G1 X152.598 Y123.433 E0.68634 F720.000
G1 X152.523 Y122.860 E0.72496
G1 X152.598 Y122.287 E0.76358
G1 X152.819 Y121.753 E0.80219
G1 X153.171 Y121.294 E0.84081
G1 X153.630 Y120.942 E0.87944
G1 X154.164 Y120.721 E0.91806
G1 X154.703 Y120.650 E0.95440 F720.000
G1 X155.303 Y120.718 E0.99473
G1 X155.844 Y120.942 E1.03386
G1 X156.303 Y121.294 E1.07249
G1 X156.655 Y121.753 E1.11111
G1 X156.876 Y122.287 E1.14971
G1 X156.951 Y122.860 E1.18833
G1 X156.876 Y123.433 E1.22696
G1 X156.655 Y123.967 E1.26557
G1 X156.303 Y124.426 E1.30419
G1 X155.844 Y124.778 E1.34281
G1 X155.310 Y124.999 E1.38143
G1 X154.737 Y125.074 E1.42005
G1 X154.164 Y124.999 E1.45867
G1 X153.630 Y124.778 E1.49729
G1 X153.165 Y124.421 E1.53641
G1 X152.842 Y123.984 E1.57274
G1 X153.276 Y123.670 F4500.000
G1 X153.120 Y123.293 E1.59999 F720.000
G1 X153.063 Y122.860 E1.62919
G1 X153.120 Y122.427 E1.65839
G1 X153.287 Y122.023 E1.68758
G1 X153.553 Y121.676 E1.71677
G1 X153.900 Y121.410 E1.74598
G1 X154.304 Y121.243 E1.77517
G1 X154.708 Y121.190 E1.80242 F720.000
G1 X155.168 Y121.242 E1.83333
G1 X155.574 Y121.410 E1.86271
G1 X155.921 Y121.676 E1.89191
G1 X156.187 Y122.023 E1.92111
G1 X156.354 Y122.427 E1.95030
G1 X156.411 Y122.860 E1.97950
G1 X156.354 Y123.293 E2.00870
G1 X156.187 Y123.697 E2.03789
G1 X155.921 Y124.044 E2.06709
G1 X155.574 Y124.310 E2.09629
G1 X155.170 Y124.477 E2.12549
G1 X154.737 Y124.534 E2.15468
G1 X154.304 Y124.477 E2.18388
G1 X153.900 Y124.310 E2.21308
G1 X153.551 Y124.042 E2.24246
G1 X153.312 Y123.718 E2.26936
G1 X152.876 Y123.650 F4500.000
G1 X154.737 Y79.354 F4500.000
G1 X154.164 Y79.279 E2.30798 F720.000
G1 X153.661 Y79.071 E2.34432
G1 X153.176 Y78.712 E2.38466
G1 X152.819 Y78.247 E2.42379
G1 X152.598 Y77.713 E2.46239
G1 X152.523 Y77.140 E2.50102
G1 X152.598 Y76.567 E2.53964
G1 X152.819 Y76.033 E2.57825
G1 X153.171 Y75.574 E2.61687
G1 X153.630 Y75.222 E2.65550
G1 X154.164 Y75.001 E2.69412
G1 X154.703 Y74.930 E2.73046 F720.000
G1 X155.303 Y74.998 E2.77079
G1 X155.844 Y75.222 E2.80991
G1 X156.303 Y75.574 E2.84854
G1 X156.655 Y76.033 E2.88716
G1 X156.876 Y76.567 E2.92577
G1 X156.951 Y77.140 E2.96439
G1 X156.876 Y77.713 E3.00302
G1 X156.655 Y78.247 E3.04162
G1 X156.303 Y78.706 E3.08025
G1 X155.844 Y79.058 E3.11887
G1 X155.310 Y79.279 E3.15748
G1 X154.796 Y79.347 E3.19210
G1 X154.737 Y78.814 F4500.000
G1 X154.304 Y78.757 E3.22130 F720.000
G1 X153.927 Y78.601 E3.24854
G1 X153.555 Y78.326 E3.27945
G1 X153.287 Y77.977 E3.30883
G1 X153.120 Y77.573 E3.33802
G1 X153.063 Y77.140 E3.36722
G1 X153.120 Y76.707 E3.39642
G1 X153.287 Y76.303 E3.42561
G1 X153.553 Y75.956 E3.45481
G1 X153.900 Y75.690 E3.48401
G1 X154.304 Y75.523 E3.51321
G1 X154.708 Y75.470 E3.54046 F720.000
G1 X155.168 Y75.522 E3.57137
G1 X155.574 Y75.690 E3.60075
G1 X155.921 Y75.956 E3.62995
G1 X156.187 Y76.303 E3.65915
G1 X156.354 Y76.707 E3.68834
G1 X156.411 Y77.140 E3.71754
G1 X156.354 Y77.573 E3.74674
G1 X156.187 Y77.977 E3.77593
G1 X155.921 Y78.324 E3.80513
G1 X155.574 Y78.590 E3.83433
G1 X155.170 Y78.757 E3.86352
G1 X154.796 Y78.806 E3.88871
G1 X154.522 Y79.152 F4500.000
G1 E3.28871 F900.00000
G92 E0
G1 X134.780 Y63.503 F4500.000
G1 E0.65000 F900.00000
G1 X134.491 Y63.879 E0.68169 F720.000
G1 X133.911 Y64.324 E0.73050
G1 X133.236 Y64.603 E0.77930
G1 X132.512 Y64.699 E0.82811
G1 X131.788 Y64.603 E0.87691
G1 X131.113 Y64.324 E0.92572
G1 X130.533 Y63.879 E0.97453
G1 X130.088 Y63.299 E1.02334
G1 X129.809 Y62.624 E1.07215
G1 X129.713 Y61.900 E1.12096
G1 X129.809 Y61.176 E1.16976
G1 X130.088 Y60.501 E1.21857
G1 X130.533 Y59.921 E1.26738
G1 X131.113 Y59.476 E1.31619
G1 X131.788 Y59.197 E1.36500
G1 X132.483 Y59.105 E1.41186 F720.000
G1 X133.232 Y59.195 E1.46223
G1 X133.911 Y59.476 E1.51136
G1 X134.491 Y59.921 E1.56018
G1 X134.936 Y60.501 E1.60899
G1 X135.215 Y61.176 E1.65779
G1 X135.311 Y61.900 E1.70660
G1 X135.215 Y62.624 E1.75540
G1 X134.936 Y63.299 E1.80421
G1 X134.816 Y63.455 E1.81733
G1 X134.355 Y63.177 F4500.000
G1 X134.109 Y63.497 E1.84430 F720.000
G1 X133.641 Y63.856 E1.88369
G1 X133.097 Y64.081 E1.92307
G1 X132.512 Y64.158 E1.96246
G1 X131.927 Y64.081 E2.00184
G1 X131.383 Y63.856 E2.04123
G1 X130.915 Y63.497 E2.08062
G1 X130.556 Y63.029 E2.12001
G1 X130.331 Y62.485 E2.15939
G1 X130.254 Y61.900 E2.19878
G1 X130.331 Y61.315 E2.23816
G1 X130.556 Y60.771 E2.27755
G1 X130.915 Y60.303 E2.31694
G1 X131.383 Y59.944 E2.35632
G1 X131.927 Y59.719 E2.39571
G1 X132.486 Y59.645 E2.43336 F720.000
G1 X133.095 Y59.718 E2.47431
G1 X133.641 Y59.944 E2.51381
G1 X134.109 Y60.303 E2.55320
G1 X134.468 Y60.771 E2.59259
G1 X134.693 Y61.315 E2.63197
G1 X134.770 Y61.900 E2.67136
G1 X134.693 Y62.485 E2.71074
G1 X134.468 Y63.029 E2.75013
G1 X134.391 Y63.129 E2.75854
G1 X134.508 Y63.546 F4500.000
G1 X138.026 Y68.324 F4500.000
G1 X161.430 Y68.324 E4.32205 F1920.000
G1 X161.593 Y68.375 E4.33341
G1 X161.640 Y68.463 E4.34009
G1 X161.648 Y131.452 E8.54809
G1 X161.639 Y131.545 E8.55430
G1 X161.587 Y131.628 E8.56085
G1 X161.445 Y131.676 E8.57085
G1 X138.026 Y131.676 E10.13533
G1 X138.026 Y138.085 E10.56353
G1 X138.012 Y138.485 E10.59021
G1 X137.972 Y138.867 E10.61592
G1 X137.905 Y139.246 E10.64164
G1 X137.812 Y139.620 E10.66735
G1 X137.693 Y139.986 E10.69306
G1 X137.549 Y140.343 E10.71877
G1 X137.380 Y140.689 E10.74448
G1 X137.188 Y141.022 E10.77019
G1 X136.973 Y141.341 E10.79590
G1 X136.736 Y141.644 E10.82162
G1 X136.478 Y141.930 E10.84732
G1 X136.202 Y142.198 E10.87303
G1 X135.907 Y142.445 E10.89876
G1 X135.595 Y142.671 E10.92446
G1 X135.269 Y142.875 E10.95016
G1 X134.929 Y143.056 E10.97588
G1 X134.577 Y143.212 E11.00160
G1 X134.216 Y143.344 E11.02731
G1 X133.846 Y143.450 E11.05301
G1 X133.469 Y143.530 E11.07872
G1 X133.088 Y143.584 E11.10444
G1 X132.704 Y143.610 E11.13014
G1 X132.320 Y143.610 E11.15586
G1 X131.936 Y143.584 E11.18156
G1 X131.555 Y143.530 E11.20728
G1 X131.178 Y143.450 E11.23299
G1 X130.808 Y143.344 E11.25869
G1 X130.447 Y143.212 E11.28440
G1 X130.095 Y143.056 E11.31012
G1 X129.755 Y142.875 E11.33584
G1 X129.429 Y142.671 E11.36154
G1 X129.117 Y142.445 E11.38725
G1 X128.822 Y142.198 E11.41297
G1 X128.546 Y141.930 E11.43868
G1 X128.288 Y141.644 E11.46438
G1 X128.051 Y141.341 E11.49010
G1 X127.836 Y141.022 E11.51581
G1 X127.644 Y140.689 E11.54152
G1 X127.475 Y140.343 E11.56723
G1 X127.331 Y139.986 E11.59294
G1 X127.212 Y139.620 E11.61865
G1 X127.119 Y139.246 E11.64436
G1 X127.052 Y138.867 E11.67008
G1 X127.012 Y138.485 E11.69579
G1 X126.998 Y138.085 E11.72247
G1 X126.998 Y131.676 E12.15067
G1 X103.594 Y131.676 E13.71418
G1 X103.472 Y131.654 E13.72244
G1 X103.384 Y131.537 E13.73223
G1 X103.376 Y68.548 E17.94023
G1 X103.385 Y68.455 E17.94645
G1 X103.437 Y68.372 E17.95299
G1 X103.579 Y68.324 E17.96299
G1 X126.998 Y68.324 E19.52748
G1 X126.998 Y61.915 E19.95567
G1 X127.012 Y61.515 E19.98236
G1 X127.052 Y61.133 E20.00807
G1 X127.119 Y60.754 E20.03378
G1 X127.212 Y60.380 E20.05949
G1 X127.331 Y60.014 E20.08521
G1 X127.475 Y59.657 E20.11092
G1 X127.644 Y59.311 E20.13662
G1 X127.836 Y58.978 E20.16234
G1 X128.051 Y58.659 E20.18805
G1 X128.288 Y58.356 E20.21376
G1 X128.546 Y58.070 E20.23947
G1 X128.822 Y57.802 E20.26518
G1 X129.117 Y57.555 E20.29090
G1 X129.429 Y57.329 E20.31660
G1 X129.755 Y57.125 E20.34231
G1 X130.095 Y56.944 E20.36802
G1 X130.447 Y56.788 E20.39374
G1 X130.808 Y56.656 E20.41945
G1 X131.178 Y56.550 E20.44516
G1 X131.555 Y56.470 E20.47087
G1 X131.936 Y56.416 E20.49658
G1 X132.318 Y56.390 E20.52220
G1 X132.724 Y56.391 E20.54931
G1 X133.088 Y56.416 E20.57370
G1 X133.469 Y56.470 E20.59942
G1 X133.846 Y56.550 E20.62513
G1 X134.216 Y56.656 E20.65083
G1 X134.577 Y56.788 E20.67655
G1 X134.929 Y56.944 E20.70226
G1 X135.269 Y57.125 E20.72798
G1 X135.595 Y57.329 E20.75368
G1 X135.907 Y57.555 E20.77939
G1 X136.202 Y57.802 E20.80511
G1 X136.478 Y58.070 E20.83082
G1 X136.736 Y58.356 E20.85652
G1 X136.973 Y58.659 E20.88224
G1 X137.188 Y58.978 E20.90795
G1 X137.380 Y59.311 E20.93366
G1 X137.549 Y59.657 E20.95937
G1 X137.693 Y60.014 E20.98508
G1 X137.812 Y60.380 E21.01079
G1 X137.905 Y60.754 E21.03650
G1 X137.972 Y61.133 E21.06222
G1 X138.012 Y61.515 E21.08793
G1 X138.026 Y61.915 E21.11461
G1 X138.026 Y68.264 E21.53880
G1 X138.562 Y67.789 F4500.000
G1 X161.477 Y67.789 E23.06966 F1440.000
G1 X161.688 Y67.826 E23.08398
G1 X161.871 Y67.915 E23.09760
G1 X162.040 Y68.076 E23.11313
G1 X162.143 Y68.269 E23.12781
G1 X162.184 Y68.520 E23.14475
G1 X162.184 Y131.480 E27.35085
G1 X162.142 Y131.736 E27.36815
G1 X162.074 Y131.875 E27.37847
G1 X161.979 Y131.996 E27.38880
G1 X161.781 Y132.138 E27.40503
G1 X161.641 Y132.189 E27.41501
G1 X161.482 Y132.211 E27.42570
G1 X138.562 Y132.211 E28.95690
G1 X138.562 Y138.095 E29.34994
G1 X138.547 Y138.522 E29.37850
G1 X138.503 Y138.942 E29.40671
G1 X138.430 Y139.358 E29.43492
G1 X138.327 Y139.768 E29.46313
G1 X138.197 Y140.169 E29.49134
G1 X138.039 Y140.561 E29.51956
G1 X137.854 Y140.940 E29.54776
G1 X137.643 Y141.306 E29.57597
G1 X137.406 Y141.656 E29.60418
G1 X137.146 Y141.989 E29.63239
