; generated by Slic3r 1.3.1-dev on 2019-08-07 at 14:43:16

; Print Config Notes: 
; DMF_3D_0.3mm322HC25%
; 
; Filament notes: 
; DMF_3D_1.75x1.00NatPETG250 B95
; 
; external perimeters extrusion width = 0.50mm (3.35mm^3/s)
; perimeters extrusion width = 0.45mm (2.97mm^3/s)
; infill extrusion width = 0.75mm (6.96mm^3/s)
; solid infill extrusion width = 0.43mm (3.71mm^3/s)
; top infill extrusion width = 0.38mm (3.21mm^3/s)

M190 S95 ; set bed temperature and wait for it to be reached
M104 S250 ; set temperature
G28 ; home all axes
; Filament gcode

M109 S250 ; set temperature and wait for it to be reached
G21 ; set units to millimeters
G90 ; use absolute coordinates
M82 ; use absolute distances for extrusion
G92 E0
G1 E-0.60000 F900.00000
G92 E0
G1 Z0.300 F3000.000
G1 X66.919 Y56.413 F3000.000
G1 E0.65000 F900.00000
G1 F1920
G1 X67.348 Y55.969 E0.69819
G1 X67.975 Y55.442 E0.76210
G1 X68.490 Y55.095 E0.81056
G1 X69.214 Y54.710 E0.87449
G1 X69.791 Y54.477 E0.92304
G1 X70.577 Y54.252 E0.98686
G1 X71.188 Y54.144 E1.03528
G1 X72.005 Y54.087 E1.09922
G1 X137.995 Y54.087 E6.24843
G1 X138.810 Y54.144 E6.31217
G1 X139.422 Y54.252 E6.36070
G1 X140.209 Y54.477 E6.42460
G1 X140.655 Y54.652 E6.46195
G1 X141.085 Y54.856 E6.49907
G1 X141.628 Y55.169 E6.54801
G1 X142.025 Y55.442 E6.58558
G1 X142.396 Y55.739 E6.62268
G1 X142.987 Y56.309 E6.68679
G1 X143.387 Y56.785 E6.73526
G1 X143.667 Y57.180 E6.77310
G1 X144.073 Y57.884 E6.83650
G1 X144.274 Y58.323 E6.87413
G1 X144.443 Y58.772 E6.91158
G1 X144.613 Y59.366 E6.95979
G1 X144.709 Y59.841 E6.99758
G1 X144.771 Y60.319 E7.03523
G1 X144.802 Y60.963 E7.08548
G1 X144.802 Y149.037 E13.95803
G1 X144.756 Y149.826 E14.01969
G1 X144.613 Y150.634 E14.08368
G1 X144.486 Y151.095 E14.12101
G1 X144.326 Y151.548 E14.15846
G1 X144.074 Y152.116 E14.20696
G1 X143.664 Y152.824 E14.27081
G1 X143.300 Y153.326 E14.31923
G1 X142.987 Y153.691 E14.35668
G1 X142.652 Y154.031 E14.39397
G1 X142.025 Y154.557 E14.45786
G1 X141.628 Y154.831 E14.49547
G1 X141.213 Y155.076 E14.53306
G1 X140.659 Y155.347 E14.58120
G1 X140.209 Y155.523 E14.61887
G1 X139.432 Y155.746 E14.68197
G1 X138.952 Y155.836 E14.72010
G1 X138.476 Y155.891 E14.75748
G1 X137.995 Y155.913 E14.79508
G1 X72.005 Y155.913 E19.94429
G1 X71.187 Y155.856 E20.00826
G1 X70.715 Y155.778 E20.04564
G1 X70.248 Y155.666 E20.08305
G1 X69.659 Y155.475 E20.13138
G1 X68.910 Y155.142 E20.19534
G1 X68.372 Y154.831 E20.24387
G1 X67.975 Y154.558 E20.28147
G1 X67.604 Y154.261 E20.31852
G1 X67.013 Y153.691 E20.38265
G1 X66.611 Y153.212 E20.43143
G1 X66.155 Y152.535 E20.49506
G1 X65.926 Y152.115 E20.53238
G1 X65.726 Y151.677 E20.56997
G1 X65.557 Y151.228 E20.60743
G1 X65.387 Y150.635 E20.65560
G1 X65.291 Y150.161 E20.69329
G1 X65.230 Y149.685 E20.73076
G1 X65.198 Y149.037 E20.78134
G1 X65.198 Y60.963 E27.65389
G1 X65.230 Y60.313 E27.70465
G1 X65.316 Y59.699 E27.75305
G1 X65.514 Y58.905 E27.81689
G1 X65.674 Y58.452 E27.85432
G1 X65.865 Y58.010 E27.89194
G1 X66.156 Y57.464 E27.94018
G1 X66.414 Y57.060 E27.97761
G1 X66.895 Y56.442 E28.03873
G1 X67.384 Y56.832 F3000.000
G1 F1920
G1 X67.783 Y56.419 E28.08353
G1 X68.343 Y55.948 E28.14065
G1 X68.822 Y55.625 E28.18568
G1 X69.468 Y55.282 E28.24281
G1 X70.004 Y55.065 E28.28792
G1 X70.707 Y54.864 E28.34495
G1 X71.275 Y54.764 E28.38995
G1 X72.005 Y54.712 E28.44708
G1 X137.995 Y54.712 E33.59630
G1 X138.723 Y54.763 E33.65326
G1 X139.292 Y54.863 E33.69836
G1 X139.996 Y55.065 E33.75546
G1 X140.401 Y55.223 E33.78941
G1 X140.792 Y55.408 E33.82317
G1 X141.297 Y55.699 E33.86862
G1 X141.657 Y55.948 E33.90277
G1 X141.994 Y56.218 E33.93651
G1 X142.523 Y56.728 E33.99379
G1 X142.894 Y57.170 E34.03884
G1 X143.148 Y57.530 E34.07322
G1 X143.511 Y58.159 E34.12988
G1 X143.694 Y58.557 E34.16409
G1 X143.848 Y58.965 E34.19812
G1 X144.006 Y59.518 E34.24295
G1 X144.093 Y59.949 E34.27728
G1 X144.149 Y60.384 E34.31150
G1 X144.176 Y60.963 E34.35670
G1 X144.176 Y149.037 E41.22926
G1 X144.133 Y149.761 E41.28579
G1 X144.006 Y150.482 E41.34297
G1 X143.891 Y150.902 E41.37691
G1 X143.746 Y151.313 E41.41095
G1 X143.511 Y151.841 E41.45603
G1 X143.146 Y152.474 E41.51308
G1 X142.807 Y152.941 E41.55808
G1 X142.523 Y153.272 E41.59213
G1 X142.217 Y153.581 E41.62603
G1 X141.657 Y154.052 E41.68312
G1 X141.297 Y154.301 E41.71731
G1 X140.920 Y154.524 E41.75147
G1 X140.404 Y154.775 E41.79623
G1 X139.996 Y154.935 E41.83046
G1 X139.301 Y155.135 E41.88686
G1 X138.865 Y155.217 E41.92150
G1 X138.432 Y155.267 E41.95548
G1 X137.995 Y155.288 E41.98965
G1 X72.005 Y155.288 E47.13887
G1 X71.274 Y155.236 E47.19603
G1 X70.845 Y155.166 E47.23001
G1 X70.421 Y155.065 E47.26401
G1 X69.873 Y154.887 E47.30894
G1 X69.204 Y154.590 E47.36609
G1 X68.703 Y154.301 E47.41119
G1 X68.343 Y154.052 E47.44536
G1 X68.006 Y153.782 E47.47906
G1 X67.477 Y153.272 E47.53636
G1 X67.104 Y152.827 E47.58167
G1 X66.697 Y152.223 E47.63853
G1 X66.489 Y151.841 E47.67246
G1 X66.306 Y151.443 E47.70663
G1 X66.152 Y151.035 E47.74068
G1 X65.994 Y150.483 E47.78545
G1 X65.908 Y150.053 E47.81972
G1 X65.852 Y149.620 E47.85378
G1 X65.824 Y149.037 E47.89926
G1 X65.824 Y60.963 E54.77182
G1 X65.852 Y60.378 E54.81746
G1 X65.932 Y59.807 E54.86245
G1 X66.109 Y59.098 E54.91949
G1 X66.254 Y58.687 E54.95352
G1 X66.427 Y58.284 E54.98771
G1 X66.697 Y57.777 E55.03256
G1 X66.932 Y57.410 E55.06658
G1 X67.360 Y56.861 E55.12089
G1 X67.849 Y57.250 F3000.000
G1 F1920
G1 X68.218 Y56.869 E55.16230
G1 X68.711 Y56.454 E55.21261
G1 X69.153 Y56.156 E55.25422
G1 X69.723 Y55.853 E55.30455
G1 X70.218 Y55.653 E55.34622
G1 X70.837 Y55.476 E55.39646
G1 X71.362 Y55.383 E55.43805
G1 X72.005 Y55.338 E55.48837
G1 X137.995 Y55.338 E60.63759
G1 X138.636 Y55.383 E60.68777
G1 X139.162 Y55.475 E60.72944
G1 X139.782 Y55.653 E60.77974
G1 X140.147 Y55.795 E60.81029
G1 X140.499 Y55.961 E60.84069
G1 X140.965 Y56.230 E60.88265
G1 X141.289 Y56.454 E60.91338
G1 X141.592 Y56.698 E60.94376
G1 X142.058 Y57.147 E60.99421
G1 X142.401 Y57.555 E61.03583
G1 X142.629 Y57.879 E61.06675
G1 X142.949 Y58.433 E61.11669
G1 X143.114 Y58.791 E61.14746
G1 X143.253 Y59.159 E61.17809
G1 X143.399 Y59.669 E61.21952
G1 X143.476 Y60.057 E61.25040
G1 X143.526 Y60.449 E61.28119
G1 X143.551 Y60.963 E61.32134
G1 X143.551 Y149.037 E68.19390
G1 X143.511 Y149.695 E68.24532
G1 X143.399 Y150.331 E68.29569
G1 X143.296 Y150.709 E68.32624
G1 X143.166 Y151.079 E68.35687
G1 X142.949 Y151.567 E68.39851
G1 X142.627 Y152.125 E68.44877
G1 X142.314 Y152.556 E68.49036
G1 X142.058 Y152.853 E68.52099
G1 X141.783 Y153.131 E68.55151
G1 X141.289 Y153.546 E68.60180
G1 X140.965 Y153.770 E68.63256
G1 X140.626 Y153.971 E68.66330
G1 X140.150 Y154.204 E68.70468
G1 X139.782 Y154.347 E68.73547
G1 X139.170 Y154.523 E68.78517
G1 X138.778 Y154.597 E68.81632
G1 X138.388 Y154.643 E68.84690
G1 X137.995 Y154.662 E68.87764
G1 X72.005 Y154.662 E74.02686
G1 X71.361 Y154.617 E74.07721
G1 X70.975 Y154.554 E74.10780
G1 X70.593 Y154.464 E74.13840
G1 X70.087 Y154.299 E74.17992
G1 X69.497 Y154.037 E74.23026
G1 X69.035 Y153.770 E74.27193
G1 X68.711 Y153.546 E74.30267
G1 X68.408 Y153.302 E74.33302
G1 X67.942 Y152.853 E74.38348
G1 X67.598 Y152.442 E74.42533
G1 X67.239 Y151.910 E74.47543
G1 X67.051 Y151.567 E74.50597
G1 X66.886 Y151.209 E74.53671
G1 X66.747 Y150.841 E74.56736
G1 X66.601 Y150.332 E74.60871
G1 X66.524 Y149.944 E74.63957
G1 X66.474 Y149.555 E74.67022
G1 X66.449 Y149.037 E74.71061
G1 X66.449 Y60.963 E81.58317
G1 X66.474 Y60.444 E81.62370
G1 X66.548 Y59.916 E81.66527
G1 X66.704 Y59.291 E81.71552
G1 X66.834 Y58.921 E81.74614
G1 X66.990 Y58.559 E81.77690
G1 X67.239 Y58.090 E81.81835
G1 X67.451 Y57.760 E81.84897
G1 X67.825 Y57.279 E81.89646
G1 E81.29646 F900.00000
G92 E0
G1 X102.559 Y98.804 F3000.000
G1 E0.65000 F900.00000
G1 F1440
G1 X102.559 Y142.496 E4.05936
G1 X78.866 Y142.496 E5.90810
G1 X78.866 Y98.804 E9.31745
G1 X102.521 Y98.804 E11.16327
G1 X101.933 Y99.429 F3000.000
G1 F1440
G1 X101.933 Y141.871 E14.47499
G1 X79.492 Y141.871 E16.22609
G1 X79.492 Y99.429 E19.53781
G1 X101.896 Y99.429 E21.28599
G1 X101.307 Y100.055 F3000.000
G1 F1440
G1 X101.307 Y141.245 E24.50008
G1 X80.118 Y141.245 E26.15355
G1 X80.118 Y100.055 E29.36763
G1 X101.270 Y100.055 E31.01818
G1 X101.541 Y99.966 F3000.000
G1 E30.41818 F900.00000
G92 E0
G1 X94.132 Y84.361 F3000.000
G1 E0.65000 F900.00000
G1 F1440
G1 X93.248 Y84.727 E0.72465
G1 X92.300 Y84.852 E0.79929
G1 X91.352 Y84.727 E0.87393
G1 X90.468 Y84.361 E0.94858
G1 X89.707 Y83.777 E1.02341
G1 X89.123 Y83.011 E1.09855
G1 X88.761 Y82.136 E1.17247
G1 X88.636 Y81.187 E1.24711
G1 X88.761 Y80.239 E1.32175
G1 X89.127 Y79.355 E1.39640
G1 X89.709 Y78.597 E1.47103
G1 X90.468 Y78.014 E1.54567
G1 X91.352 Y77.648 E1.62031
G1 X92.291 Y77.525 E1.69423
G1 X93.246 Y77.647 E1.76938
G1 X94.132 Y78.014 E1.84422
G1 X94.891 Y78.597 E1.91886
G1 X95.473 Y79.355 E1.99349
G1 X95.839 Y80.239 E2.06813
G1 X95.964 Y81.188 E2.14278
G1 X95.839 Y82.136 E2.21742
G1 X95.473 Y83.020 E2.29207
G1 X94.891 Y83.778 E2.36670
G1 X94.162 Y84.338 E2.43841
G1 X93.817 Y83.814 F3000.000
G1 F1440
G1 X93.085 Y84.117 E2.50019
G1 X92.300 Y84.221 E2.56198
G1 X91.515 Y84.117 E2.62377
G1 X90.783 Y83.814 E2.68556
G1 X90.154 Y83.331 E2.74746
G1 X89.670 Y82.696 E2.80975
G1 X89.370 Y81.973 E2.87089
G1 X89.267 Y81.187 E2.93268
G1 X89.370 Y80.402 E2.99447
G1 X89.673 Y79.671 E3.05626
G1 X90.155 Y79.043 E3.11804
G1 X90.783 Y78.561 E3.17982
G1 X91.515 Y78.258 E3.24161
G1 X92.292 Y78.155 E3.30276
G1 X93.084 Y78.257 E3.36505
G1 X93.817 Y78.561 E3.42696
G1 X94.445 Y79.043 E3.48874
G1 X94.927 Y79.671 E3.55053
G1 X95.230 Y80.402 E3.61231
G1 X95.333 Y81.188 E3.67410
G1 X95.230 Y81.973 E3.73589
G1 X94.927 Y82.704 E3.79768
G1 X94.445 Y83.332 E3.85946
G1 X93.846 Y83.791 E3.91832
G1 X93.501 Y83.268 F3000.000
G1 F1440
G1 X92.922 Y83.508 E3.96725
G1 X92.300 Y83.590 E4.01618
G1 X91.678 Y83.508 E4.06512
G1 X91.099 Y83.268 E4.11405
G1 X90.601 Y82.886 E4.16302
G1 X90.217 Y82.382 E4.21246
G1 X89.980 Y81.809 E4.26083
G1 X89.898 Y81.187 E4.30976
G1 X89.980 Y80.566 E4.35870
G1 X90.220 Y79.986 E4.40763
G1 X90.601 Y79.489 E4.45656
G1 X91.099 Y79.107 E4.50549
G1 X91.678 Y78.867 E4.55442
G1 X92.293 Y78.786 E4.60279
G1 X92.921 Y78.867 E4.65223
G1 X93.501 Y79.107 E4.70120
G1 X93.999 Y79.489 E4.75014
G1 X94.380 Y79.986 E4.79907
G1 X94.620 Y80.566 E4.84800
G1 X94.702 Y81.188 E4.89693
G1 X94.620 Y81.809 E4.94587
G1 X94.380 Y82.389 E4.99480
G1 X93.999 Y82.886 E5.04373
G1 X93.531 Y83.245 E5.08974
G1 X93.501 Y83.268 F3000.000
G1 E4.48974 F900.00000
G92 E0
G1 X105.104 Y83.268 F3000.000
G1 E0.65000 F900.00000
G1 F1440
G1 X105.104 Y81.160 E0.81451
G1 X105.133 Y80.309 E0.88094
G1 X105.225 Y79.434 E0.94955
G1 X105.378 Y78.568 E1.01816
G1 X105.591 Y77.715 E1.08677
G1 X105.862 Y76.879 E1.15538
G1 X106.192 Y76.063 E1.22404
G1 X106.582 Y75.265 E1.29340
G1 X107.017 Y74.512 E1.36121
G1 X107.509 Y73.783 E1.42981
G1 X108.050 Y73.090 E1.49843
G1 X108.638 Y72.437 E1.56704
G1 X109.271 Y71.826 E1.63565
G1 X109.944 Y71.261 E1.70426
G1 X110.656 Y70.744 E1.77287
G1 X111.401 Y70.278 E1.84148
G1 X112.178 Y69.865 E1.91009
G1 X112.981 Y69.508 E1.97870
G1 X113.807 Y69.207 E2.04731
G1 X114.652 Y68.964 E2.11592
G1 X115.513 Y68.782 E2.18454
G1 X116.383 Y68.659 E2.25314
G1 X117.260 Y68.598 E2.32175
G1 X118.140 Y68.598 E2.39037
G1 X119.017 Y68.659 E2.45897
G1 X119.887 Y68.782 E2.52757
G1 X120.748 Y68.964 E2.59619
G1 X121.593 Y69.207 E2.66481
G1 X122.419 Y69.508 E2.73342
G1 X123.222 Y69.865 E2.80203
G1 X123.999 Y70.278 E2.87063
G1 X124.744 Y70.744 E2.93925
G1 X125.456 Y71.261 E3.00786
G1 X126.129 Y71.826 E3.07647
G1 X126.762 Y72.437 E3.14507
G1 X127.350 Y73.090 E3.21368
G1 X127.891 Y73.783 E3.28231
G1 X128.383 Y74.512 E3.35091
G1 X128.823 Y75.273 E3.41951
G1 X129.208 Y76.064 E3.48813
G1 X129.537 Y76.879 E3.55674
G1 X129.809 Y77.715 E3.62535
G1 X130.022 Y78.568 E3.69397
G1 X130.175 Y79.434 E3.76257
G1 X130.267 Y80.309 E3.83118
G1 X130.296 Y81.160 E3.89761
G1 X130.296 Y101.215 E5.46258
G1 X130.267 Y102.066 E5.52901
G1 X130.175 Y102.941 E5.59762
G1 X130.022 Y103.807 E5.66623
G1 X129.809 Y104.660 E5.73484
G1 X129.537 Y105.496 E5.80345
G1 X129.208 Y106.311 E5.87206
G1 X128.823 Y107.102 E5.94067
G1 X128.383 Y107.863 E6.00928
G1 X127.891 Y108.592 E6.07789
G1 X127.350 Y109.285 E6.14650
G1 X126.762 Y109.938 E6.21512
G1 X126.129 Y110.549 E6.28372
G1 X125.456 Y111.114 E6.35233
G1 X124.744 Y111.631 E6.42095
G1 X123.999 Y112.097 E6.48955
G1 X123.222 Y112.510 E6.55816
G1 X122.419 Y112.867 E6.62677
G1 X121.593 Y113.168 E6.69538
G1 X120.747 Y113.411 E6.76400
G1 X119.887 Y113.593 E6.83261
G1 X119.017 Y113.716 E6.90121
G1 X118.140 Y113.777 E6.96982
G1 X117.260 Y113.777 E7.03844
G1 X116.383 Y113.716 E7.10705
G1 X115.513 Y113.593 E7.17565
G1 X114.653 Y113.411 E7.24426
G1 X113.807 Y113.168 E7.31288
G1 X112.981 Y112.867 E7.38149
G1 X112.178 Y112.510 E7.45010
G1 X111.401 Y112.097 E7.51871
G1 X110.656 Y111.631 E7.58732
G1 X109.944 Y111.114 E7.65593
G1 X109.271 Y110.549 E7.72454
G1 X108.638 Y109.938 E7.79315
G1 X108.050 Y109.285 E7.86176
G1 X107.509 Y108.592 E7.93037
G1 X107.017 Y107.863 E7.99898
G1 X106.577 Y107.102 E8.06759
G1 X106.192 Y106.311 E8.13620
G1 X105.862 Y105.496 E8.20481
G1 X105.591 Y104.660 E8.27342
G1 X105.378 Y103.807 E8.34203
G1 X105.225 Y102.941 E8.41064
G1 X105.133 Y102.066 E8.47925
G1 X105.104 Y101.215 E8.54569
G1 X105.104 Y83.305 E9.94322
G1 X105.729 Y83.268 F3000.000
G1 F1440
G1 X105.729 Y81.171 E10.10687
G1 X105.758 Y80.352 E10.17075
G1 X105.845 Y79.521 E10.23595
G1 X105.990 Y78.699 E10.30115
G1 X106.193 Y77.888 E10.36635
G1 X106.451 Y77.093 E10.43155
G1 X106.764 Y76.318 E10.49678
G1 X107.135 Y75.559 E10.56273
G1 X107.548 Y74.844 E10.62715
G1 X108.015 Y74.151 E10.69235
G1 X108.530 Y73.493 E10.75756
G1 X109.089 Y72.872 E10.82275
G1 X109.690 Y72.291 E10.88795
G1 X110.330 Y71.754 E10.95315
G1 X111.006 Y71.263 E11.01835
G1 X111.714 Y70.820 E11.08356
G1 X112.452 Y70.428 E11.14876
G1 X113.215 Y70.088 E11.21396
G1 X114.001 Y69.802 E11.27916
G1 X114.804 Y69.572 E11.34436
G1 X115.621 Y69.398 E11.40957
G1 X116.449 Y69.282 E11.47476
G1 X117.282 Y69.224 E11.53996
G1 X118.118 Y69.224 E11.60517
G1 X118.951 Y69.282 E11.67036
G1 X119.779 Y69.398 E11.73556
G1 X120.596 Y69.572 E11.80076
G1 X121.399 Y69.802 E11.86597
G1 X122.185 Y70.088 E11.93117
G1 X122.948 Y70.428 E11.99637
G1 X123.686 Y70.820 E12.06157
G1 X124.394 Y71.263 E12.12677
G1 X125.070 Y71.754 E12.19197
G1 X125.710 Y72.291 E12.25717
G1 X126.311 Y72.872 E12.32237
G1 X126.870 Y73.492 E12.38757
G1 X127.385 Y74.151 E12.45278
G1 X127.852 Y74.844 E12.51797
G1 X128.270 Y75.567 E12.58317
G1 X128.636 Y76.318 E12.64838
G1 X128.949 Y77.093 E12.71358
G1 X129.207 Y77.888 E12.77878
G1 X129.410 Y78.699 E12.84398
G1 X129.555 Y79.521 E12.90918
G1 X129.642 Y80.352 E12.97438
G1 X129.671 Y81.171 E13.03826
G1 X129.671 Y101.204 E14.60151
G1 X129.642 Y102.023 E14.66539
G1 X129.555 Y102.854 E14.73059
G1 X129.410 Y103.676 E14.79579
G1 X129.207 Y104.487 E14.86099
G1 X128.949 Y105.282 E14.92620
G1 X128.636 Y106.057 E14.99140
G1 X128.270 Y106.808 E15.05660
G1 X127.852 Y107.531 E15.12180
G1 X127.385 Y108.224 E15.18700
G1 X126.870 Y108.882 E15.25220
G1 X126.311 Y109.503 E15.31740
G1 X125.710 Y110.084 E15.38260
G1 X125.070 Y110.621 E15.44780
G1 X124.394 Y111.112 E15.51300
G1 X123.686 Y111.555 E15.57820
G1 X122.948 Y111.947 E15.64340
G1 X122.185 Y112.287 E15.70860
G1 X121.399 Y112.573 E15.77380
G1 X120.596 Y112.803 E15.83901
G1 X119.779 Y112.977 E15.90421
G1 X118.951 Y113.093 E15.96941
G1 X118.118 Y113.151 E16.03461
G1 X117.282 Y113.151 E16.09981
G1 X116.449 Y113.093 E16.16501
G1 X115.621 Y112.977 E16.23021
G1 X114.804 Y112.803 E16.29541
G1 X114.001 Y112.573 E16.36061
G1 X113.216 Y112.287 E16.42581
G1 X112.452 Y111.947 E16.49101
G1 X111.714 Y111.555 E16.55621
G1 X111.006 Y111.112 E16.62141
G1 X110.330 Y110.621 E16.68662
G1 X109.690 Y110.084 E16.75182
G1 X109.089 Y109.503 E16.81702
G1 X108.530 Y108.882 E16.88222
G1 X108.015 Y108.224 E16.94742
G1 X107.548 Y107.531 E17.01262
G1 X107.130 Y106.808 E17.07782
G1 X106.764 Y106.057 E17.14302
G1 X106.451 Y105.282 E17.20822
G1 X106.193 Y104.487 E17.27342
G1 X105.990 Y103.676 E17.33862
G1 X105.845 Y102.854 E17.40382
G1 X105.758 Y102.023 E17.46902
