; generated by Slic3r 1.3.1-dev on 2019-08-07 at 14:42:50

; Print Config Notes: 
; DMF_3D_0.3mm322HC25%
; 
; Filament notes: 
; DMF_3D_1.75x1.00NatPETG250 B95
; 
; external perimeters extrusion width = 0.50mm (3.35mm^3/s)
; perimeters extrusion width = 0.45mm (2.97mm^3/s)
; infill extrusion width = 0.75mm (6.96mm^3/s)
; solid infill extrusion width = 0.43mm (3.71mm^3/s)
; top infill extrusion width = 0.38mm (3.21mm^3/s)

M190 S95 ; set bed temperature and wait for it to be reached
M104 S250 ; set temperature
G28 ; home all axes
; Filament gcode

M109 S250 ; set temperature and wait for it to be reached
G21 ; set units to millimeters
G90 ; use absolute coordinates
M82 ; use absolute distances for extrusion
G92 E0
G1 E-0.60000 F900.00000
G92 E0
G1 Z0.300 F3000.000
G1 X66.919 Y56.413 F3000.000
G1 E0.65000 F900.00000
G1 F1920
G1 X67.348 Y55.969 E0.69819
G1 X67.975 Y55.442 E0.76210
G1 X68.490 Y55.095 E0.81056
G1 X69.214 Y54.710 E0.87449
G1 X69.791 Y54.477 E0.92304
G1 X70.577 Y54.252 E0.98686
G1 X71.188 Y54.144 E1.03528
G1 X72.005 Y54.087 E1.09922
G1 X137.995 Y54.087 E6.24843
G1 X138.810 Y54.144 E6.31217
G1 X139.422 Y54.252 E6.36070
G1 X140.209 Y54.477 E6.42460
G1 X140.655 Y54.652 E6.46195
G1 X141.085 Y54.856 E6.49907
G1 X141.628 Y55.169 E6.54801
G1 X142.025 Y55.442 E6.58558
G1 X142.396 Y55.739 E6.62268
G1 X142.987 Y56.309 E6.68679
G1 X143.387 Y56.785 E6.73526
G1 X143.667 Y57.180 E6.77310
G1 X144.073 Y57.884 E6.83650
G1 X144.274 Y58.323 E6.87413
G1 X144.443 Y58.772 E6.91158
G1 X144.613 Y59.366 E6.95979
G1 X144.709 Y59.841 E6.99758
G1 X144.771 Y60.319 E7.03523
G1 X144.802 Y60.963 E7.08548
G1 X144.802 Y149.037 E13.95803
G1 X144.756 Y149.826 E14.01969
G1 X144.613 Y150.634 E14.08368
G1 X144.486 Y151.095 E14.12101
G1 X144.326 Y151.548 E14.15846
G1 X144.074 Y152.116 E14.20696
G1 X143.664 Y152.824 E14.27081
G1 X143.300 Y153.326 E14.31923
G1 X142.987 Y153.691 E14.35668
G1 X142.652 Y154.031 E14.39397
G1 X142.025 Y154.557 E14.45786
G1 X141.628 Y154.831 E14.49547
G1 X141.213 Y155.076 E14.53306
G1 X140.659 Y155.347 E14.58120
G1 X140.209 Y155.523 E14.61887
G1 X139.432 Y155.746 E14.68197
G1 X138.952 Y155.836 E14.72010
G1 X138.476 Y155.891 E14.75748
G1 X137.995 Y155.913 E14.79508
G1 X72.005 Y155.913 E19.94429
G1 X71.187 Y155.856 E20.00826
G1 X70.715 Y155.778 E20.04564
G1 X70.248 Y155.666 E20.08305
G1 X69.659 Y155.475 E20.13138
G1 X68.910 Y155.142 E20.19534
G1 X68.372 Y154.831 E20.24387
G1 X67.975 Y154.558 E20.28147
G1 X67.604 Y154.261 E20.31852
G1 X67.013 Y153.691 E20.38265
G1 X66.611 Y153.212 E20.43143
G1 X66.155 Y152.535 E20.49506
G1 X65.926 Y152.115 E20.53238
G1 X65.726 Y151.677 E20.56997
G1 X65.557 Y151.228 E20.60743
G1 X65.387 Y150.635 E20.65560
G1 X65.291 Y150.161 E20.69329
G1 X65.230 Y149.685 E20.73076
G1 X65.198 Y149.037 E20.78134
G1 X65.198 Y60.963 E27.65389
G1 X65.230 Y60.313 E27.70465
G1 X65.316 Y59.699 E27.75305
G1 X65.514 Y58.905 E27.81689
G1 X65.674 Y58.452 E27.85432
G1 X65.865 Y58.010 E27.89194
G1 X66.156 Y57.464 E27.94018
G1 X66.414 Y57.060 E27.97761
G1 X66.895 Y56.442 E28.03873
G1 X67.384 Y56.832 F3000.000
G1 F1920
G1 X67.783 Y56.419 E28.08353
G1 X68.343 Y55.948 E28.14065
G1 X68.822 Y55.625 E28.18568
G1 X69.468 Y55.282 E28.24281
G1 X70.004 Y55.065 E28.28792
G1 X70.707 Y54.864 E28.34495
G1 X71.275 Y54.764 E28.38995
G1 X72.005 Y54.712 E28.44708
G1 X137.995 Y54.712 E33.59630
G1 X138.723 Y54.763 E33.65326
G1 X139.292 Y54.863 E33.69836
G1 X139.996 Y55.065 E33.75546
G1 X140.401 Y55.223 E33.78941
G1 X140.792 Y55.408 E33.82317
G1 X141.297 Y55.699 E33.86862
G1 X141.657 Y55.948 E33.90277
G1 X141.994 Y56.218 E33.93651
G1 X142.523 Y56.728 E33.99379
G1 X142.894 Y57.170 E34.03884
G1 X143.148 Y57.530 E34.07322
G1 X143.511 Y58.159 E34.12988
G1 X143.694 Y58.557 E34.16409
G1 X143.848 Y58.965 E34.19812
G1 X144.006 Y59.518 E34.24295
G1 X144.093 Y59.949 E34.27728
G1 X144.149 Y60.384 E34.31150
G1 X144.176 Y60.963 E34.35670
G1 X144.176 Y149.037 E41.22926
G1 X144.133 Y149.761 E41.28579
G1 X144.006 Y150.482 E41.34297
G1 X143.891 Y150.902 E41.37691
G1 X143.746 Y151.313 E41.41095
G1 X143.511 Y151.841 E41.45603
G1 X143.146 Y152.474 E41.51308
G1 X142.807 Y152.941 E41.55808
G1 X142.523 Y153.272 E41.59213
G1 X142.217 Y153.581 E41.62603
G1 X141.657 Y154.052 E41.68312
G1 X141.297 Y154.301 E41.71731
G1 X140.920 Y154.524 E41.75147
G1 X140.404 Y154.775 E41.79623
G1 X139.996 Y154.935 E41.83046
G1 X139.301 Y155.135 E41.88686
G1 X138.865 Y155.217 E41.92150
G1 X138.432 Y155.267 E41.95548
G1 X137.995 Y155.288 E41.98965
G1 X72.005 Y155.288 E47.13887
G1 X71.274 Y155.236 E47.19603
G1 X70.845 Y155.166 E47.23001
G1 X70.421 Y155.065 E47.26401
G1 X69.873 Y154.887 E47.30894
G1 X69.204 Y154.590 E47.36609
G1 X68.703 Y154.301 E47.41119
G1 X68.343 Y154.052 E47.44536
G1 X68.006 Y153.782 E47.47906
G1 X67.477 Y153.272 E47.53636
G1 X67.104 Y152.827 E47.58167
G1 X66.697 Y152.223 E47.63853
G1 X66.489 Y151.841 E47.67246
G1 X66.306 Y151.443 E47.70663
G1 X66.152 Y151.035 E47.74068
G1 X65.994 Y150.483 E47.78545
G1 X65.908 Y150.053 E47.81972
G1 X65.852 Y149.620 E47.85378
G1 X65.824 Y149.037 E47.89926
G1 X65.824 Y60.963 E54.77182
G1 X65.852 Y60.378 E54.81746
G1 X65.932 Y59.807 E54.86245
G1 X66.109 Y59.098 E54.91949
G1 X66.254 Y58.687 E54.95352
G1 X66.427 Y58.284 E54.98771
G1 X66.697 Y57.777 E55.03256
G1 X66.932 Y57.410 E55.06658
G1 X67.360 Y56.861 E55.12089
G1 X67.849 Y57.250 F3000.000
G1 F1920
G1 X68.218 Y56.869 E55.16230
G1 X68.711 Y56.454 E55.21261
G1 X69.153 Y56.156 E55.25422
G1 X69.723 Y55.853 E55.30455
G1 X70.218 Y55.653 E55.34622
G1 X70.837 Y55.476 E55.39646
G1 X71.362 Y55.383 E55.43805
G1 X72.005 Y55.338 E55.48837
G1 X137.995 Y55.338 E60.63759
G1 X138.636 Y55.383 E60.68777
G1 X139.162 Y55.475 E60.72944
G1 X139.782 Y55.653 E60.77974
G1 X140.147 Y55.795 E60.81029
G1 X140.499 Y55.961 E60.84069
G1 X140.965 Y56.230 E60.88265
G1 X141.289 Y56.454 E60.91338
G1 X141.592 Y56.698 E60.94376
G1 X142.058 Y57.147 E60.99421
G1 X142.401 Y57.555 E61.03583
G1 X142.629 Y57.879 E61.06675
G1 X142.949 Y58.433 E61.11669
G1 X143.114 Y58.791 E61.14746
G1 X143.253 Y59.159 E61.17809
G1 X143.399 Y59.669 E61.21952
G1 X143.476 Y60.057 E61.25040
G1 X143.526 Y60.449 E61.28119
G1 X143.551 Y60.963 E61.32134
G1 X143.551 Y149.037 E68.19390
G1 X143.511 Y149.695 E68.24532
G1 X143.399 Y150.331 E68.29569
G1 X143.296 Y150.709 E68.32624
G1 X143.166 Y151.079 E68.35687
G1 X142.949 Y151.567 E68.39851
G1 X142.627 Y152.125 E68.44877
G1 X142.314 Y152.556 E68.49036
G1 X142.058 Y152.853 E68.52099
G1 X141.783 Y153.131 E68.55151
G1 X141.289 Y153.546 E68.60180
G1 X140.965 Y153.770 E68.63256
G1 X140.626 Y153.971 E68.66330
G1 X140.150 Y154.204 E68.70468
G1 X139.782 Y154.347 E68.73547
G1 X139.170 Y154.523 E68.78517
G1 X138.778 Y154.597 E68.81632
G1 X138.388 Y154.643 E68.84690
G1 X137.995 Y154.662 E68.87764
G1 X72.005 Y154.662 E74.02686
G1 X71.361 Y154.617 E74.07721
G1 X70.975 Y154.554 E74.10780
G1 X70.593 Y154.464 E74.13840
G1 X70.087 Y154.299 E74.17992
G1 X69.497 Y154.037 E74.23026
G1 X69.035 Y153.770 E74.27193
G1 X68.711 Y153.546 E74.30267
G1 X68.408 Y153.302 E74.33302
G1 X67.942 Y152.853 E74.38348
G1 X67.598 Y152.442 E74.42533
G1 X67.239 Y151.910 E74.47543
G1 X67.051 Y151.567 E74.50597
G1 X66.886 Y151.209 E74.53671
G1 X66.747 Y150.841 E74.56736
G1 X66.601 Y150.332 E74.60871
G1 X66.524 Y149.944 E74.63957
G1 X66.474 Y149.555 E74.67022
G1 X66.449 Y149.037 E74.71061
G1 X66.449 Y60.963 E81.58317
G1 X66.474 Y60.444 E81.62370
G1 X66.548 Y59.916 E81.66527
G1 X66.704 Y59.291 E81.71552
G1 X66.834 Y58.921 E81.74614
G1 X66.990 Y58.559 E81.77690
G1 X67.239 Y58.090 E81.81835
G1 X67.451 Y57.760 E81.84897
G1 X67.825 Y57.279 E81.89646
G1 E81.29646 F900.00000
G92 E0
G1 X131.134 Y98.804 F3000.000
G1 E0.65000 F900.00000
G1 F1440
G1 X131.134 Y142.496 E4.05936
G1 X107.441 Y142.496 E5.90810
G1 X107.441 Y98.804 E9.31745
G1 X131.096 Y98.804 E11.16327
G1 X130.508 Y99.429 F3000.000
G1 F1440
G1 X130.508 Y141.871 E14.47499
G1 X108.067 Y141.871 E16.22609
G1 X108.067 Y99.429 E19.53781
G1 X130.471 Y99.429 E21.28599
G1 X129.883 Y100.055 F3000.000
G1 F1440
G1 X129.883 Y141.245 E24.50008
G1 X108.692 Y141.245 E26.15355
G1 X108.692 Y100.055 E29.36763
G1 X129.845 Y100.055 E31.01818
G1 X130.116 Y99.966 F3000.000
G1 E30.41818 F900.00000
G92 E0
G1 X119.532 Y84.361 F3000.000
G1 E0.65000 F900.00000
G1 F1440
G1 X118.648 Y84.727 E0.72464
G1 X117.700 Y84.852 E0.79929
G1 X116.752 Y84.727 E0.87393
G1 X115.868 Y84.361 E0.94858
G1 X115.109 Y83.778 E1.02321
G1 X114.527 Y83.020 E1.09784
G1 X114.161 Y82.136 E1.17249
G1 X114.036 Y81.187 E1.24713
G1 X114.161 Y80.239 E1.32177
G1 X114.527 Y79.355 E1.39642
G1 X115.109 Y78.597 E1.47105
G1 X115.868 Y78.014 E1.54568
G1 X116.752 Y77.648 E1.62033
G1 X117.691 Y77.525 E1.69425
G1 X118.646 Y77.647 E1.76939
G1 X119.532 Y78.014 E1.84424
G1 X120.291 Y78.597 E1.91887
G1 X120.873 Y79.355 E1.99351
G1 X121.239 Y80.239 E2.06815
G1 X121.364 Y81.187 E2.14279
G1 X121.239 Y82.136 E2.21744
G1 X120.873 Y83.020 E2.29208
G1 X120.291 Y83.778 E2.36672
G1 X119.562 Y84.338 E2.43842
G1 X119.217 Y83.814 F3000.000
G1 F1440
G1 X118.485 Y84.117 E2.50021
G1 X117.700 Y84.221 E2.56200
G1 X116.915 Y84.117 E2.62379
G1 X116.183 Y83.814 E2.68558
G1 X115.555 Y83.332 E2.74736
G1 X115.073 Y82.704 E2.80914
G1 X114.770 Y81.973 E2.87093
G1 X114.667 Y81.187 E2.93272
G1 X114.770 Y80.402 E2.99451
G1 X115.073 Y79.671 E3.05630
G1 X115.555 Y79.043 E3.11808
G1 X116.183 Y78.561 E3.17986
G1 X116.915 Y78.258 E3.24165
G1 X117.692 Y78.155 E3.30279
G1 X118.484 Y78.257 E3.36508
G1 X119.217 Y78.561 E3.42700
G1 X119.845 Y79.043 E3.48878
G1 X120.327 Y79.671 E3.55056
G1 X120.630 Y80.402 E3.61235
G1 X120.733 Y81.187 E3.67414
G1 X120.630 Y81.973 E3.73593
G1 X120.327 Y82.704 E3.79771
G1 X119.845 Y83.332 E3.85950
G1 X119.246 Y83.791 E3.91835
G1 X118.901 Y83.268 F3000.000
G1 F1440
G1 X118.322 Y83.508 E3.96728
G1 X117.700 Y83.590 E4.01622
G1 X117.078 Y83.508 E4.06515
G1 X116.499 Y83.268 E4.11409
G1 X116.001 Y82.886 E4.16302
G1 X115.620 Y82.389 E4.21195
G1 X115.380 Y81.809 E4.26088
G1 X115.298 Y81.187 E4.30981
G1 X115.380 Y80.566 E4.35875
G1 X115.620 Y79.986 E4.40768
G1 X116.001 Y79.489 E4.45661
G1 X116.499 Y79.107 E4.50554
G1 X117.078 Y78.867 E4.55447
G1 X117.693 Y78.786 E4.60284
G1 X118.321 Y78.867 E4.65228
G1 X118.901 Y79.107 E4.70126
G1 X119.399 Y79.489 E4.75019
G1 X119.780 Y79.986 E4.79912
G1 X120.020 Y80.566 E4.84805
G1 X120.102 Y81.187 E4.89699
G1 X120.020 Y81.809 E4.94592
G1 X119.780 Y82.389 E4.99485
G1 X119.399 Y82.886 E5.04378
G1 X118.931 Y83.245 E5.08979
G1 X118.901 Y83.268 F3000.000
G1 E4.48979 F900.00000
G92 E0
G1 X104.896 Y83.268 F3000.000
G1 E0.65000 F900.00000
G1 F1440
G1 X104.896 Y101.215 E2.05046
G1 X104.867 Y102.066 E2.11689
G1 X104.775 Y102.941 E2.18550
G1 X104.622 Y103.807 E2.25411
G1 X104.409 Y104.660 E2.32272
G1 X104.138 Y105.496 E2.39133
G1 X103.808 Y106.311 E2.45994
G1 X103.423 Y107.102 E2.52855
G1 X102.983 Y107.863 E2.59716
G1 X102.491 Y108.592 E2.66577
G1 X101.950 Y109.285 E2.73438
G1 X101.362 Y109.938 E2.80299
G1 X100.729 Y110.549 E2.87160
G1 X100.056 Y111.114 E2.94022
G1 X99.344 Y111.631 E3.00883
G1 X98.599 Y112.097 E3.07744
G1 X97.822 Y112.510 E3.14605
G1 X97.019 Y112.867 E3.21466
G1 X96.193 Y113.168 E3.28327
G1 X95.347 Y113.411 E3.35188
G1 X94.487 Y113.593 E3.42049
G1 X93.617 Y113.716 E3.48910
G1 X92.740 Y113.777 E3.55771
G1 X91.860 Y113.777 E3.62632
G1 X90.983 Y113.716 E3.69493
G1 X90.113 Y113.593 E3.76354
G1 X89.253 Y113.411 E3.83214
G1 X88.407 Y113.168 E3.90076
G1 X87.591 Y112.871 E3.96857
G1 X86.778 Y112.510 E4.03793
G1 X86.001 Y112.097 E4.10659
G1 X85.256 Y111.631 E4.17520
G1 X84.544 Y111.114 E4.24381
G1 X83.871 Y110.549 E4.31242
G1 X83.238 Y109.938 E4.38102
G1 X82.650 Y109.285 E4.44964
G1 X82.109 Y108.592 E4.51825
G1 X81.617 Y107.863 E4.58686
G1 X81.177 Y107.102 E4.65547
G1 X80.792 Y106.311 E4.72408
G1 X80.463 Y105.496 E4.79269
G1 X80.191 Y104.660 E4.86130
G1 X79.978 Y103.807 E4.92992
G1 X79.825 Y102.941 E4.99852
G1 X79.733 Y102.066 E5.06713
G1 X79.704 Y101.215 E5.13357
G1 X79.704 Y81.159 E6.69858
G1 X79.735 Y80.299 E6.76577
G1 X79.825 Y79.434 E6.83357
G1 X79.978 Y78.568 E6.90217
G1 X80.191 Y77.715 E6.97079
G1 X80.463 Y76.879 E7.03940
G1 X80.792 Y76.064 E7.10801
G1 X81.177 Y75.273 E7.17663
G1 X81.617 Y74.512 E7.24523
G1 X82.109 Y73.783 E7.31383
G1 X82.650 Y73.090 E7.38246
G1 X83.238 Y72.437 E7.45107
G1 X83.871 Y71.826 E7.51967
G1 X84.544 Y71.261 E7.58828
G1 X85.256 Y70.744 E7.65689
G1 X86.001 Y70.278 E7.72550
G1 X86.778 Y69.865 E7.79411
G1 X87.581 Y69.508 E7.86272
G1 X88.407 Y69.207 E7.93133
G1 X89.252 Y68.964 E7.99995
G1 X90.113 Y68.782 E8.06856
G1 X90.983 Y68.659 E8.13717
G1 X91.860 Y68.598 E8.20577
G1 X92.740 Y68.598 E8.27439
G1 X93.617 Y68.659 E8.34299
G1 X94.487 Y68.782 E8.41160
G1 X95.348 Y68.964 E8.48021
G1 X96.193 Y69.207 E8.54883
G1 X97.019 Y69.508 E8.61744
G1 X97.822 Y69.865 E8.68605
G1 X98.599 Y70.278 E8.75466
G1 X99.344 Y70.744 E8.82327
G1 X100.056 Y71.261 E8.89188
G1 X100.729 Y71.826 E8.96049
G1 X101.362 Y72.437 E9.02910
G1 X101.950 Y73.090 E9.09771
G1 X102.491 Y73.783 E9.16632
G1 X102.983 Y74.512 E9.23493
G1 X103.423 Y75.273 E9.30354
G1 X103.808 Y76.064 E9.37215
G1 X104.138 Y76.879 E9.44076
G1 X104.409 Y77.715 E9.50937
G1 X104.622 Y78.569 E9.57804
G1 X104.776 Y79.445 E9.64739
G1 X104.867 Y80.309 E9.71520
G1 X104.896 Y81.160 E9.78163
G1 X104.896 Y83.230 E9.94321
G1 X104.271 Y83.268 F3000.000
G1 F1440
G1 X104.271 Y101.204 E11.34282
G1 X104.242 Y102.023 E11.40670
G1 X104.155 Y102.854 E11.47190
G1 X104.010 Y103.676 E11.53710
G1 X103.807 Y104.487 E11.60230
G1 X103.549 Y105.282 E11.66750
G1 X103.236 Y106.057 E11.73270
G1 X102.870 Y106.808 E11.79790
G1 X102.452 Y107.531 E11.86310
G1 X101.985 Y108.224 E11.92830
G1 X101.470 Y108.882 E11.99350
G1 X100.911 Y109.503 E12.05870
G1 X100.310 Y110.084 E12.12390
G1 X99.670 Y110.621 E12.18911
G1 X98.994 Y111.112 E12.25431
G1 X98.286 Y111.555 E12.31951
G1 X97.548 Y111.947 E12.38471
G1 X96.784 Y112.287 E12.44991
G1 X95.999 Y112.573 E12.51511
G1 X95.196 Y112.803 E12.58031
G1 X94.379 Y112.977 E12.64551
G1 X93.551 Y113.093 E12.71071
G1 X92.718 Y113.151 E12.77591
G1 X91.882 Y113.151 E12.84111
G1 X91.049 Y113.093 E12.90631
G1 X90.221 Y112.977 E12.97151
G1 X89.404 Y112.803 E13.03671
G1 X88.601 Y112.573 E13.10192
G1 X87.825 Y112.290 E13.16634
G1 X87.053 Y111.947 E13.23229
G1 X86.314 Y111.555 E13.29752
G1 X85.606 Y111.112 E13.36272
G1 X84.930 Y110.621 E13.42792
G1 X84.290 Y110.084 E13.49312
G1 X83.689 Y109.503 E13.55832
G1 X83.130 Y108.882 E13.62352
G1 X82.615 Y108.224 E13.68872
G1 X82.148 Y107.531 E13.75392
G1 X81.730 Y106.808 E13.81912
G1 X81.364 Y106.057 E13.88432
G1 X81.051 Y105.282 E13.94952
G1 X80.793 Y104.487 E14.01473
G1 X80.590 Y103.676 E14.07993
G1 X80.445 Y102.854 E14.14513
G1 X80.358 Y102.023 E14.21032
G1 X80.329 Y101.204 E14.27420
G1 X80.329 Y81.170 E15.83750
G1 X80.359 Y80.342 E15.90212
G1 X80.445 Y79.521 E15.96654
G1 X80.590 Y78.699 E16.03174
G1 X80.793 Y77.888 E16.09694
G1 X81.051 Y77.093 E16.16214
G1 X81.364 Y76.318 E16.22734
G1 X81.730 Y75.567 E16.29255
G1 X82.148 Y74.844 E16.35774
G1 X82.615 Y74.151 E16.42294
G1 X83.130 Y73.492 E16.48815
G1 X83.689 Y72.872 E16.55335
G1 X84.290 Y72.291 E16.61855
G1 X84.930 Y71.754 E16.68375
G1 X85.606 Y71.263 E16.74895
G1 X86.314 Y70.820 E16.81415
G1 X87.052 Y70.428 E16.87935
G1 X87.815 Y70.088 E16.94455
G1 X88.601 Y69.802 E17.00975
G1 X89.404 Y69.572 E17.07496
G1 X90.221 Y69.398 E17.14016
G1 X91.049 Y69.282 E17.20536
G1 X91.882 Y69.224 E17.27055
G1 X92.718 Y69.224 E17.33576
G1 X93.551 Y69.282 E17.40095
G1 X94.379 Y69.398 E17.46615
G1 X95.196 Y69.572 E17.53135
G1 X95.999 Y69.802 E17.59656
G1 X96.784 Y70.088 E17.66176
G1 X97.548 Y70.428 E17.72696
G1 X98.286 Y70.820 E17.79216
G1 X98.994 Y71.263 E17.85736
G1 X99.670 Y71.754 E17.92256
G1 X100.310 Y72.291 E17.98776
G1 X100.911 Y72.872 E18.05297
G1 X101.470 Y73.493 E18.11816
G1 X101.985 Y74.151 E18.18337
G1 X102.452 Y74.844 E18.24857
G1 X102.870 Y75.567 E18.31377
G1 X103.236 Y76.318 E18.37897
G1 X103.549 Y77.093 E18.44417
G1 X103.807 Y77.888 E18.50937
G1 X104.010 Y78.699 E18.57460
G1 X104.156 Y79.531 E18.64055
G1 X104.242 Y80.352 E18.70497
G1 X104.271 Y81.171 E18.76885
G1 X104.271 Y83.230 E18.92957
