; generated by Slic3r 1.3.1-dev on 2019-07-17 at 14:49:18

; Print Config Notes: 
; DMF_3D_0.3mmThin333HC30%PETGear
; 
; external perimeters extrusion width = 0.66mm (2.68mm^3/s)
; perimeters extrusion width = 0.54mm (2.85mm^3/s)
; infill extrusion width = 0.90mm (7.52mm^3/s)
; solid infill extrusion width = 0.51mm (4.01mm^3/s)
; top infill extrusion width = 0.51mm (4.01mm^3/s)

M190 S90 ; set bed temperature and wait for it to be reached
M104 S250 ; set temperature
G28 ; home all axes
; Filament gcode

M109 S250 ; set temperature and wait for it to be reached
G21 ; set units to millimeters
G90 ; use absolute coordinates
M82 ; use absolute distances for extrusion
G92 E0
G1 Z0.300 F3000.000
G1 E-0.60000 F900.00000
G92 E0
G1 X77.790 Y80.883 F3000.000
G1 E0.65000 F900.00000
G1 F1440
G1 X78.540 Y80.174 E0.71896
G1 X79.102 Y79.703 E0.76792
G1 X80.214 Y78.895 E0.85982
G1 X81.115 Y78.346 E0.93026
G1 X81.762 Y78.001 E0.97922
G1 X83.018 Y77.442 E1.07112
G1 X84.013 Y77.092 E1.14154
G1 X84.717 Y76.890 E1.19051
G1 X86.063 Y76.604 E1.28241
G1 X86.789 Y76.502 E1.33137
G1 X87.840 Y76.417 E1.40181
G1 X89.215 Y76.417 E1.49368
G1 X90.181 Y76.491 E1.55844
G1 X127.705 Y81.066 E4.08378
G1 X128.741 Y81.287 E4.15457
G1 X129.447 Y81.501 E4.20383
G1 X130.137 Y81.763 E4.25313
G1 X130.806 Y82.074 E4.30245
G1 X131.453 Y82.430 E4.35175
G1 X131.806 Y82.651 E4.37961
G1 X132.410 Y83.076 E4.42893
G1 X133.221 Y83.757 E4.49966
G1 X133.521 Y84.046 E4.52751
G1 X134.024 Y84.588 E4.57687
G1 X134.486 Y85.162 E4.62612
G1 X134.908 Y85.767 E4.67541
G1 X135.438 Y86.685 E4.74622
G1 X135.621 Y87.060 E4.77409
G1 X135.907 Y87.739 E4.82332
G1 X136.235 Y88.747 E4.89410
G1 X136.336 Y89.151 E4.92193
G1 X136.475 Y89.875 E4.97121
G1 X136.554 Y90.526 E5.01499
G1 X136.580 Y91.006 E5.04715
G1 X136.580 Y118.994 E6.91685
G1 X136.554 Y119.474 E6.94901
G1 X136.475 Y120.125 E6.99279
G1 X136.336 Y120.849 E7.04206
G1 X136.146 Y121.562 E7.09133
G1 X135.907 Y122.261 E7.14069
G1 X135.621 Y122.941 E7.18995
G1 X135.287 Y123.599 E7.23927
G1 X134.908 Y124.233 E7.28861
G1 X134.486 Y124.838 E7.33789
G1 X134.230 Y125.167 E7.36573
G1 X133.745 Y125.722 E7.41499
G1 X133.221 Y126.243 E7.46434
G1 X132.410 Y126.924 E7.53506
G1 X132.073 Y127.169 E7.56292
G1 X131.453 Y127.570 E7.61224
G1 X130.806 Y127.926 E7.66157
G1 X129.839 Y128.357 E7.73229
G1 X129.447 Y128.499 E7.76016
G1 X128.741 Y128.713 E7.80944
G1 X128.022 Y128.878 E7.85876
G1 X127.208 Y129.003 E7.91377
G1 X90.181 Y133.509 E10.40558
G1 X88.894 Y133.594 E10.49179
G1 X88.161 Y133.594 E10.54075
G1 X87.109 Y133.532 E10.61117
G1 X86.063 Y133.396 E10.68162
G1 X84.717 Y133.110 E10.77352
G1 X83.707 Y132.809 E10.84395
G1 X82.720 Y132.438 E10.91437
G1 X82.051 Y132.140 E10.96334
G1 X80.836 Y131.494 E11.05525
G1 X80.214 Y131.105 E11.10421
G1 X79.355 Y130.495 E11.17463
G1 X78.301 Y129.611 E11.26653
G1 X77.551 Y128.870 E11.33697
G1 X77.060 Y128.325 E11.38593
G1 X76.402 Y127.501 E11.45638
G1 X75.816 Y126.652 E11.52533
G1 X75.116 Y125.443 E11.61869
G1 X74.794 Y124.784 E11.66767
G1 X74.389 Y123.810 E11.73810
G1 X73.964 Y122.502 E11.82998
G1 X73.720 Y121.477 E11.90040
G1 X73.548 Y120.436 E11.97085
G1 X73.471 Y119.708 E12.01981
G1 X73.423 Y118.655 E12.09023
G1 X73.420 Y91.506 E13.90388
G1 X73.449 Y90.613 E13.96360
G1 X73.548 Y89.563 E14.03402
G1 X73.720 Y88.523 E14.10446
G1 X74.053 Y87.189 E14.19632
G1 X74.389 Y86.189 E14.26677
G1 X74.794 Y85.216 E14.33721
G1 X75.267 Y84.273 E14.40764
G1 X75.633 Y83.639 E14.45661
G1 X76.213 Y82.759 E14.52703
G1 X76.854 Y81.921 E14.59747
G1 X77.748 Y80.926 E14.68683
G1 X78.162 Y81.269 F3000.000
G1 F1440
G1 X78.884 Y80.585 E14.75330
G1 X79.446 Y80.114 E14.80226
G1 X80.498 Y79.349 E14.88917
G1 X81.120 Y78.961 E14.93813
G1 X82.013 Y78.474 E15.00607
G1 X83.201 Y77.945 E15.09297
G1 X84.160 Y77.607 E15.16090
G1 X84.865 Y77.405 E15.20987
G1 X86.137 Y77.134 E15.29678
G1 X87.146 Y77.003 E15.36472
G1 X87.877 Y76.951 E15.41368
G1 X89.177 Y76.951 E15.50056
G1 X90.117 Y77.022 E15.56349
G1 X127.630 Y81.597 E18.08816
G1 X128.594 Y81.801 E18.15396
G1 X129.264 Y82.004 E18.20073
G1 X129.919 Y82.253 E18.24753
G1 X130.555 Y82.547 E18.29435
G1 X131.169 Y82.885 E18.34116
G1 X131.522 Y83.105 E18.36901
G1 X132.095 Y83.509 E18.41584
G1 X132.849 Y84.142 E18.48157
G1 X133.149 Y84.432 E18.50943
G1 X133.626 Y84.946 E18.55628
G1 X134.064 Y85.492 E18.60304
G1 X134.464 Y86.067 E18.64984
G1 X134.957 Y86.920 E18.71565
G1 X135.140 Y87.295 E18.74352
G1 X135.411 Y87.940 E18.79025
G1 X135.715 Y88.876 E18.85604
G1 X135.816 Y89.280 E18.88388
G1 X135.947 Y89.968 E18.93066
G1 X136.022 Y90.582 E18.97193
G1 X136.044 Y91.006 E19.00035
G1 X136.044 Y118.994 E20.87005
G1 X136.022 Y119.418 E20.89847
G1 X135.947 Y120.032 E20.93974
G1 X135.816 Y120.720 E20.98652
G1 X135.637 Y121.397 E21.03330
G1 X135.411 Y122.060 E21.08015
G1 X135.139 Y122.706 E21.12693
G1 X134.823 Y123.331 E21.17375
G1 X134.464 Y123.933 E21.22058
G1 X134.064 Y124.508 E21.26737
G1 X133.808 Y124.837 E21.29521
G1 X133.347 Y125.364 E21.34198
G1 X132.849 Y125.858 E21.38882
G1 X132.096 Y126.490 E21.45456
G1 X131.758 Y126.735 E21.48241
G1 X131.169 Y127.115 E21.52924
G1 X130.555 Y127.453 E21.57607
G1 X129.656 Y127.853 E21.64180
G1 X129.264 Y127.996 E21.66966
G1 X128.594 Y128.199 E21.71645
G1 X127.910 Y128.354 E21.76327
G1 X127.143 Y128.471 E21.81512
G1 X90.117 Y132.978 E24.30693
G1 X88.894 Y133.058 E24.38881
G1 X88.161 Y133.058 E24.43777
G1 X87.146 Y132.997 E24.50570
G1 X86.137 Y132.866 E24.57365
G1 X84.865 Y132.595 E24.66055
G1 X83.890 Y132.305 E24.72849
G1 X82.938 Y131.948 E24.79642
G1 X82.268 Y131.650 E24.84539
G1 X81.120 Y131.039 E24.93230
G1 X80.498 Y130.651 E24.98126
G1 X79.670 Y130.061 E25.04919
G1 X78.673 Y129.225 E25.13610
G1 X77.949 Y128.512 E25.20403
G1 X77.458 Y127.967 E25.25300
G1 X76.824 Y127.172 E25.32094
G1 X76.260 Y126.352 E25.38741
G1 X75.597 Y125.208 E25.47577
G1 X75.276 Y124.549 E25.52474
G1 X74.886 Y123.610 E25.59268
G1 X74.484 Y122.373 E25.67957
G1 X74.306 Y121.661 E25.72854
G1 X74.120 Y120.662 E25.79646
G1 X74.004 Y119.652 E25.86441
G1 X73.959 Y118.636 E25.93234
G1 X73.956 Y91.506 E27.74473
G1 X73.984 Y90.632 E27.80320
G1 X74.081 Y89.619 E27.87113
G1 X74.247 Y88.616 E27.93907
G1 X74.562 Y87.354 E28.02594
G1 X74.886 Y86.390 E28.09389
G1 X75.276 Y85.451 E28.16183
G1 X75.731 Y84.541 E28.22977
G1 X76.097 Y83.907 E28.27874
G1 X76.657 Y83.058 E28.34666
G1 X77.276 Y82.251 E28.41460
G1 X78.120 Y81.311 E28.49896
G1 X78.534 Y81.654 F3000.000
G1 F1440
G1 X79.229 Y80.995 E28.56294
G1 X79.790 Y80.524 E28.61190
G1 X80.782 Y79.803 E28.69381
G1 X81.404 Y79.415 E28.74277
G1 X82.265 Y78.947 E28.80822
G1 X83.385 Y78.449 E28.89013
G1 X84.308 Y78.122 E28.95556
G1 X85.013 Y77.920 E29.00453
G1 X86.212 Y77.665 E29.08644
G1 X87.183 Y77.537 E29.15189
G1 X87.914 Y77.486 E29.20085
G1 X89.140 Y77.486 E29.28274
G1 X90.052 Y77.554 E29.34383
G1 X127.556 Y82.127 E31.86785
G1 X128.446 Y82.316 E31.92864
G1 X129.081 Y82.507 E31.97292
G1 X129.701 Y82.742 E32.01723
G1 X130.304 Y83.020 E32.06155
G1 X130.885 Y83.339 E32.10586
G1 X131.239 Y83.560 E32.13372
G1 X131.780 Y83.943 E32.17804
G1 X132.477 Y84.527 E32.23879
G1 X132.777 Y84.817 E32.26664
G1 X133.227 Y85.304 E32.31099
G1 X133.642 Y85.821 E32.35526
G1 X134.020 Y86.366 E32.39956
G1 X134.475 Y87.155 E32.46038
G1 X134.658 Y87.529 E32.48824
G1 X134.914 Y88.140 E32.53249
G1 X135.195 Y89.006 E32.59328
G1 X135.347 Y89.651 E32.63757
G1 X135.420 Y90.061 E32.66540
G1 X135.489 Y90.637 E32.70417
G1 X135.508 Y91.006 E32.72885
G1 X135.508 Y118.994 E34.59855
G1 X135.489 Y119.363 E34.62323
G1 X135.420 Y119.939 E34.66200
G1 X135.296 Y120.590 E34.70628
G1 X135.127 Y121.231 E34.75057
G1 X134.914 Y121.860 E34.79492
G1 X134.658 Y122.471 E34.83920
G1 X134.359 Y123.064 E34.88352
G1 X134.020 Y123.634 E34.92786
G1 X133.642 Y124.179 E34.97215
G1 X133.386 Y124.507 E34.99999
G1 X132.949 Y125.005 E35.04427
G1 X132.477 Y125.473 E35.08861
G1 X131.781 Y126.057 E35.14936
G1 X131.443 Y126.302 E35.17721
G1 X130.885 Y126.661 E35.22153
G1 X130.303 Y126.980 E35.26586
G1 X129.473 Y127.350 E35.32661
G1 X129.081 Y127.493 E35.35447
G1 X128.446 Y127.684 E35.39877
G1 X127.799 Y127.830 E35.44308
G1 X127.078 Y127.939 E35.49177
G1 X90.052 Y132.446 E37.98359
G1 X88.894 Y132.523 E38.06114
G1 X88.161 Y132.523 E38.11010
G1 X87.183 Y132.463 E38.17553
G1 X86.212 Y132.335 E38.24098
G1 X85.013 Y132.080 E38.32289
G1 X84.073 Y131.802 E38.38833
G1 X83.156 Y131.459 E38.45376
G1 X82.486 Y131.161 E38.50273
G1 X81.404 Y130.585 E38.58465
G1 X80.782 Y130.197 E38.63361
G1 X79.985 Y129.628 E38.69904
G1 X79.045 Y128.840 E38.78096
G1 X78.518 Y128.331 E38.82992
G1 X77.856 Y127.609 E38.89536
G1 X77.101 Y126.642 E38.97728
G1 X76.561 Y125.826 E39.04271
G1 X76.079 Y124.973 E39.10815
G1 X75.757 Y124.314 E39.15713
G1 X75.382 Y123.409 E39.22257
G1 X75.004 Y122.243 E39.30447
G1 X74.775 Y121.291 E39.36990
G1 X74.613 Y120.324 E39.43535
G1 X74.537 Y119.596 E39.48431
G1 X74.494 Y118.617 E39.54974
G1 X74.492 Y91.506 E41.36088
G1 X74.519 Y90.650 E41.41811
G1 X74.613 Y89.675 E41.48353
G1 X74.775 Y88.709 E41.54898
G1 X75.071 Y87.520 E41.63087
G1 X75.382 Y86.591 E41.69632
G1 X75.757 Y85.686 E41.76176
G1 X76.194 Y84.809 E41.82720
G1 X76.561 Y84.174 E41.87617
G1 X77.101 Y83.358 E41.94160
G1 X77.698 Y82.580 E42.00704
G1 X78.492 Y81.697 E42.08641
G1 E41.48641 F900.00000
G92 E0
G1 X89.835 Y127.801 F3000.000
G1 E0.65000 F900.00000
G1 F720
G1 X89.452 Y128.095 E0.68224
G1 X89.006 Y128.279 E0.71448
G1 X88.527 Y128.342 E0.74673
G1 X88.049 Y128.279 E0.77897
G1 X87.615 Y128.100 E0.81033
G1 X87.220 Y127.801 E0.84343
G1 X86.921 Y127.406 E0.87653
G1 X86.742 Y126.972 E0.90789
G1 X86.679 Y126.494 E0.94013
G1 X86.742 Y126.015 E0.97237
G1 X86.926 Y125.569 E1.00461
G1 X87.220 Y125.186 E1.03685
G1 X87.603 Y124.892 E1.06910
G1 X88.049 Y124.708 E1.10134
G1 X88.514 Y124.647 E1.13270
G1 X89.005 Y124.707 E1.16572
G1 X89.452 Y124.892 E1.19804
G1 X89.835 Y125.186 E1.23028
G1 X90.128 Y125.569 E1.26253
G1 X90.313 Y126.015 E1.29477
G1 X90.376 Y126.494 E1.32701
G1 X90.313 Y126.972 E1.35925
G1 X90.128 Y127.418 E1.39149
G1 X89.871 Y127.753 E1.41973
G1 X89.835 Y127.801 F3000.000
G1 E0.81973 F900.00000
G92 E0
G1 X81.835 Y119.801 F3000.000
G1 E0.65000 F900.00000
G1 F720
G1 X81.452 Y120.095 E0.68224
G1 X81.006 Y120.279 E0.71448
G1 X80.527 Y120.342 E0.74673
G1 X80.049 Y120.279 E0.77897
G1 X79.615 Y120.100 E0.81033
G1 X79.221 Y119.802 E0.84335
G1 X78.926 Y119.418 E0.87567
G1 X78.742 Y118.972 E0.90791
G1 X78.679 Y118.494 E0.94015
G1 X78.742 Y118.015 E0.97240
G1 X78.926 Y117.569 E1.00464
G1 X79.220 Y117.186 E1.03688
G1 X79.603 Y116.892 E1.06912
G1 X80.049 Y116.708 E1.10137
G1 X80.514 Y116.647 E1.13272
G1 X81.005 Y116.707 E1.16575
G1 X81.452 Y116.892 E1.19807
G1 X81.835 Y117.186 E1.23031
G1 X82.128 Y117.569 E1.26255
G1 X82.313 Y118.015 E1.29479
G1 X82.376 Y118.494 E1.32704
G1 X82.313 Y118.972 E1.35928
G1 X82.128 Y119.418 E1.39152
G1 X81.871 Y119.753 E1.41975
G1 X81.835 Y119.801 F3000.000
G1 X83.793 Y119.484 F3000.000
G1 F720
G1 X83.701 Y118.822 E1.46444
G1 X83.701 Y118.171 E1.50794
G1 X83.740 Y117.806 E1.53243
G1 X83.874 Y117.174 E1.57556
G1 X83.983 Y116.840 E1.59909
G1 X84.115 Y116.513 E1.62262
G1 X84.425 Y115.930 E1.66673
G1 X84.813 Y115.396 E1.71084
G1 X85.058 Y115.123 E1.73534
G1 X85.538 Y114.691 E1.77847
G1 X85.835 Y114.476 E1.80298
G1 X86.407 Y114.146 E1.84709
G1 X87.019 Y113.898 E1.89120
G1 X87.371 Y113.797 E1.91570
G1 X88.007 Y113.685 E1.95883
G1 X88.373 Y113.659 E1.98333
G1 X89.018 Y113.682 E2.02647
G1 X89.382 Y113.733 E2.05097
G1 X90.022 Y113.893 E2.09508
G1 X90.634 Y114.140 E2.13919
G1 X90.958 Y114.312 E2.16368
G1 X91.486 Y114.668 E2.20619
G1 X91.774 Y114.908 E2.23127
G1 X92.223 Y115.373 E2.27446
G1 X92.449 Y115.663 E2.29896
G1 X92.791 Y116.210 E2.34209
G1 X92.952 Y116.540 E2.36660
G1 X93.173 Y117.146 E2.40973
G1 X93.261 Y117.503 E2.43428
G1 X93.354 Y118.165 E2.47896
G1 X93.353 Y118.817 E2.52246
G1 X93.315 Y119.181 E2.54695
G1 X93.181 Y119.813 E2.59008
G1 X93.067 Y120.162 E2.61459
G1 X92.805 Y120.751 E2.65772
G1 X92.621 Y121.069 E2.68222
G1 X92.242 Y121.591 E2.72535
G1 X91.996 Y121.864 E2.74986
G1 X91.517 Y122.296 E2.79299
G1 X91.220 Y122.512 E2.81749
G1 X90.648 Y122.842 E2.86160
G1 X90.036 Y123.089 E2.90571
G1 X89.683 Y123.190 E2.93022
G1 X89.047 Y123.302 E2.97335
G1 X88.681 Y123.328 E2.99785
G1 X88.036 Y123.305 E3.04098
G1 X87.673 Y123.254 E3.06549
G1 X87.033 Y123.095 E3.10958
G1 X86.429 Y122.851 E3.15307
G1 X86.097 Y122.675 E3.17815
G1 X85.561 Y122.314 E3.22134
G1 X85.280 Y122.078 E3.24584
G1 X84.832 Y121.614 E3.28898
G1 X84.606 Y121.325 E3.31348
G1 X84.264 Y120.777 E3.35661
G1 X84.103 Y120.447 E3.38111
G1 X83.882 Y119.841 E3.42425
G1 X83.808 Y119.542 E3.44478
G1 X84.320 Y119.382 F3000.000
G1 F720
G1 X84.237 Y118.785 E3.48508
G1 X84.237 Y118.199 E3.52424
G1 X84.270 Y117.890 E3.54498
G1 X84.392 Y117.313 E3.58436
G1 X84.486 Y117.023 E3.60477
G1 X84.601 Y116.740 E3.62517
G1 X84.880 Y116.215 E3.66490
G1 X85.230 Y115.733 E3.70463
G1 X85.438 Y115.503 E3.72539
G1 X85.876 Y115.108 E3.76477
G1 X86.127 Y114.926 E3.78552
G1 X86.642 Y114.628 E3.82525
G1 X87.193 Y114.405 E3.86499
G1 X87.492 Y114.320 E3.88574
G1 X88.073 Y114.217 E3.92512
G1 X88.382 Y114.196 E3.94587
G1 X88.972 Y114.216 E3.98525
G1 X89.279 Y114.259 E4.00601
G1 X89.856 Y114.403 E4.04574
G1 X90.408 Y114.626 E4.08547
G1 X90.682 Y114.772 E4.10622
G1 X91.164 Y115.096 E4.14502
G1 X91.408 Y115.301 E4.16634
G1 X91.818 Y115.725 E4.20574
G1 X92.009 Y115.970 E4.22649
G1 X92.322 Y116.470 E4.26587
G1 X92.458 Y116.749 E4.28663
G1 X92.660 Y117.303 E4.32601
G1 X92.735 Y117.605 E4.34678
G1 X92.818 Y118.202 E4.38707
G1 X92.818 Y118.788 E4.42623
G1 X92.785 Y119.097 E4.44697
G1 X92.663 Y119.674 E4.48636
G1 X92.567 Y119.969 E4.50711
G1 X92.327 Y120.508 E4.54649
G1 X92.171 Y120.777 E4.56724
G1 X91.825 Y121.254 E4.60662
G1 X91.617 Y121.485 E4.62738
G1 X91.179 Y121.879 E4.66676
G1 X90.928 Y122.062 E4.68751
G1 X90.413 Y122.359 E4.72724
G1 X89.861 Y122.582 E4.76698
G1 X89.563 Y122.667 E4.78773
G1 X88.982 Y122.770 E4.82711
G1 X88.672 Y122.792 E4.84786
G1 X88.083 Y122.771 E4.88724
G1 X87.775 Y122.728 E4.90800
G1 X87.198 Y122.584 E4.94772
G1 X86.655 Y122.365 E4.98688
G1 X86.373 Y122.215 E5.00819
G1 X85.884 Y121.886 E5.04760
G1 X85.646 Y121.686 E5.06835
G1 X85.236 Y121.262 E5.10773
G1 X85.045 Y121.017 E5.12848
G1 X84.733 Y120.517 E5.16786
G1 X84.597 Y120.238 E5.18862
G1 X84.395 Y119.684 E5.22800
G1 X84.334 Y119.441 E5.24476
G1 X84.320 Y119.382 F3000.000
G1 X83.229 Y117.427 F3000.000
G1 F720
G1 X83.064 Y117.029 E5.27352
G1 X82.599 Y116.422 E5.32460
G1 X81.992 Y115.957 E5.37569
G1 X81.281 Y115.662 E5.42712
G1 X80.510 Y115.567 E5.47899
G1 X79.859 Y115.652 E5.52288
G1 X79.950 Y115.372 E5.54260
G1 X80.189 Y114.781 E5.58516
G1 X80.468 Y114.208 E5.62773
G1 X80.786 Y113.657 E5.67029
G1 X81.131 Y113.145 E5.71148
G1 X81.536 Y112.625 E5.75551
G1 X81.961 Y112.153 E5.79798
G1 X82.420 Y111.710 E5.84054
G1 X82.908 Y111.301 E5.88310
G1 X83.423 Y110.926 E5.92567
G1 X83.963 Y110.589 E5.96823
G1 X84.526 Y110.289 E6.01079
G1 X85.108 Y110.030 E6.05335
G1 X85.687 Y109.820 E6.09451
G1 X85.598 Y110.494 E6.13992
G1 X85.698 Y111.252 E6.19100
G1 X85.984 Y111.942 E6.24093
G1 X86.452 Y112.562 E6.29280
G1 X87.063 Y113.030 E6.34423
G1 X87.168 Y113.074 E6.35186
G1 X87.155 Y113.302 E6.36710
G1 X86.844 Y113.391 E6.38871
G1 X86.171 Y113.663 E6.43720
G1 X85.543 Y114.026 E6.48569
G1 X85.201 Y114.274 E6.51394
G1 X84.679 Y114.744 E6.56082
G1 X84.396 Y115.058 E6.58908
G1 X83.969 Y115.645 E6.63756
G1 X83.629 Y116.286 E6.68605
G1 X83.479 Y116.656 E6.71270
G1 X83.247 Y117.370 E6.76281
G1 E6.16281 F900.00000
G92 E0
G1 X116.719 Y116.622 F3000.000
G1 E0.65000 F900.00000
G1 F960
G1 X116.719 Y120.365 E0.90002
G1 X121.726 Y120.365 E1.23457
G1 X121.967 Y120.838 E1.27002
G1 X122.235 Y121.249 E1.30280
G1 X122.450 Y121.515 E1.32568
G1 X122.875 Y121.965 E1.36704
G1 X123.272 Y122.286 E1.40111
G1 X123.559 Y122.473 E1.42400
G1 X124.119 Y122.779 E1.46665
G1 X124.424 Y122.886 E1.48820
G1 X124.383 Y123.149 E1.50601
G1 X95.740 Y124.117 E3.42064
G1 X95.093 Y124.834 E3.48517
G1 X94.635 Y125.277 E3.52774
G1 X94.147 Y125.686 E3.57030
G1 X93.632 Y126.061 E3.61286
G1 X93.091 Y126.399 E3.65543
