; generated by Slic3r 1.3.1-dev on 2019-07-15 at 16:05:05

; Print Config Notes: 
; DMF_3D_0.3mmThin222HC25%
; 
; external perimeters extrusion width = 0.60mm (4.82mm^3/s)
; perimeters extrusion width = 0.54mm (5.71mm^3/s)
; infill extrusion width = 0.70mm (7.63mm^3/s)
; solid infill extrusion width = 0.51mm (5.35mm^3/s)
; top infill extrusion width = 0.51mm (5.35mm^3/s)

M190 S90 ; set bed temperature and wait for it to be reached
M104 S250 ; set temperature
G28 ; home all axes
; Filament gcode

M109 S250 ; set temperature and wait for it to be reached
G21 ; set units to millimeters
G90 ; use absolute coordinates
M82 ; use absolute distances for extrusion
G92 E0
G1 Z0.300 F4500.000
G1 E-0.60000 F900.00000
G92 E0
G1 X66.983 Y55.548 F4500.000
G1 E0.65000 F900.00000
G1 F1920
G1 X68.633 Y54.587 E0.77755
G1 X70.075 Y54.356 E0.87512
G1 X139.925 Y54.356 E5.54148
G1 X141.793 Y54.751 E5.66903
G1 X143.340 Y55.870 E5.79658
G1 X144.300 Y57.520 E5.92414
G1 X144.532 Y58.963 E6.02171
G1 X144.532 Y151.038 E12.17281
G1 X144.136 Y152.905 E12.30037
G1 X143.017 Y154.452 E12.42792
G1 X141.367 Y155.413 E12.55547
G1 X139.925 Y155.644 E12.65304
G1 X70.075 Y155.644 E17.31940
G1 X68.207 Y155.249 E17.44695
G1 X66.660 Y154.130 E17.57450
G1 X65.700 Y152.480 E17.70206
G1 X65.468 Y151.038 E17.79963
G1 X65.468 Y58.963 E23.95073
G1 X65.864 Y57.095 E24.07829
G1 X66.948 Y55.596 E24.20183
G1 X67.507 Y55.803 F4500.000
G1 F1920
G1 X69.114 Y55.006 E24.32165
G1 X70.075 Y54.891 E24.38629
G1 X139.925 Y54.891 E29.05265
G1 X141.675 Y55.286 E29.17247
G1 X143.085 Y56.395 E29.29229
G1 X143.881 Y58.002 E29.41211
G1 X143.996 Y58.963 E29.47675
G1 X143.996 Y151.038 E35.62785
G1 X143.601 Y152.787 E35.74768
G1 X142.493 Y154.197 E35.86750
G1 X140.886 Y154.994 E35.98732
G1 X139.925 Y155.109 E36.05196
G1 X70.075 Y155.109 E40.71831
G1 X68.325 Y154.714 E40.83814
G1 X66.915 Y153.605 E40.95796
G1 X66.119 Y151.998 E41.07778
G1 X66.004 Y151.038 E41.14241
G1 X66.004 Y58.963 E47.29352
G1 X66.399 Y57.213 E47.41334
G1 X67.470 Y55.850 E47.52916
G1 X68.029 Y56.079 F4500.000
G1 F1920
G1 X70.075 Y55.427 E47.67263
G1 X139.925 Y55.427 E52.33899
G1 X141.548 Y55.821 E52.45055
G1 X142.808 Y56.916 E52.56211
G1 X143.461 Y58.963 E52.70558
G1 X143.461 Y151.038 E58.85669
G1 X143.066 Y152.660 E58.96825
G1 X141.971 Y153.921 E59.07980
G1 X139.925 Y154.573 E59.22328
G1 X70.075 Y154.573 E63.88964
G1 X68.452 Y154.179 E64.00119
G1 X67.192 Y153.084 E64.11275
G1 X66.539 Y151.038 E64.25623
G1 X66.539 Y58.963 E70.40733
G1 X66.934 Y57.340 E70.51889
G1 X67.989 Y56.124 E70.62644
G1 E70.02644 F900.00000
G92 E0
G1 X95.098 Y128.063 F4500.000
G1 E0.65000 F900.00000
G1 F720
G1 X95.197 Y128.813 E0.70053
G1 X95.098 Y129.562 E0.75105
G1 X94.809 Y130.261 E0.80158
G1 X94.348 Y130.861 E0.85210
G1 X93.749 Y131.321 E0.90262
G1 X93.050 Y131.611 E0.95314
G1 X92.300 Y131.710 E1.00367
G1 X91.550 Y131.611 E1.05419
G1 X90.859 Y131.324 E1.10418
G1 X90.251 Y130.861 E1.15522
G1 X89.788 Y130.254 E1.20626
G1 X89.502 Y129.562 E1.25625
G1 X89.403 Y128.813 E1.30677
G1 X89.502 Y128.063 E1.35730
G1 X89.791 Y127.364 E1.40783
G1 X90.252 Y126.764 E1.45835
G1 X90.851 Y126.304 E1.50886
G1 X91.550 Y126.014 E1.55939
G1 X92.292 Y125.917 E1.60938
G1 X93.049 Y126.014 E1.66033
G1 X93.749 Y126.304 E1.71095
G1 X94.348 Y126.764 E1.76147
G1 X94.809 Y127.364 E1.81199
G1 X95.075 Y128.007 E1.85851
G1 X94.576 Y128.202 F4500.000
G1 F720
G1 X94.657 Y128.813 E1.89961
G1 X94.576 Y129.423 E1.94071
G1 X94.341 Y129.991 E1.98181
G1 X93.966 Y130.479 E2.02291
G1 X93.478 Y130.854 E2.06401
G1 X92.910 Y131.089 E2.10512
G1 X92.300 Y131.169 E2.14622
G1 X91.690 Y131.089 E2.18732
G1 X91.128 Y130.856 E2.22794
G1 X90.633 Y130.479 E2.26951
G1 X90.256 Y129.984 E2.31108
G1 X90.024 Y129.423 E2.35170
G1 X89.943 Y128.813 E2.39280
G1 X90.024 Y128.202 E2.43390
G1 X90.259 Y127.634 E2.47500
G1 X90.634 Y127.146 E2.51610
G1 X91.122 Y126.771 E2.55720
G1 X91.690 Y126.536 E2.59830
G1 X92.293 Y126.457 E2.63893
G1 X92.910 Y126.536 E2.68047
G1 X93.478 Y126.771 E2.72160
G1 X93.966 Y127.146 E2.76270
G1 X94.341 Y127.634 E2.80380
G1 X94.554 Y128.147 E2.84089
G1 X94.576 Y128.202 F4500.000
G1 E2.24089 F900.00000
G92 E0
G1 X116.259 Y83.699 F4500.000
G1 E0.65000 F900.00000
G1 F720
G1 X115.652 Y83.237 E0.70095
G1 X115.191 Y82.636 E0.75156
G1 X114.902 Y81.937 E0.80209
G1 X114.803 Y81.188 E0.85261
G1 X114.902 Y80.438 E0.90314
G1 X115.191 Y79.739 E0.95366
G1 X115.652 Y79.139 E1.00418
G1 X116.251 Y78.679 E1.05470
G1 X116.950 Y78.389 E1.10523
G1 X117.692 Y78.292 E1.15521
G1 X118.449 Y78.389 E1.20617
G1 X119.149 Y78.679 E1.25679
G1 X119.748 Y79.139 E1.30731
G1 X120.209 Y79.739 E1.35783
G1 X120.498 Y80.438 E1.40835
G1 X120.597 Y81.187 E1.45888
G1 X120.498 Y81.937 E1.50940
G1 X120.209 Y82.636 E1.55993
G1 X119.748 Y83.236 E1.61045
G1 X119.149 Y83.696 E1.66097
G1 X118.450 Y83.986 E1.71149
G1 X117.700 Y84.085 E1.76202
G1 X116.950 Y83.986 E1.81254
G1 X116.314 Y83.722 E1.85852
G1 X116.528 Y83.231 F4500.000
G1 F720
G1 X116.034 Y82.854 E1.90005
G1 X115.659 Y82.366 E1.94119
G1 X115.424 Y81.798 E1.98229
G1 X115.343 Y81.188 E2.02339
G1 X115.424 Y80.577 E2.06449
G1 X115.659 Y80.009 E2.10560
G1 X116.034 Y79.521 E2.14670
G1 X116.522 Y79.146 E2.18780
G1 X117.090 Y78.911 E2.22890
G1 X117.693 Y78.832 E2.26952
G1 X118.310 Y78.911 E2.31106
G1 X118.878 Y79.146 E2.35219
G1 X119.366 Y79.521 E2.39329
G1 X119.741 Y80.009 E2.43439
G1 X119.976 Y80.577 E2.47549
G1 X120.057 Y81.187 E2.51660
G1 X119.976 Y81.798 E2.55770
G1 X119.741 Y82.366 E2.59880
G1 X119.366 Y82.854 E2.63990
G1 X118.878 Y83.229 E2.68100
G1 X118.310 Y83.464 E2.72210
G1 X117.700 Y83.544 E2.76321
G1 X117.090 Y83.464 E2.80431
G1 X116.584 Y83.254 E2.84092
G1 X116.528 Y83.231 F4500.000
G1 E2.24092 F900.00000
G92 E0
G1 X139.089 Y59.798 F4500.000
G1 E0.65000 F900.00000
G1 F1920
G1 X139.089 Y150.202 E6.68946
G1 X70.911 Y150.202 E11.24417
G1 X70.911 Y59.798 E17.28363
G1 X139.029 Y59.798 E21.83433
G1 X139.625 Y59.263 F4500.000
G1 F1440
G1 X139.625 Y150.738 E27.94536
G1 X70.375 Y150.738 E32.57163
G1 X70.375 Y59.263 E38.68266
G1 X139.565 Y59.263 E43.30492
G1 X139.539 Y59.653 F4500.000
G1 E42.70492 F900.00000
G92 E0
G1 X120.934 Y82.231 F4500.000
G1 E0.65000 F900.00000
G1 F1920
G1 X138.592 Y64.574 E2.32250
G1 X138.592 Y63.814 E2.37336
G1 X121.087 Y81.319 E4.03137
G1 X121.099 Y81.225 E4.03769
G1 X121.020 Y80.626 E4.07817
G1 X138.592 Y63.055 E5.74249
G1 X138.592 Y62.295 E5.79335
G1 X120.856 Y80.031 E7.47324
G1 X120.631 Y79.497 E7.51208
G1 X138.592 Y61.536 E9.21327
G1 X138.592 Y60.777 E9.26414
G1 X120.301 Y79.067 E10.99657
G1 X120.093 Y78.795 E11.01953
G1 X119.935 Y78.674 E11.03284
G1 X138.313 Y60.296 E12.77359
G1 X137.554 Y60.296 E12.82445
G1 X119.505 Y78.344 E14.53396
G1 X119.381 Y78.249 E14.54447
G1 X118.999 Y78.091 E14.57212
G1 X136.794 Y60.296 E16.25762
G1 X136.035 Y60.296 E16.30848
G1 X118.440 Y77.890 E17.97501
G1 X117.767 Y77.804 E18.02045
G1 X135.275 Y60.296 E19.67879
G1 X134.516 Y60.296 E19.72966
G1 X116.927 Y77.885 E21.39567
G1 X116.772 Y77.905 E21.40610
G1 X115.943 Y78.249 E21.46620
G1 X115.343 Y78.710 E21.51693
G1 X133.757 Y60.296 E23.26107
G1 X132.997 Y60.296 E23.31193
G1 X71.408 Y121.885 E29.14553
G1 X71.408 Y121.125 E29.19639
G1 X132.238 Y60.296 E34.95806
G1 X131.478 Y60.296 E35.00892
G1 X71.408 Y120.366 E40.69866
G1 X71.408 Y119.606 E40.74952
G1 X130.719 Y60.296 E46.36732
G1 X129.959 Y60.296 E46.41819
G1 X71.408 Y118.847 E51.96406
G1 X71.408 Y118.088 E52.01492
G1 X129.200 Y60.296 E57.48887
G1 X128.441 Y60.296 E57.53973
G1 X71.408 Y117.328 E62.94174
G1 X71.408 Y116.569 E62.99260
G1 X127.681 Y60.296 E68.32268
G1 X126.922 Y60.296 E68.37355
G1 X71.408 Y115.809 E73.63170
G1 X71.408 Y115.050 E73.68256
G1 X126.162 Y60.296 E78.86878
G1 X125.403 Y60.296 E78.91964
G1 X71.408 Y114.290 E84.03393
G1 X71.408 Y113.531 E84.08480
G1 X124.644 Y60.296 E89.12716
G1 X123.884 Y60.296 E89.17802
G1 X71.408 Y112.772 E94.14845
G1 X71.408 Y112.012 E94.19931
G1 X123.125 Y60.296 E99.09781
G1 X122.365 Y60.296 E99.14867
G1 X71.408 Y111.253 E103.97524
G1 X71.408 Y110.493 E104.02610
G1 X121.606 Y60.296 E108.78073
G1 X120.846 Y60.296 E108.83160
G1 X71.408 Y109.734 E113.51430
G1 X71.408 Y108.975 E113.56516
G1 X120.087 Y60.296 E118.17594
G1 X119.328 Y60.296 E118.22680
G1 X71.408 Y108.215 E122.76565
G1 X71.408 Y107.456 E122.81651
G1 X118.568 Y60.296 E127.28342
G1 X117.809 Y60.296 E127.33428
G1 X71.408 Y106.696 E131.72927
G1 X71.408 Y105.937 E131.78013
G1 X117.049 Y60.296 E136.10318
G1 X116.290 Y60.296 E136.15404
G1 X71.408 Y105.177 E140.40517
G1 X71.408 Y104.418 E140.45603
G1 X115.531 Y60.296 E144.63522
G1 X114.771 Y60.296 E144.68608
G1 X71.408 Y103.659 E148.79334
G1 X71.408 Y102.899 E148.84420
G1 X114.012 Y60.296 E152.87953
G1 X113.252 Y60.296 E152.93040
G1 X71.408 Y102.140 E156.89379
G1 X71.408 Y101.380 E156.94466
G1 X112.493 Y60.296 E160.83612
G1 X111.733 Y60.296 E160.88699
G1 X71.408 Y100.621 E164.70652
G1 X71.408 Y99.862 E164.75739
G1 X110.974 Y60.296 E168.50499
G1 X110.215 Y60.296 E168.55586
G1 X71.408 Y99.102 E172.23153
G1 X71.408 Y98.343 E172.28239
G1 X109.455 Y60.296 E175.88614
G1 X108.696 Y60.296 E175.93700
G1 X71.408 Y97.583 E179.46882
G1 X71.408 Y96.824 E179.51968
G1 X107.936 Y60.296 E182.97956
G1 X107.177 Y60.296 E183.03042
G1 X71.408 Y96.064 E186.41838
G1 X71.408 Y95.305 E186.46924
G1 X106.418 Y60.296 E189.78526
G1 X105.658 Y60.296 E189.83612
G1 X71.408 Y94.546 E193.08022
G1 X71.408 Y93.786 E193.13108
G1 X104.899 Y60.296 E196.30324
G1 X104.139 Y60.296 E196.35410
G1 X71.408 Y93.027 E199.45433
G1 X71.408 Y92.267 E199.50519
G1 X103.380 Y60.296 E202.53349
G1 X102.620 Y60.296 E202.58435
G1 X71.408 Y91.508 E205.54072
G1 X71.408 Y90.749 E205.59159
G1 X101.861 Y60.296 E208.47602
G1 X101.102 Y60.296 E208.52689
G1 X71.408 Y89.989 E211.33939
G1 X71.408 Y89.230 E211.39026
G1 X100.342 Y60.296 E214.13083
G1 X99.583 Y60.296 E214.18169
G1 X71.408 Y88.470 E216.85034
G1 X71.408 Y87.711 E216.90120
G1 X98.823 Y60.296 E219.49792
G1 X98.064 Y60.296 E219.54878
G1 X71.408 Y86.951 E222.07356
G1 X71.408 Y86.192 E222.12443
G1 X97.305 Y60.296 E224.57728
G1 X96.545 Y60.296 E224.62814
G1 X71.408 Y85.433 E227.00906
G1 X71.408 Y84.673 E227.05993
G1 X95.786 Y60.296 E229.36892
G1 X95.026 Y60.296 E229.41978
G1 X71.408 Y83.914 E231.65684
G1 X71.408 Y83.154 E231.70771
G1 X94.267 Y60.296 E233.87284
G1 X93.508 Y60.296 E233.92370
G1 X71.408 Y82.395 E236.01690
G1 X71.408 Y81.636 E236.06776
G1 X92.748 Y60.296 E238.08903
G1 X91.989 Y60.296 E238.13989
G1 X71.408 Y80.876 E240.08923
G1 X71.408 Y80.117 E240.14009
G1 X91.229 Y60.296 E242.01750
G1 X90.470 Y60.296 E242.06836
G1 X71.408 Y79.357 E243.87384
G1 X71.408 Y78.598 E243.92470
G1 X89.710 Y60.296 E245.65825
G1 X88.951 Y60.296 E245.70911
G1 X71.408 Y77.839 E247.37073
G1 X71.408 Y77.079 E247.42159
G1 X88.192 Y60.296 E249.01127
G1 X87.432 Y60.296 E249.06214
G1 X71.408 Y76.320 E250.57989
G1 X71.408 Y75.560 E250.63075
G1 X86.673 Y60.296 E252.07658
G1 X85.913 Y60.296 E252.12744
G1 X71.408 Y74.801 E253.50133
G1 X71.408 Y74.041 E253.55219
G1 X85.154 Y60.296 E254.85415
G1 X84.395 Y60.296 E254.90502
G1 X71.408 Y73.282 E256.13505
G1 X71.408 Y72.523 E256.18591
G1 X83.635 Y60.296 E257.34401
G1 X82.876 Y60.296 E257.39487
G1 X71.408 Y71.763 E258.48104
G1 X71.408 Y71.004 E258.53191
G1 X82.116 Y60.296 E259.54614
G1 X81.357 Y60.296 E259.59701
G1 X71.408 Y70.244 E260.53932
G1 X71.408 Y69.485 E260.59018
G1 X80.597 Y60.296 E261.46056
G1 X79.838 Y60.296 E261.51142
G1 X71.408 Y68.726 E262.30986
G1 X71.408 Y67.966 E262.36073
G1 X79.079 Y60.296 E263.08724
G1 X78.319 Y60.296 E263.13811
G1 X71.408 Y67.207 E263.79269
G1 X71.408 Y66.447 E263.84355
G1 X77.560 Y60.296 E264.42621
G1 X76.800 Y60.296 E264.47707
G1 X71.408 Y65.688 E264.98779
G1 X71.408 Y64.928 E265.03866
G1 X76.041 Y60.296 E265.47745
G1 X75.282 Y60.296 E265.52831
G1 X71.408 Y64.169 E265.89517
G1 X71.408 Y63.410 E265.94604
G1 X74.522 Y60.296 E266.24097
G1 X73.763 Y60.296 E266.29183
G1 X71.408 Y62.650 E266.51483
G1 X71.408 Y61.891 E266.56569
G1 X73.003 Y60.296 E266.71676
G1 X72.244 Y60.296 E266.76763
G1 X71.408 Y61.131 E266.84677
G1 X71.408 Y60.372 E266.89763
G1 X71.484 Y60.296 E266.90484
G1 E266.30484 F900.00000
G92 E0
G1 X115.222 Y78.830 F4500.000
G1 E0.65000 F900.00000
G1 F1920
G1 X71.408 Y122.644 E4.79999
G1 X71.408 Y123.403 E4.85085
G1 X114.397 Y80.414 E8.92271
G1 X114.301 Y81.150 E8.97238
G1 X114.315 Y81.257 E8.97960
G1 X71.408 Y124.163 E13.04363
G1 X71.408 Y124.922 E13.09449
G1 X114.403 Y81.928 E17.16688
G1 X114.418 Y82.039 E17.17443
G1 X114.603 Y82.487 E17.20688
G1 X71.408 Y125.682 E21.29823
G1 X71.408 Y126.441 E21.34909
G1 X114.857 Y82.993 E25.46445
G1 X115.186 Y83.422 E25.50072
G1 X71.408 Y127.201 E29.64732
G1 X71.408 Y127.960 E29.69818
G1 X115.580 Y83.788 E33.88204
G1 X116.011 Y84.117 E33.91833
G1 X71.408 Y128.719 E38.14299
G1 X71.408 Y129.479 E38.19386
G1 X116.544 Y84.344 E42.46900
G1 X116.848 Y84.470 E42.49108
G1 X117.139 Y84.508 E42.51070
G1 X71.408 Y130.238 E46.84220
G1 X71.408 Y130.998 E46.89306
G1 X117.831 Y84.575 E51.29018
G1 X118.628 Y84.470 E51.34396
G1 X118.744 Y84.422 E51.35239
G1 X71.408 Y131.757 E55.83593
G1 X71.408 Y132.516 E55.88679
G1 X138.592 Y65.333 E62.25030
G1 X138.592 Y66.093 E62.30116
G1 X71.408 Y133.276 E68.66466
G1 X71.408 Y134.035 E68.71552
G1 X138.592 Y66.852 E75.07903
G1 X138.592 Y67.611 E75.12989
G1 X71.408 Y134.795 E81.49339
G1 X71.408 Y135.554 E81.54425
G1 X138.592 Y68.371 E87.90775
G1 X138.592 Y69.130 E87.95862
G1 X71.408 Y136.314 E94.32212
G1 X71.408 Y137.073 E94.37298
G1 X138.592 Y69.890 E100.73648
G1 X138.592 Y70.649 E100.78735
G1 X71.408 Y137.832 E107.15085
G1 X71.408 Y138.592 E107.20171
G1 X138.592 Y71.408 E113.56521
G1 X138.592 Y72.168 E113.61608
G1 X71.408 Y139.351 E119.97958
G1 X71.408 Y140.111 E120.03044
G1 X138.592 Y72.927 E126.39394
G1 X138.592 Y73.687 E126.44481
G1 X71.408 Y140.870 E132.80831
G1 X71.408 Y141.629 E132.85917
G1 X138.592 Y74.446 E139.22267
G1 X138.592 Y75.206 E139.27353
G1 X71.408 Y142.389 E145.63704
G1 X71.408 Y143.148 E145.68790
G1 X138.592 Y75.965 E152.05140
G1 X138.592 Y76.724 E152.10226
G1 X71.408 Y143.908 E158.46577
G1 X71.408 Y144.667 E158.51663
G1 X138.592 Y77.484 E164.88013
G1 X138.592 Y78.243 E164.93099
G1 X91.257 Y125.578 E169.41450
G1 X91.372 Y125.530 E169.42289
G1 X92.169 Y125.425 E169.47670
G1 X138.592 Y79.003 E173.87379
G1 X138.592 Y79.762 E173.92465
G1 X92.861 Y125.492 E178.25616
G1 X93.150 Y125.529 E178.27564
G1 X93.457 Y125.657 E178.29788
G1 X138.592 Y80.521 E182.57301
G1 X138.592 Y81.281 E182.62387
G1 X93.991 Y125.881 E186.84838
G1 X94.421 Y126.211 E186.88465
G1 X138.592 Y82.040 E191.06846
G1 X138.592 Y82.800 E191.11932
G1 X94.814 Y126.578 E195.26591
G1 X95.143 Y127.007 E195.30218
G1 X138.592 Y83.559 E199.41754
G1 X138.592 Y84.319 E199.46840
G1 X95.397 Y127.513 E203.55974
G1 X95.582 Y127.961 E203.59218
G1 X95.597 Y128.073 E203.59974
G1 X138.592 Y85.078 E207.67213
G1 X138.592 Y85.837 E207.72299
G1 X95.685 Y128.744 E211.78701
G1 X95.699 Y128.850 E211.79422
G1 X95.603 Y129.586 E211.84391
G1 X138.592 Y86.597 E215.91577
G1 X138.592 Y87.356 E215.96664
G1 X94.777 Y131.171 E220.11670
G1 E219.51670 F900.00000
G92 E0
G1 X89.066 Y127.769 F4500.000
G1 E0.65000 F900.00000
G1 F1920
G1 X71.408 Y145.426 E2.32248
G1 X71.408 Y146.186 E2.37334
G1 X88.913 Y128.681 E4.03135
G1 X88.901 Y128.775 E4.03765
G1 X88.980 Y129.374 E4.07815
G1 X71.408 Y146.945 E5.74247
G1 X71.408 Y147.705 E5.79333
G1 X89.144 Y129.969 E7.47322
G1 X89.371 Y130.502 E7.51200
G1 X71.408 Y148.464 E9.21336
G1 X71.408 Y149.224 E9.26422
G1 X89.699 Y130.933 E10.99669
G1 X89.907 Y131.205 E11.01966
G1 X90.065 Y131.326 E11.03299
G1 X71.687 Y149.704 E12.77373
G1 X72.447 Y149.704 E12.82459
G1 X90.496 Y131.655 E14.53421
G1 X90.627 Y131.755 E14.54527
G1 X91.001 Y131.909 E14.57234
G1 X73.206 Y149.704 E16.25783
G1 X73.965 Y149.704 E16.30869
G1 X91.560 Y132.109 E17.97523
G1 X92.231 Y132.198 E18.02057
G1 X74.725 Y149.704 E19.67874
G1 X75.484 Y149.704 E19.72960
G1 X93.073 Y132.115 E21.39562
G1 X93.228 Y132.095 E21.40603
G1 X94.057 Y131.751 E21.46613
G1 X94.658 Y131.289 E21.51695
G1 X76.244 Y149.704 E23.26116
G1 X77.003 Y149.704 E23.31203
G1 X138.592 Y88.116 E29.14560
G1 X138.592 Y88.875 E29.19647
