; generated by Slic3r 1.3.1-dev on 2019-10-06 at 11:40:38

; Print Config Notes: 
; DMF_3D_0.3mmThin222HC25%
; 
; external perimeters extrusion width = 0.60mm (4.82mm^3/s)
; perimeters extrusion width = 0.54mm (5.71mm^3/s)
; infill extrusion width = 0.70mm (7.63mm^3/s)
; solid infill extrusion width = 0.51mm (5.35mm^3/s)
; top infill extrusion width = 0.51mm (5.35mm^3/s)

M190 S90 ; set bed temperature and wait for it to be reached
M104 S250 ; set temperature
G28 ; home all axes
; Filament gcode

M109 S250 ; set temperature and wait for it to be reached
G21 ; set units to millimeters
G90 ; use absolute coordinates
M82 ; use absolute distances for extrusion
G92 E0
G1 E-0.60000 F900.00000
G92 E0
G1 Z0.300 F4500.000
G1 X106.899 Y56.871 F4500.000
G1 E0.70000 F900.00000
G1 F1920
G1 X107.130 Y56.449 E0.73813
G1 X107.389 Y56.043 E0.77632
G1 X107.676 Y55.657 E0.81447
G1 X107.990 Y55.289 E0.85281
G1 X108.327 Y54.947 E0.89088
G1 X108.691 Y54.626 E0.92937
G1 X109.071 Y54.336 E0.96723
G1 X109.474 Y54.069 E1.00557
G1 X109.896 Y53.832 E1.04398
G1 X110.329 Y53.626 E1.08196
G1 X110.780 Y53.449 E1.12039
G1 X111.238 Y53.305 E1.15843
G1 X112.045 Y53.134 E1.22383
G1 X112.522 Y53.079 E1.26186
G1 X113.005 Y53.057 E1.30024
G1 X179.337 Y53.069 E6.55885
G1 X179.955 Y53.134 E6.60811
G1 X180.761 Y53.305 E6.67350
G1 X181.351 Y53.497 E6.72265
G1 X182.099 Y53.829 E6.78755
G1 X182.644 Y54.143 E6.83743
G1 X183.307 Y54.625 E6.90234
G1 X183.773 Y55.044 E6.95211
G1 X184.324 Y55.657 E7.01742
G1 X184.688 Y56.157 E7.06646
G1 X184.941 Y56.572 E7.10499
G1 X185.164 Y57.002 E7.14336
G1 X185.471 Y57.763 E7.20844
G1 X185.642 Y58.359 E7.25759
G1 X185.738 Y58.836 E7.29615
G1 X185.801 Y59.316 E7.33457
G1 X185.832 Y59.963 E7.38587
G1 X185.832 Y148.037 E14.36827
G1 X185.785 Y148.829 E14.43116
G1 X185.642 Y149.641 E14.49651
G1 X185.471 Y150.237 E14.54566
G1 X185.162 Y151.003 E14.61117
G1 X184.940 Y151.430 E14.64925
G1 X184.689 Y151.841 E14.68746
G1 X184.323 Y152.345 E14.73682
G1 X183.773 Y152.956 E14.80199
G1 X183.308 Y153.374 E14.85159
G1 X182.644 Y153.857 E14.91668
G1 X182.227 Y154.103 E14.95503
G1 X181.800 Y154.317 E14.99296
G1 X181.351 Y154.503 E15.03149
G1 X180.762 Y154.695 E15.08057
G1 X180.291 Y154.807 E15.11894
G1 X179.478 Y154.921 E15.18403
G1 X178.995 Y154.943 E15.22239
G1 X113.005 Y154.943 E20.45392
G1 X112.183 Y154.886 E20.51924
G1 X111.709 Y154.807 E20.55739
G1 X111.240 Y154.695 E20.59555
G1 X110.649 Y154.503 E20.64483
G1 X109.896 Y154.169 E20.71014
G1 X109.356 Y153.857 E20.75961
G1 X108.692 Y153.374 E20.82470
G1 X108.227 Y152.956 E20.87428
G1 X107.676 Y152.343 E20.93960
G1 X107.311 Y151.841 E20.98882
G1 X107.058 Y151.427 E21.02723
G1 X106.836 Y150.999 E21.06545
G1 X106.529 Y150.237 E21.13061
G1 X106.358 Y149.643 E21.17961
G1 X106.262 Y149.166 E21.21818
G1 X106.200 Y148.688 E21.25641
G1 X106.168 Y148.037 E21.30804
G1 X106.168 Y59.963 E28.29045
G1 X106.215 Y59.171 E28.35334
G1 X106.358 Y58.359 E28.41867
G1 X106.529 Y57.763 E28.46784
G1 X106.698 Y57.311 E28.50612
G1 X106.873 Y56.925 E28.53967
G1 X107.471 Y57.150 F4500.000
G1 F1920
G1 X107.680 Y56.767 E28.57430
G1 X107.916 Y56.399 E28.60897
G1 X108.177 Y56.048 E28.64362
G1 X108.463 Y55.715 E28.67842
G1 X108.769 Y55.404 E28.71299
G1 X109.100 Y55.113 E28.74793
G1 X109.445 Y54.850 E28.78232
G1 X109.811 Y54.608 E28.81713
G1 X110.195 Y54.393 E28.85200
G1 X110.588 Y54.207 E28.88649
G1 X110.997 Y54.046 E28.92137
G1 X111.413 Y53.916 E28.95592
G1 X112.134 Y53.763 E29.01428
G1 X112.566 Y53.713 E29.04882
G1 X113.005 Y53.692 E29.08366
G1 X178.995 Y53.692 E34.31518
G1 X179.726 Y53.743 E34.37327
G1 X180.296 Y53.844 E34.41920
G1 X181.003 Y54.046 E34.47744
G1 X181.409 Y54.205 E34.51204
G1 X181.801 Y54.391 E34.54645
G1 X182.307 Y54.682 E34.59274
G1 X182.899 Y55.112 E34.65068
G1 X183.332 Y55.502 E34.69686
G1 X183.823 Y56.048 E34.75515
G1 X184.161 Y56.513 E34.80068
G1 X184.391 Y56.890 E34.83567
G1 X184.593 Y57.280 E34.87050
G1 X184.867 Y57.959 E34.92858
G1 X185.025 Y58.513 E34.97423
G1 X185.112 Y58.945 E35.00923
G1 X185.169 Y59.382 E35.04411
G1 X185.196 Y59.963 E35.09019
G1 X185.196 Y148.037 E42.07260
G1 X185.153 Y148.763 E42.13021
G1 X185.026 Y149.487 E42.18852
G1 X184.867 Y150.041 E42.23417
G1 X184.591 Y150.725 E42.29263
G1 X184.390 Y151.112 E42.32721
G1 X184.162 Y151.485 E42.36190
G1 X183.824 Y151.952 E42.40756
G1 X183.332 Y152.498 E42.46590
G1 X182.900 Y152.887 E42.51194
G1 X182.307 Y153.318 E42.57003
G1 X181.929 Y153.541 E42.60485
G1 X181.541 Y153.736 E42.63930
G1 X181.134 Y153.906 E42.67426
G1 X180.587 Y154.084 E42.71986
G1 X180.159 Y154.185 E42.75469
G1 X179.434 Y154.287 E42.81278
G1 X178.995 Y154.308 E42.84761
G1 X113.005 Y154.308 E48.07913
G1 X112.272 Y154.256 E48.13743
G1 X111.841 Y154.185 E48.17206
G1 X111.415 Y154.084 E48.20672
G1 X110.866 Y153.906 E48.25247
G1 X110.195 Y153.607 E48.31076
G1 X109.693 Y153.318 E48.35669
G1 X109.100 Y152.887 E48.41478
G1 X108.668 Y152.499 E48.46080
G1 X108.177 Y151.952 E48.51910
G1 X107.839 Y151.487 E48.56462
G1 X107.609 Y151.110 E48.59968
G1 X107.408 Y150.721 E48.63438
G1 X107.133 Y150.041 E48.69253
G1 X106.975 Y149.489 E48.73802
G1 X106.888 Y149.056 E48.77305
G1 X106.832 Y148.622 E48.80777
G1 X106.804 Y148.037 E48.85414
G1 X106.804 Y59.963 E55.83655
G1 X106.847 Y59.237 E55.89416
G1 X106.974 Y58.513 E55.95246
G1 X107.133 Y57.959 E55.99813
G1 X107.288 Y57.549 E56.03288
G1 X107.444 Y57.204 E56.06290
G1 X108.042 Y57.429 F4500.000
G1 F1920
G1 X108.230 Y57.085 E56.09402
G1 X108.443 Y56.754 E56.12518
G1 X108.678 Y56.439 E56.15632
G1 X108.935 Y56.140 E56.18759
G1 X109.211 Y55.862 E56.21866
G1 X109.508 Y55.600 E56.25005
G1 X109.818 Y55.364 E56.28097
G1 X110.148 Y55.147 E56.31224
G1 X110.493 Y54.954 E56.34357
G1 X110.846 Y54.787 E56.37457
G1 X111.215 Y54.644 E56.40591
G1 X111.589 Y54.527 E56.43697
G1 X112.222 Y54.393 E56.48829
G1 X112.611 Y54.347 E56.51933
G1 X113.005 Y54.328 E56.55063
G1 X178.995 Y54.328 E61.78215
G1 X179.638 Y54.373 E61.83325
G1 X180.164 Y54.466 E61.87563
G1 X180.785 Y54.644 E61.92685
G1 X181.151 Y54.786 E61.95795
G1 X181.504 Y54.952 E61.98889
G1 X181.970 Y55.221 E62.03158
G1 X182.490 Y55.599 E62.08254
G1 X182.890 Y55.959 E62.12515
G1 X183.322 Y56.439 E62.17640
G1 X183.634 Y56.868 E62.21843
G1 X183.840 Y57.207 E62.24988
G1 X184.021 Y57.558 E62.28118
G1 X184.262 Y58.156 E62.33226
G1 X184.409 Y58.667 E62.37441
G1 X184.486 Y59.055 E62.40585
G1 X184.536 Y59.448 E62.43718
G1 X184.561 Y59.963 E62.47806
G1 X184.561 Y148.037 E69.46046
G1 X184.521 Y148.696 E69.51279
G1 X184.409 Y149.333 E69.56407
G1 X184.262 Y149.844 E69.60622
G1 X184.019 Y150.446 E69.65763
G1 X183.840 Y150.794 E69.68871
G1 X183.635 Y151.130 E69.71988
G1 X183.322 Y151.562 E69.76219
G1 X182.890 Y152.041 E69.81334
G1 X182.492 Y152.400 E69.85582
G1 X181.970 Y152.779 E69.90691
G1 X181.631 Y152.980 E69.93820
G1 X181.282 Y153.156 E69.96917
G1 X180.917 Y153.309 E70.00058
G1 X180.411 Y153.473 E70.04268
G1 X180.027 Y153.563 E70.07397
G1 X179.389 Y153.653 E70.12507
G1 X178.995 Y153.672 E70.15636
G1 X113.005 Y153.672 E75.38788
G1 X112.360 Y153.627 E75.43915
G1 X111.973 Y153.563 E75.47028
G1 X111.590 Y153.473 E75.50142
G1 X111.083 Y153.309 E75.54366
G1 X110.493 Y153.046 E75.59492
G1 X110.030 Y152.779 E75.63730
G1 X109.508 Y152.400 E75.68840
G1 X109.110 Y152.041 E75.73086
G1 X108.677 Y151.561 E75.78213
G1 X108.365 Y151.130 E75.82433
G1 X108.160 Y150.792 E75.85566
G1 X107.979 Y150.443 E75.88684
G1 X107.738 Y149.845 E75.93799
G1 X107.592 Y149.335 E75.97997
G1 X107.514 Y148.946 E76.01146
G1 X107.464 Y148.556 E76.04266
G1 X107.439 Y148.037 E76.08378
G1 X107.439 Y59.963 E83.06619
G1 X107.479 Y59.304 E83.11852
G1 X107.591 Y58.667 E83.16978
G1 X107.738 Y58.155 E83.21195
G1 X108.016 Y57.483 E83.26964
G1 E82.66964 F900.00000
G92 E0
G1 X142.948 Y98.414 F4500.000
G1 E0.70000 F900.00000
G1 F1920
G1 X142.948 Y140.886 E4.06703
G1 X120.477 Y140.886 E5.84851
G1 X120.477 Y98.414 E9.21554
G1 X142.888 Y98.414 E10.99226
G1 X142.312 Y99.050 F4500.000
G1 F1440
G1 X142.312 Y140.250 E14.25851
G1 X121.113 Y140.250 E15.93920
G1 X121.113 Y99.050 E19.20545
G1 X142.252 Y99.050 E20.88139
G1 X142.686 Y98.907 F4500.000
G1 E20.28139 F900.00000
G92 E0
G1 X134.824 Y82.827 F4500.000
G1 E0.70000 F900.00000
G1 F720
G1 X134.089 Y83.132 E0.76309
G1 X133.300 Y83.236 E0.82618
G1 X132.511 Y83.132 E0.88927
G1 X131.776 Y82.827 E0.95236
G1 X131.143 Y82.342 E1.01557
G1 X130.657 Y81.704 E1.07916
G1 X130.356 Y80.976 E1.14159
G1 X130.252 Y80.187 E1.20468
G1 X130.356 Y79.399 E1.26777
G1 X130.660 Y78.663 E1.33086
G1 X131.145 Y78.032 E1.39394
G1 X131.776 Y77.548 E1.45703
G1 X132.511 Y77.243 E1.52012
G1 X133.292 Y77.140 E1.58255
G1 X134.088 Y77.242 E1.64615
G1 X134.824 Y77.548 E1.70937
G1 X135.455 Y78.032 E1.77245
G1 X135.940 Y78.663 E1.83553
G1 X136.244 Y79.398 E1.89862
G1 X136.348 Y80.188 E1.96171
G1 X136.244 Y80.976 E2.02480
G1 X135.940 Y81.712 E2.08789
G1 X135.455 Y82.343 E2.15097
G1 X134.872 Y82.791 E2.20930
G1 X134.504 Y82.272 F4500.000
G1 F720
G1 X133.923 Y82.513 E2.25912
G1 X133.300 Y82.595 E2.30894
G1 X132.677 Y82.513 E2.35876
G1 X132.096 Y82.272 E2.40858
G1 X131.597 Y81.889 E2.45844
G1 X131.213 Y81.384 E2.50877
G1 X130.975 Y80.811 E2.55801
G1 X130.893 Y80.187 E2.60783
G1 X130.975 Y79.564 E2.65765
G1 X131.215 Y78.984 E2.70747
G1 X131.598 Y78.485 E2.75729
G1 X132.096 Y78.103 E2.80711
G1 X132.677 Y77.862 E2.85692
G1 X133.293 Y77.781 E2.90617
G1 X133.923 Y77.862 E2.95651
G1 X134.504 Y78.103 E3.00637
G1 X135.002 Y78.485 E3.05619
G1 X135.385 Y78.984 E3.10600
G1 X135.625 Y79.564 E3.15582
G1 X135.707 Y80.188 E3.20564
G1 X135.625 Y80.811 E3.25546
G1 X135.385 Y81.391 E3.30528
G1 X135.002 Y81.890 E3.35510
G1 X134.551 Y82.236 E3.40016
G1 X134.504 Y82.272 F4500.000
G1 E2.80016 F900.00000
G92 E0
G1 X146.714 Y82.272 F4500.000
G1 E0.70000 F900.00000
G1 F1920
G1 X146.714 Y80.170 E0.86664
G1 X146.743 Y79.351 E0.93160
G1 X146.830 Y78.519 E0.99792
G1 X146.976 Y77.695 E1.06425
G1 X147.178 Y76.884 E1.13057
G1 X147.437 Y76.088 E1.19690
G1 X147.750 Y75.312 E1.26326
G1 X148.122 Y74.552 E1.33035
G1 X148.535 Y73.836 E1.39588
G1 X149.003 Y73.142 E1.46220
G1 X149.518 Y72.483 E1.52853
G1 X150.078 Y71.861 E1.59485
G1 X150.680 Y71.280 E1.66118
G1 X151.321 Y70.742 E1.72751
G1 X151.997 Y70.250 E1.79383
G1 X152.707 Y69.807 E1.86016
G1 X153.446 Y69.414 E1.92649
G1 X154.210 Y69.074 E1.99281
G1 X154.996 Y68.788 E2.05913
G1 X155.800 Y68.557 E2.12547
G1 X156.619 Y68.383 E2.19180
G1 X157.447 Y68.267 E2.25812
G1 X158.282 Y68.209 E2.32444
G1 X159.118 Y68.209 E2.39077
G1 X159.953 Y68.267 E2.45709
G1 X160.781 Y68.383 E2.52341
G1 X161.600 Y68.557 E2.58974
G1 X162.404 Y68.788 E2.65607
G1 X163.190 Y69.074 E2.72240
G1 X163.954 Y69.414 E2.78872
G1 X164.693 Y69.807 E2.85505
G1 X165.403 Y70.250 E2.92137
G1 X166.079 Y70.742 E2.98770
G1 X166.720 Y71.280 E3.05403
G1 X167.322 Y71.861 E3.12035
G1 X167.882 Y72.483 E3.18667
G1 X168.397 Y73.142 E3.25301
G1 X168.865 Y73.836 E3.31933
G1 X169.283 Y74.560 E3.38565
G1 X169.650 Y75.312 E3.45198
G1 X169.963 Y76.088 E3.51831
G1 X170.222 Y76.884 E3.58464
G1 X170.424 Y77.695 E3.65097
G1 X170.570 Y78.519 E3.71728
G1 X170.657 Y79.351 E3.78361
G1 X170.686 Y80.170 E3.84857
G1 X170.686 Y100.205 E5.43686
G1 X170.657 Y101.024 E5.50182
G1 X170.570 Y101.856 E5.56815
G1 X170.424 Y102.680 E5.63447
G1 X170.222 Y103.491 E5.70080
G1 X169.963 Y104.287 E5.76713
G1 X169.650 Y105.063 E5.83345
G1 X169.283 Y105.815 E5.89978
G1 X168.865 Y106.539 E5.96610
G1 X168.397 Y107.233 E6.03243
G1 X167.882 Y107.892 E6.09876
G1 X167.322 Y108.514 E6.16508
G1 X166.720 Y109.095 E6.23141
G1 X166.079 Y109.633 E6.29773
G1 X165.403 Y110.125 E6.36406
G1 X164.693 Y110.568 E6.43038
G1 X163.954 Y110.961 E6.49671
G1 X163.190 Y111.301 E6.56303
G1 X162.404 Y111.587 E6.62936
G1 X161.600 Y111.818 E6.69569
G1 X160.781 Y111.992 E6.76202
G1 X159.953 Y112.108 E6.82834
G1 X159.118 Y112.166 E6.89467
G1 X158.282 Y112.166 E6.96099
G1 X157.447 Y112.108 E7.02732
G1 X156.619 Y111.992 E7.09364
G1 X155.800 Y111.818 E7.15997
G1 X154.996 Y111.587 E7.22630
G1 X154.210 Y111.301 E7.29262
G1 X153.446 Y110.961 E7.35895
G1 X152.707 Y110.568 E7.42527
G1 X151.997 Y110.125 E7.49160
G1 X151.321 Y109.633 E7.55793
G1 X150.680 Y109.095 E7.62425
G1 X150.078 Y108.514 E7.69058
G1 X149.518 Y107.892 E7.75690
G1 X149.003 Y107.233 E7.82323
G1 X148.535 Y106.539 E7.88956
G1 X148.117 Y105.815 E7.95588
G1 X147.750 Y105.063 E8.02221
G1 X147.437 Y104.287 E8.08853
G1 X147.178 Y103.491 E8.15486
G1 X146.976 Y102.680 E8.22119
G1 X146.830 Y101.856 E8.28751
G1 X146.743 Y101.024 E8.35384
G1 X146.714 Y100.205 E8.41880
G1 X146.714 Y82.332 E9.83569
G1 X147.350 Y82.272 F4500.000
G1 F1440
G1 X147.350 Y80.181 E10.00145
G1 X147.377 Y79.396 E10.06377
G1 X147.460 Y78.608 E10.12658
G1 X147.598 Y77.828 E10.18938
G1 X147.789 Y77.059 E10.25219
G1 X148.034 Y76.306 E10.31500
G1 X148.331 Y75.571 E10.37782
G1 X148.683 Y74.850 E10.44138
G1 X149.074 Y74.173 E10.50342
G1 X149.517 Y73.516 E10.56622
G1 X150.005 Y72.892 E10.62903
G1 X150.535 Y72.303 E10.69183
G1 X151.105 Y71.753 E10.75464
G1 X151.712 Y71.243 E10.81745
G1 X152.353 Y70.778 E10.88026
G1 X153.025 Y70.358 E10.94306
G1 X153.724 Y69.986 E11.00587
G1 X154.448 Y69.664 E11.06868
G1 X155.193 Y69.393 E11.13148
G1 X155.954 Y69.174 E11.19429
G1 X156.729 Y69.010 E11.25710
G1 X157.514 Y68.900 E11.31990
G1 X158.304 Y68.844 E11.38271
G1 X159.096 Y68.844 E11.44552
G1 X159.886 Y68.900 E11.50832
G1 X160.671 Y69.010 E11.57112
G1 X161.446 Y69.174 E11.63393
G1 X162.207 Y69.393 E11.69674
G1 X162.952 Y69.664 E11.75955
G1 X163.676 Y69.986 E11.82236
G1 X164.375 Y70.358 E11.88516
G1 X165.047 Y70.778 E11.94797
G1 X165.688 Y71.243 E12.01078
G1 X166.295 Y71.753 E12.07358
G1 X166.865 Y72.303 E12.13639
G1 X167.395 Y72.892 E12.19919
G1 X167.883 Y73.516 E12.26201
G1 X168.325 Y74.173 E12.32481
G1 X168.722 Y74.859 E12.38761
G1 X169.069 Y75.571 E12.45042
G1 X169.366 Y76.306 E12.51323
G1 X169.611 Y77.059 E12.57604
G1 X169.802 Y77.828 E12.63884
G1 X169.940 Y78.608 E12.70165
G1 X170.023 Y79.396 E12.76445
G1 X170.050 Y80.181 E12.82678
G1 X170.050 Y100.194 E14.41330
G1 X170.023 Y100.979 E14.47563
G1 X169.940 Y101.767 E14.53843
G1 X169.802 Y102.547 E14.60124
G1 X169.611 Y103.316 E14.66404
G1 X169.366 Y104.070 E14.72685
G1 X169.069 Y104.804 E14.78966
G1 X168.722 Y105.516 E14.85247
G1 X168.326 Y106.202 E14.91527
G1 X167.883 Y106.859 E14.97808
G1 X167.395 Y107.483 E15.04089
G1 X166.865 Y108.072 E15.10369
G1 X166.295 Y108.622 E15.16650
G1 X165.688 Y109.132 E15.22930
G1 X165.047 Y109.597 E15.29211
G1 X164.375 Y110.017 E15.35492
G1 X163.676 Y110.389 E15.41772
G1 X162.952 Y110.711 E15.48053
G1 X162.207 Y110.982 E15.54334
G1 X161.446 Y111.201 E15.60615
G1 X160.671 Y111.365 E15.66895
G1 X159.886 Y111.476 E15.73176
G1 X159.096 Y111.531 E15.79456
G1 X158.304 Y111.531 E15.85737
G1 X157.514 Y111.476 E15.92018
G1 X156.729 Y111.365 E15.98298
G1 X155.954 Y111.201 E16.04579
G1 X155.193 Y110.982 E16.10860
G1 X154.448 Y110.711 E16.17140
G1 X153.724 Y110.389 E16.23421
G1 X153.025 Y110.017 E16.29702
G1 X152.353 Y109.597 E16.35982
G1 X151.712 Y109.132 E16.42263
G1 X151.105 Y108.622 E16.48544
G1 X150.535 Y108.072 E16.54824
G1 X150.005 Y107.483 E16.61105
G1 X149.517 Y106.859 E16.67386
G1 X149.074 Y106.202 E16.73666
G1 X148.678 Y105.516 E16.79947
G1 X148.331 Y104.804 E16.86228
G1 X148.034 Y104.070 E16.92508
G1 X147.789 Y103.316 E16.98789
G1 X147.598 Y102.547 E17.05070
G1 X147.460 Y101.767 E17.11350
G1 X147.377 Y100.979 E17.17631
G1 X147.350 Y100.194 E17.23863
G1 X147.350 Y82.332 E18.65465
G1 X147.003 Y82.072 F4500.000
G1 E18.05465 F900.00000
G92 E0
G1 X157.911 Y124.868 F4500.000
G1 E0.70000 F900.00000
G1 F720
G1 X158.692 Y124.765 E0.76243
G1 X159.488 Y124.867 E0.82604
G1 X160.224 Y125.173 E0.88925
G1 X160.855 Y125.657 E0.95233
G1 X161.340 Y126.288 E1.01542
G1 X161.644 Y127.024 E1.07851
G1 X161.748 Y127.812 E1.14159
G1 X161.644 Y128.601 E1.20468
G1 X161.340 Y129.337 E1.26777
G1 X160.855 Y129.968 E1.33086
G1 X160.224 Y130.452 E1.39394
G1 X159.489 Y130.757 E1.45703
G1 X158.700 Y130.861 E1.52012
G1 X157.911 Y130.757 E1.58321
G1 X157.183 Y130.456 E1.64564
G1 X156.546 Y129.969 E1.70923
G1 X156.060 Y129.337 E1.77244
G1 X155.756 Y128.601 E1.83553
G1 X155.652 Y127.812 E1.89862
