; generated by Slic3r 1.3.1-dev on 2019-07-17 at 15:34:15

; Print Config Notes: 
; DMF_3D_0.3mmThin333HC30%PETGear
; 
; external perimeters extrusion width = 0.66mm (2.68mm^3/s)
; perimeters extrusion width = 0.54mm (2.85mm^3/s)
; infill extrusion width = 0.90mm (7.52mm^3/s)
; solid infill extrusion width = 0.51mm (4.01mm^3/s)
; top infill extrusion width = 0.51mm (4.01mm^3/s)

M190 S90 ; set bed temperature and wait for it to be reached
M104 S250 ; set temperature
G28 ; home all axes
; Filament gcode

M109 S250 ; set temperature and wait for it to be reached
G21 ; set units to millimeters
G90 ; use absolute coordinates
M82 ; use absolute distances for extrusion
G92 E0
G1 Z0.300 F3000.000
G1 E-0.60000 F900.00000
G92 E0
G1 X67.120 Y56.594 F3000.000
G1 E0.65000 F900.00000
G1 F1440
G1 X67.536 Y56.163 E0.69000
G1 X68.134 Y55.661 E0.74221
G1 X68.633 Y55.324 E0.78243
G1 X69.324 Y54.957 E0.83466
G1 X69.883 Y54.731 E0.87495
G1 X70.633 Y54.516 E0.92708
G1 X71.225 Y54.411 E0.96727
G1 X72.005 Y54.357 E1.01949
G1 X137.995 Y54.357 E5.42796
G1 X138.772 Y54.411 E5.48002
G1 X139.366 Y54.516 E5.52030
G1 X140.117 Y54.731 E5.57250
G1 X140.545 Y54.898 E5.60322
G1 X140.959 Y55.094 E5.63376
G1 X141.485 Y55.398 E5.67436
G1 X141.866 Y55.661 E5.70527
G1 X142.223 Y55.946 E5.73579
G1 X142.787 Y56.490 E5.78815
G1 X143.174 Y56.951 E5.82839
G1 X143.443 Y57.331 E5.85950
G1 X143.831 Y58.003 E5.91129
G1 X144.024 Y58.424 E5.94225
G1 X144.186 Y58.856 E5.97304
G1 X144.351 Y59.431 E6.01307
G1 X144.443 Y59.887 E6.04415
G1 X144.502 Y60.347 E6.07512
G1 X144.532 Y60.963 E6.11627
G1 X144.532 Y149.037 E12.00015
G1 X144.487 Y149.798 E12.05105
G1 X144.351 Y150.569 E12.10332
G1 X144.229 Y151.012 E12.13403
G1 X144.076 Y151.447 E12.16483
G1 X143.831 Y151.997 E12.20509
G1 X143.441 Y152.673 E12.25724
G1 X143.087 Y153.160 E12.29743
G1 X142.787 Y153.510 E12.32823
G1 X142.464 Y153.837 E12.35891
G1 X141.866 Y154.339 E12.41110
G1 X141.485 Y154.602 E12.44203
G1 X141.087 Y154.838 E12.47294
G1 X140.549 Y155.100 E12.51291
G1 X140.117 Y155.269 E12.54389
G1 X139.376 Y155.482 E12.59544
G1 X138.914 Y155.569 E12.62679
G1 X138.457 Y155.622 E12.65754
G1 X137.995 Y155.643 E12.68846
G1 X72.005 Y155.643 E17.09692
G1 X71.225 Y155.589 E17.14918
G1 X70.771 Y155.513 E17.17992
G1 X70.323 Y155.407 E17.21069
G1 X69.752 Y155.221 E17.25081
G1 X69.037 Y154.904 E17.30305
G1 X68.515 Y154.602 E17.34333
G1 X68.134 Y154.339 E17.37426
G1 X67.777 Y154.054 E17.40474
G1 X67.213 Y153.510 E17.45712
G1 X66.824 Y153.046 E17.49760
G1 X66.389 Y152.400 E17.54958
G1 X66.169 Y151.997 E17.58027
G1 X65.976 Y151.576 E17.61120
G1 X65.814 Y151.145 E17.64201
G1 X65.649 Y150.571 E17.68190
G1 X65.557 Y150.114 E17.71300
G1 X65.498 Y149.657 E17.74382
G1 X65.468 Y149.037 E17.78523
G1 X65.468 Y60.963 E23.66912
G1 X65.498 Y60.341 E23.71069
G1 X65.582 Y59.745 E23.75086
G1 X65.771 Y58.988 E23.80300
G1 X65.924 Y58.553 E23.83380
G1 X66.108 Y58.128 E23.86474
G1 X66.389 Y57.599 E23.90478
G1 X66.638 Y57.211 E23.93557
G1 X67.081 Y56.640 E23.98388
G1 X67.518 Y56.952 F3000.000
G1 F1440
G1 X67.908 Y56.548 E24.02140
G1 X68.449 Y56.094 E24.06862
G1 X68.917 Y55.778 E24.10633
G1 X69.542 Y55.446 E24.15357
G1 X70.066 Y55.234 E24.19135
G1 X70.744 Y55.040 E24.23850
G1 X71.300 Y54.942 E24.27618
G1 X72.005 Y54.892 E24.32342
G1 X137.995 Y54.892 E28.73188
G1 X138.698 Y54.942 E28.77898
G1 X139.255 Y55.040 E28.81674
G1 X139.934 Y55.234 E28.86395
G1 X140.328 Y55.388 E28.89219
G1 X140.708 Y55.567 E28.92026
G1 X141.201 Y55.852 E28.95831
G1 X141.551 Y56.094 E28.98671
G1 X141.879 Y56.356 E29.01476
G1 X142.389 Y56.849 E29.06212
G1 X142.752 Y57.281 E29.09985
G1 X142.999 Y57.630 E29.12843
G1 X143.350 Y58.238 E29.17528
G1 X143.527 Y58.625 E29.20372
G1 X143.677 Y59.021 E29.23202
G1 X143.831 Y59.561 E29.26956
G1 X143.915 Y59.980 E29.29811
G1 X143.970 Y60.403 E29.32656
G1 X143.996 Y60.963 E29.36401
G1 X143.996 Y149.037 E35.24790
G1 X143.954 Y149.742 E35.29504
G1 X143.831 Y150.439 E35.34232
G1 X143.720 Y150.846 E35.37054
G1 X143.579 Y151.246 E35.39884
G1 X143.350 Y151.762 E35.43659
G1 X142.996 Y152.374 E35.48376
G1 X142.665 Y152.830 E35.52145
G1 X142.389 Y153.151 E35.54976
G1 X142.092 Y153.452 E35.57795
G1 X141.551 Y153.906 E35.62515
G1 X141.201 Y154.148 E35.65357
G1 X140.835 Y154.365 E35.68198
G1 X140.331 Y154.611 E35.71947
G1 X139.934 Y154.766 E35.74793
G1 X139.263 Y154.959 E35.79456
G1 X138.840 Y155.039 E35.82336
G1 X138.420 Y155.088 E35.85161
G1 X137.995 Y155.108 E35.88002
G1 X72.005 Y155.108 E40.28849
G1 X71.299 Y155.058 E40.33575
G1 X70.882 Y154.990 E40.36401
G1 X70.470 Y154.892 E40.39228
G1 X69.935 Y154.718 E40.42990
G1 X69.288 Y154.431 E40.47715
G1 X68.799 Y154.148 E40.51492
G1 X68.449 Y153.906 E40.54333
G1 X68.121 Y153.644 E40.57136
G1 X67.611 Y153.151 E40.61873
G1 X67.246 Y152.716 E40.65667
G1 X66.853 Y152.133 E40.70369
G1 X66.650 Y151.762 E40.73190
G1 X66.473 Y151.376 E40.76031
G1 X66.323 Y150.979 E40.78862
G1 X66.169 Y150.441 E40.82603
G1 X66.085 Y150.021 E40.85461
G1 X66.031 Y149.601 E40.88293
G1 X66.004 Y149.037 E40.92062
G1 X66.004 Y60.963 E46.80450
G1 X66.031 Y60.397 E46.84232
G1 X66.110 Y59.839 E46.87999
G1 X66.280 Y59.154 E46.92716
G1 X66.421 Y58.754 E46.95545
G1 X66.589 Y58.363 E46.98388
G1 X66.853 Y57.867 E47.02144
G1 X67.082 Y57.510 E47.04973
G1 X67.479 Y56.998 E47.09304
G1 X67.916 Y57.311 F3000.000
G1 F1440
G1 X68.280 Y56.933 E47.12807
G1 X68.764 Y56.527 E47.17031
G1 X69.201 Y56.232 E47.20551
G1 X69.759 Y55.935 E47.24776
G1 X70.249 Y55.738 E47.28302
G1 X70.856 Y55.564 E47.32520
G1 X71.374 Y55.472 E47.36038
G1 X72.005 Y55.428 E47.40263
G1 X137.995 Y55.428 E51.81109
G1 X138.624 Y55.472 E51.85322
G1 X139.144 Y55.563 E51.88846
G1 X139.751 Y55.738 E51.93069
G1 X140.110 Y55.877 E51.95644
G1 X140.457 Y56.041 E51.98204
G1 X140.917 Y56.306 E52.01754
G1 X141.236 Y56.527 E52.04343
G1 X141.535 Y56.767 E52.06902
G1 X141.991 Y57.207 E52.11138
G1 X142.330 Y57.611 E52.14659
G1 X142.555 Y57.929 E52.17263
G1 X142.868 Y58.473 E52.21455
G1 X143.031 Y58.825 E52.24048
G1 X143.167 Y59.186 E52.26628
G1 X143.312 Y59.691 E52.30133
G1 X143.388 Y60.073 E52.32735
G1 X143.437 Y60.458 E52.35329
G1 X143.461 Y60.963 E52.38704
G1 X143.461 Y149.037 E58.27092
G1 X143.422 Y149.686 E58.31432
G1 X143.312 Y150.309 E58.35660
G1 X143.210 Y150.681 E58.38234
G1 X143.083 Y151.045 E58.40814
G1 X142.868 Y151.527 E58.44338
G1 X142.552 Y152.074 E58.48557
G1 X142.243 Y152.500 E58.52075
G1 X141.991 Y152.793 E58.54656
G1 X141.720 Y153.066 E58.57227
G1 X141.236 Y153.473 E58.61449
G1 X140.917 Y153.694 E58.64040
G1 X140.584 Y153.892 E58.66629
G1 X140.113 Y154.122 E58.70130
G1 X139.751 Y154.262 E58.72724
G1 X139.151 Y154.435 E58.76897
G1 X138.765 Y154.508 E58.79521
G1 X138.382 Y154.553 E58.82097
G1 X137.995 Y154.572 E58.84687
G1 X72.005 Y154.572 E63.25533
G1 X71.374 Y154.528 E63.29760
G1 X70.993 Y154.466 E63.32337
G1 X70.618 Y154.377 E63.34915
G1 X70.118 Y154.215 E63.38428
G1 X69.540 Y153.958 E63.42654
G1 X69.083 Y153.694 E63.46179
G1 X68.764 Y153.473 E63.48769
G1 X68.465 Y153.233 E63.51325
G1 X68.009 Y152.793 E63.55562
G1 X67.669 Y152.387 E63.59102
G1 X67.317 Y151.865 E63.63308
G1 X67.132 Y151.527 E63.65881
G1 X66.970 Y151.175 E63.68471
G1 X66.833 Y150.814 E63.71052
G1 X66.689 Y150.310 E63.74551
G1 X66.612 Y149.929 E63.77151
G1 X66.564 Y149.545 E63.79733
G1 X66.539 Y149.037 E63.83128
G1 X66.539 Y60.963 E69.71517
G1 X66.564 Y60.453 E69.74924
G1 X66.637 Y59.932 E69.78440
G1 X66.790 Y59.319 E69.82659
G1 X66.917 Y58.955 E69.85239
G1 X67.071 Y58.598 E69.87830
G1 X67.317 Y58.135 E69.91337
G1 X67.526 Y57.810 E69.93917
G1 X67.877 Y57.357 E69.97748
G1 E69.37748 F900.00000
G92 E0
G1 X130.909 Y99.029 F3000.000
G1 E0.65000 F900.00000
G1 F960
G1 X130.909 Y142.271 E3.53883
G1 X107.666 Y142.271 E5.09155
G1 X107.666 Y99.029 E7.98039
G1 X130.849 Y99.029 E9.52910
G1 X130.373 Y99.564 F3000.000
G1 F960
G1 X130.373 Y141.736 E12.34637
G1 X108.202 Y141.736 E13.82753
G1 X108.202 Y99.564 E16.64479
G1 X130.313 Y99.564 E18.12194
G1 X129.838 Y100.100 F3000.000
G1 F720
G1 X129.838 Y141.200 E20.86765
G1 X108.737 Y141.200 E22.27724
G1 X108.737 Y100.100 E25.02294
G1 X129.778 Y100.100 E26.42853
G1 X130.211 Y99.957 F3000.000
G1 E25.82853 F900.00000
G92 E0
G1 X119.419 Y84.164 F3000.000
G1 E0.65000 F900.00000
G1 F720
G1 X118.590 Y84.508 E0.70995
G1 X117.700 Y84.625 E0.76990
G1 X116.810 Y84.508 E0.82984
G1 X115.981 Y84.164 E0.88979
G1 X115.270 Y83.618 E0.94973
G1 X114.723 Y82.906 E1.00967
G1 X114.380 Y82.077 E1.06962
G1 X114.263 Y81.187 E1.12956
G1 X114.380 Y80.298 E1.18951
G1 X114.723 Y79.469 E1.24946
G1 X115.270 Y78.757 E1.30940
G1 X115.981 Y78.211 E1.36934
G1 X116.810 Y77.867 E1.42929
G1 X117.691 Y77.751 E1.48864
G1 X118.588 Y77.867 E1.54902
G1 X119.419 Y78.211 E1.60911
G1 X120.130 Y78.757 E1.66905
G1 X120.677 Y79.469 E1.72899
G1 X121.020 Y80.298 E1.78894
G1 X121.137 Y81.187 E1.84889
G1 X121.020 Y82.077 E1.90884
G1 X120.677 Y82.906 E1.96878
G1 X120.130 Y83.618 E2.02872
G1 X119.466 Y84.128 E2.08465
G1 X119.149 Y83.696 F3000.000
G1 F720
G1 X118.450 Y83.986 E2.13518
G1 X117.700 Y84.085 E2.18570
G1 X116.950 Y83.986 E2.23623
G1 X116.251 Y83.696 E2.28675
G1 X115.652 Y83.236 E2.33727
G1 X115.191 Y82.636 E2.38779
G1 X114.902 Y81.937 E2.43832
G1 X114.803 Y81.187 E2.48884
G1 X114.902 Y80.438 E2.53937
G1 X115.191 Y79.739 E2.58989
G1 X115.652 Y79.139 E2.64041
G1 X116.251 Y78.679 E2.69093
G1 X116.950 Y78.389 E2.74146
G1 X117.692 Y78.292 E2.79144
G1 X118.449 Y78.389 E2.84240
G1 X119.149 Y78.679 E2.89302
G1 X119.748 Y79.139 E2.94354
G1 X120.209 Y79.739 E2.99406
G1 X120.498 Y80.438 E3.04458
G1 X120.597 Y81.187 E3.09511
G1 X120.498 Y81.937 E3.14563
G1 X120.209 Y82.636 E3.19616
G1 X119.748 Y83.236 E3.24668
G1 X119.196 Y83.660 E3.29319
G1 X118.878 Y83.229 F3000.000
G1 F720
G1 X118.310 Y83.464 E3.33429
G1 X117.700 Y83.544 E3.37539
G1 X117.090 Y83.464 E3.41650
G1 X116.522 Y83.229 E3.45760
G1 X116.034 Y82.854 E3.49870
G1 X115.659 Y82.366 E3.53980
G1 X115.424 Y81.798 E3.58090
G1 X115.343 Y81.187 E3.62200
G1 X115.424 Y80.577 E3.66311
G1 X115.659 Y80.009 E3.70421
G1 X116.034 Y79.521 E3.74531
G1 X116.522 Y79.146 E3.78641
G1 X117.090 Y78.911 E3.82751
G1 X117.693 Y78.832 E3.86813
G1 X118.310 Y78.911 E3.90967
G1 X118.878 Y79.146 E3.95080
G1 X119.366 Y79.521 E3.99190
G1 X119.741 Y80.009 E4.03300
G1 X119.976 Y80.577 E4.07410
G1 X120.057 Y81.187 E4.11521
G1 X119.976 Y81.798 E4.15631
G1 X119.741 Y82.366 E4.19741
G1 X119.366 Y82.854 E4.23851
G1 X118.926 Y83.192 E4.27561
G1 X118.878 Y83.229 F3000.000
G1 E3.67561 F900.00000
G92 E0
G1 X104.671 Y83.229 F3000.000
G1 E0.65000 F900.00000
G1 F960
G1 X104.671 Y101.211 E1.85135
G1 X104.642 Y102.051 E1.90744
G1 X104.552 Y102.909 E1.96513
G1 X104.402 Y103.760 E2.02283
G1 X104.193 Y104.598 E2.08052
G1 X103.926 Y105.419 E2.13821
G1 X103.602 Y106.220 E2.19590
G1 X103.224 Y106.996 E2.25359
G1 X102.792 Y107.744 E2.31128
G1 X102.309 Y108.460 E2.36897
G1 X101.778 Y109.140 E2.42666
G1 X101.200 Y109.782 E2.48435
G1 X100.579 Y110.382 E2.54204
G1 X99.917 Y110.937 E2.59973
G1 X99.218 Y111.444 E2.65742
G1 X98.486 Y111.902 E2.71511
G1 X97.724 Y112.307 E2.77280
G1 X96.935 Y112.659 E2.83049
G1 X96.123 Y112.954 E2.88818
G1 X95.293 Y113.192 E2.94587
G1 X94.448 Y113.372 E3.00356
G1 X93.593 Y113.492 E3.06125
G1 X92.732 Y113.552 E3.11894
G1 X91.868 Y113.552 E3.17663
G1 X91.007 Y113.492 E3.23432
G1 X90.152 Y113.372 E3.29201
G1 X89.307 Y113.192 E3.34970
G1 X88.477 Y112.954 E3.40739
G1 X87.675 Y112.662 E3.46441
G1 X86.877 Y112.308 E3.52274
G1 X86.114 Y111.902 E3.58047
G1 X85.382 Y111.444 E3.63815
G1 X84.683 Y110.937 E3.69585
G1 X84.021 Y110.382 E3.75354
G1 X83.400 Y109.782 E3.81122
G1 X82.822 Y109.140 E3.86891
G1 X82.291 Y108.460 E3.92661
G1 X81.808 Y107.744 E3.98430
G1 X81.376 Y106.996 E4.04198
G1 X80.998 Y106.220 E4.09968
G1 X80.674 Y105.419 E4.15737
G1 X80.407 Y104.598 E4.21506
G1 X80.198 Y103.760 E4.27275
G1 X80.048 Y102.909 E4.33044
G1 X79.958 Y102.051 E4.38813
G1 X79.929 Y101.211 E4.44422
G1 X79.929 Y81.163 E5.78356
G1 X79.959 Y80.314 E5.84030
G1 X80.048 Y79.466 E5.89731
G1 X80.198 Y78.615 E5.95499
G1 X80.407 Y77.777 E6.01268
G1 X80.674 Y76.956 E6.07037
G1 X80.998 Y76.155 E6.12806
G1 X81.376 Y75.379 E6.18576
G1 X81.808 Y74.631 E6.24345
G1 X82.291 Y73.915 E6.30113
G1 X82.822 Y73.235 E6.35883
G1 X83.400 Y72.593 E6.41652
G1 X84.021 Y71.993 E6.47421
G1 X84.683 Y71.438 E6.53190
G1 X85.382 Y70.931 E6.58959
G1 X86.114 Y70.473 E6.64728
G1 X86.876 Y70.068 E6.70497
G1 X87.665 Y69.716 E6.76266
G1 X88.477 Y69.421 E6.82034
G1 X89.307 Y69.183 E6.87804
G1 X90.152 Y69.003 E6.93574
G1 X91.007 Y68.883 E6.99342
G1 X91.868 Y68.823 E7.05111
G1 X92.732 Y68.823 E7.10880
G1 X93.593 Y68.883 E7.16649
G1 X94.448 Y69.003 E7.22417
G1 X95.293 Y69.183 E7.28187
G1 X96.123 Y69.421 E7.33957
G1 X96.935 Y69.716 E7.39725
G1 X97.724 Y70.068 E7.45494
G1 X98.486 Y70.473 E7.51263
G1 X99.218 Y70.931 E7.57033
G1 X99.917 Y71.438 E7.62801
G1 X100.579 Y71.993 E7.68570
G1 X101.200 Y72.593 E7.74340
G1 X101.778 Y73.235 E7.80108
G1 X102.309 Y73.915 E7.85878
G1 X102.792 Y74.631 E7.91646
G1 X103.224 Y75.379 E7.97415
G1 X103.602 Y76.155 E8.03185
G1 X103.926 Y76.956 E8.08954
G1 X104.193 Y77.777 E8.14723
G1 X104.402 Y78.616 E8.20496
G1 X104.553 Y79.476 E8.26329
G1 X104.642 Y80.324 E8.32030
G1 X104.671 Y81.164 E8.37639
G1 X104.671 Y83.169 E8.51033
G1 X104.136 Y83.229 F3000.000
G1 F960
G1 X104.136 Y101.202 E9.71106
G1 X104.107 Y102.013 E9.76528
G1 X104.021 Y102.835 E9.82047
G1 X103.877 Y103.648 E9.87566
G1 X103.678 Y104.450 E9.93085
G1 X103.422 Y105.236 E9.98604
G1 X103.113 Y106.002 E10.04123
G1 X102.751 Y106.744 E10.09642
G1 X102.338 Y107.460 E10.15161
G1 X101.876 Y108.145 E10.20681
G1 X101.367 Y108.796 E10.26200
G1 X100.814 Y109.410 E10.31719
G1 X100.220 Y109.983 E10.37238
G1 X99.587 Y110.514 E10.42757
G1 X98.919 Y111.000 E10.48276
G1 X98.218 Y111.438 E10.53795
G1 X97.489 Y111.826 E10.59315
G1 X96.734 Y112.162 E10.64834
G1 X95.958 Y112.444 E10.70353
G1 X95.163 Y112.672 E10.75872
G1 X94.355 Y112.844 E10.81391
G1 X93.537 Y112.959 E10.86910
G1 X92.713 Y113.016 E10.92429
G1 X91.887 Y113.016 E10.97948
G1 X91.063 Y112.959 E11.03467
G1 X90.245 Y112.844 E11.08986
G1 X89.437 Y112.672 E11.14505
G1 X88.642 Y112.444 E11.20025
G1 X87.875 Y112.165 E11.25478
G1 X87.112 Y111.826 E11.31061
G1 X86.382 Y111.438 E11.36582
G1 X85.681 Y111.000 E11.42101
G1 X85.013 Y110.514 E11.47621
G1 X84.380 Y109.983 E11.53140
G1 X83.786 Y109.410 E11.58658
G1 X83.233 Y108.796 E11.64178
G1 X82.724 Y108.145 E11.69697
G1 X82.262 Y107.460 E11.75216
G1 X81.849 Y106.744 E11.80735
G1 X81.487 Y106.002 E11.86254
G1 X81.178 Y105.236 E11.91773
G1 X80.922 Y104.450 E11.97293
G1 X80.723 Y103.648 E12.02812
G1 X80.579 Y102.835 E12.08331
G1 X80.493 Y102.013 E12.13850
G1 X80.464 Y101.202 E12.19271
G1 X80.464 Y81.173 E13.53080
G1 X80.494 Y80.352 E13.58565
G1 X80.579 Y79.540 E13.64018
G1 X80.723 Y78.727 E13.69536
G1 X80.922 Y77.925 E13.75056
G1 X81.178 Y77.139 E13.80575
G1 X81.487 Y76.373 E13.86094
G1 X81.849 Y75.631 E13.91614
G1 X82.262 Y74.915 E13.97133
G1 X82.724 Y74.230 E14.02651
G1 X83.233 Y73.579 E14.08171
G1 X83.786 Y72.965 E14.13690
G1 X84.380 Y72.392 E14.19209
G1 X85.013 Y71.861 E14.24728
G1 X85.681 Y71.375 E14.30247
G1 X86.382 Y70.937 E14.35766
G1 X87.111 Y70.549 E14.41285
G1 X87.866 Y70.213 E14.46804
G1 X88.642 Y69.931 E14.52323
G1 X89.437 Y69.703 E14.57843
G1 X90.245 Y69.531 E14.63363
G1 X91.063 Y69.416 E14.68881
G1 X91.887 Y69.359 E14.74400
G1 X92.713 Y69.359 E14.79920
G1 X93.537 Y69.416 E14.85438
G1 X94.355 Y69.531 E14.90957
G1 X95.163 Y69.703 E14.96476
G1 X95.958 Y69.931 E15.01996
G1 X96.734 Y70.213 E15.07515
G1 X97.489 Y70.549 E15.13034
G1 X98.218 Y70.937 E15.18553
G1 X98.919 Y71.375 E15.24072
G1 X99.587 Y71.861 E15.29591
G1 X100.220 Y72.392 E15.35111
G1 X100.814 Y72.965 E15.40630
G1 X101.367 Y73.579 E15.46149
G1 X101.876 Y74.230 E15.51668
G1 X102.338 Y74.915 E15.57187
G1 X102.751 Y75.631 E15.62706
G1 X103.113 Y76.373 E15.68225
G1 X103.422 Y77.139 E15.73745
G1 X103.678 Y77.925 E15.79264
G1 X103.878 Y78.727 E15.84785
G1 X104.022 Y79.550 E15.90368
G1 X104.107 Y80.362 E15.95821
G1 X104.136 Y81.173 E16.01242
G1 X104.136 Y83.169 E16.14574
G1 X103.600 Y83.229 F3000.000
G1 F720
G1 X103.600 Y101.193 E17.34585
