; generated by Slic3r 1.3.1-dev on 2019-07-15 at 15:12:18

; Print Config Notes: 
; DMF_3D_0.3mmThin333HC30%PETGear
; 
; external perimeters extrusion width = 0.66mm (2.68mm^3/s)
; perimeters extrusion width = 0.54mm (2.85mm^3/s)
; infill extrusion width = 0.90mm (7.52mm^3/s)
; solid infill extrusion width = 0.51mm (4.01mm^3/s)
; top infill extrusion width = 0.51mm (4.01mm^3/s)

M190 S90 ; set bed temperature and wait for it to be reached
M104 S250 ; set temperature
G28 ; home all axes
; Filament gcode

M109 S250 ; set temperature and wait for it to be reached
G21 ; set units to millimeters
G90 ; use absolute coordinates
M82 ; use absolute distances for extrusion
G92 E0
G1 Z0.300 F3000.000
G1 E-0.60000 F900.00000
G92 E0
G1 X81.524 Y80.899 F3000.000
G1 E0.65000 F900.00000
G1 F1440
G1 X82.051 Y80.389 E0.69897
G1 X82.852 Y79.703 E0.76940
G1 X83.964 Y78.895 E0.86130
G1 X84.865 Y78.346 E0.93173
G1 X85.512 Y78.001 E0.98069
G1 X86.768 Y77.442 E1.07259
G1 X87.763 Y77.092 E1.14302
G1 X88.467 Y76.890 E1.19199
G1 X89.813 Y76.604 E1.28388
G1 X90.858 Y76.468 E1.35431
G1 X91.590 Y76.417 E1.40329
G1 X92.965 Y76.417 E1.49514
G1 X94.016 Y76.502 E1.56561
G1 X94.796 Y76.612 E1.61825
G1 X124.272 Y81.122 E3.61028
G1 X124.991 Y81.287 E3.65960
G1 X125.697 Y81.501 E3.70887
G1 X126.387 Y81.763 E3.75816
G1 X127.056 Y82.074 E3.80749
G1 X127.703 Y82.430 E3.85679
G1 X128.323 Y82.831 E3.90614
G1 X128.913 Y83.274 E3.95539
G1 X129.471 Y83.757 E4.00470
G1 X129.771 Y84.046 E4.03256
G1 X130.274 Y84.588 E4.08192
G1 X130.925 Y85.422 E4.15261
G1 X131.158 Y85.767 E4.18045
G1 X131.531 Y86.390 E4.22894
G1 X131.871 Y87.060 E4.27914
G1 X132.268 Y88.042 E4.34988
G1 X132.396 Y88.438 E4.37774
G1 X132.586 Y89.151 E4.42698
G1 X132.770 Y90.195 E4.49781
G1 X132.830 Y91.006 E4.55217
G1 X132.830 Y118.994 E6.42186
G1 X132.804 Y119.474 E6.45402
G1 X132.725 Y120.125 E6.49781
G1 X132.652 Y120.535 E6.52564
G1 X132.485 Y121.253 E6.57491
G1 X132.268 Y121.958 E6.62418
G1 X131.871 Y122.941 E6.69496
G1 X131.537 Y123.599 E6.74428
G1 X131.158 Y124.233 E6.79361
G1 X130.736 Y124.838 E6.84290
G1 X130.480 Y125.167 E6.87074
G1 X129.995 Y125.722 E6.92000
G1 X129.471 Y126.243 E6.96934
G1 X128.913 Y126.726 E7.01868
G1 X128.323 Y127.169 E7.06793
G1 X127.703 Y127.570 E7.11726
G1 X127.056 Y127.926 E7.16659
G1 X126.089 Y128.357 E7.23731
G1 X125.392 Y128.599 E7.28663
G1 X124.680 Y128.791 E7.33591
G1 X124.009 Y128.926 E7.38158
G1 X94.796 Y133.388 E9.35581
G1 X93.696 Y133.532 E9.42994
G1 X92.644 Y133.594 E9.50036
G1 X91.911 Y133.594 E9.54932
G1 X90.539 Y133.498 E9.64121
G1 X89.496 Y133.340 E9.71165
G1 X88.779 Y133.188 E9.76062
G1 X87.457 Y132.809 E9.85251
G1 X86.470 Y132.438 E9.92293
G1 X85.801 Y132.140 E9.97190
G1 X84.586 Y131.494 E10.06381
G1 X83.964 Y131.105 E10.11277
G1 X83.105 Y130.495 E10.18320
G1 X82.051 Y129.611 E10.27509
G1 X81.301 Y128.870 E10.34553
G1 X80.810 Y128.325 E10.39449
G1 X79.963 Y127.241 E10.48639
G1 X79.553 Y126.634 E10.53536
G1 X79.017 Y125.727 E10.60578
G1 X78.414 Y124.490 E10.69768
G1 X78.139 Y123.810 E10.74665
G1 X77.803 Y122.811 E10.81710
G1 X77.470 Y121.477 E10.90896
G1 X77.343 Y120.755 E10.95792
G1 X77.221 Y119.708 E11.02837
G1 X77.170 Y118.494 E11.10954
G1 X77.170 Y91.506 E12.91243
G1 X77.199 Y90.613 E12.97215
G1 X77.298 Y89.563 E13.04257
G1 X77.470 Y88.523 E13.11301
G1 X77.803 Y87.189 E13.20488
G1 X78.139 Y86.189 E13.27533
G1 X78.544 Y85.216 E13.34576
G1 X79.017 Y84.273 E13.41620
G1 X79.383 Y83.639 E13.46516
G1 X79.963 Y82.759 E13.53559
G1 X80.604 Y81.921 E13.60602
G1 X81.482 Y80.942 E13.69391
G1 X81.896 Y81.284 F3000.000
G1 F1440
G1 X82.423 Y80.775 E13.74288
G1 X83.196 Y80.114 E13.81081
G1 X84.248 Y79.349 E13.89771
G1 X84.870 Y78.961 E13.94668
G1 X85.763 Y78.474 E14.01462
G1 X86.951 Y77.945 E14.10152
G1 X87.910 Y77.607 E14.16945
G1 X88.615 Y77.405 E14.21842
G1 X89.887 Y77.134 E14.30532
G1 X90.896 Y77.003 E14.37326
G1 X91.627 Y76.951 E14.42223
G1 X92.927 Y76.951 E14.50910
G1 X93.941 Y77.032 E14.57707
G1 X94.715 Y77.141 E14.62928
G1 X124.160 Y81.646 E16.61924
G1 X124.844 Y81.801 E16.66606
G1 X125.514 Y82.004 E16.71283
G1 X126.169 Y82.253 E16.75963
G1 X126.805 Y82.547 E16.80646
G1 X127.419 Y82.885 E16.85326
G1 X128.008 Y83.265 E16.90011
G1 X128.569 Y83.684 E16.94688
G1 X129.099 Y84.142 E16.99369
G1 X129.399 Y84.432 E17.02154
G1 X129.876 Y84.946 E17.06840
G1 X130.481 Y85.721 E17.13411
G1 X130.714 Y86.067 E17.16194
G1 X131.067 Y86.658 E17.20794
G1 X131.390 Y87.295 E17.25563
G1 X131.758 Y88.207 E17.32138
G1 X131.887 Y88.604 E17.34924
G1 X132.066 Y89.280 E17.39599
G1 X132.237 Y90.251 E17.46182
G1 X132.294 Y91.006 E17.51244
G1 X132.294 Y118.994 E19.38214
G1 X132.272 Y119.418 E19.41056
G1 X132.197 Y120.032 E19.45183
G1 X132.125 Y120.442 E19.47966
G1 X131.965 Y121.124 E19.52645
G1 X131.758 Y121.793 E19.57322
G1 X131.389 Y122.706 E19.63901
G1 X131.073 Y123.331 E19.68583
G1 X130.714 Y123.933 E19.73266
G1 X130.314 Y124.508 E19.77945
G1 X130.058 Y124.837 E19.80729
G1 X129.597 Y125.364 E19.85406
G1 X129.099 Y125.858 E19.90090
G1 X128.569 Y126.316 E19.94774
G1 X127.772 Y126.895 E20.01348
G1 X127.173 Y127.257 E20.06028
G1 X126.550 Y127.578 E20.10711
G1 X125.894 Y127.858 E20.15473
G1 X125.244 Y128.084 E20.20071
G1 X124.844 Y128.199 E20.22854
G1 X124.160 Y128.354 E20.27536
G1 X94.715 Y132.859 E22.26532
G1 X93.659 Y132.997 E22.33652
G1 X92.644 Y133.058 E22.40445
G1 X91.911 Y133.058 E22.45341
G1 X90.613 Y132.968 E22.54031
G1 X89.608 Y132.816 E22.60825
G1 X88.891 Y132.664 E22.65722
G1 X87.640 Y132.305 E22.74412
G1 X86.688 Y131.948 E22.81205
G1 X86.018 Y131.650 E22.86102
G1 X84.870 Y131.039 E22.94793
G1 X84.248 Y130.651 E22.99689
G1 X83.420 Y130.061 E23.06482
G1 X82.423 Y129.225 E23.15173
G1 X81.699 Y128.512 E23.21966
G1 X81.208 Y127.967 E23.26863
G1 X80.407 Y126.942 E23.35553
G1 X79.998 Y126.334 E23.40450
G1 X79.481 Y125.459 E23.47243
G1 X78.910 Y124.289 E23.55933
G1 X78.636 Y123.610 E23.60831
G1 X78.312 Y122.646 E23.67625
G1 X77.997 Y121.384 E23.76312
G1 X77.870 Y120.662 E23.81208
G1 X77.754 Y119.652 E23.88004
G1 X77.706 Y118.494 E23.95746
G1 X77.706 Y91.506 E25.76035
G1 X77.734 Y90.632 E25.81883
G1 X77.831 Y89.619 E25.88675
G1 X77.997 Y88.616 E25.95469
G1 X78.312 Y87.354 E26.04157
G1 X78.636 Y86.390 E26.10952
G1 X79.026 Y85.451 E26.17746
G1 X79.481 Y84.541 E26.24539
G1 X79.847 Y83.907 E26.29436
G1 X80.407 Y83.058 E26.36229
G1 X81.026 Y82.251 E26.43023
G1 X81.854 Y81.327 E26.51312
G1 X82.268 Y81.669 F3000.000
G1 F1440
G1 X82.795 Y81.160 E26.56209
G1 X83.540 Y80.524 E26.62753
G1 X84.532 Y79.803 E26.70944
G1 X85.154 Y79.415 E26.75840
G1 X86.015 Y78.947 E26.82384
G1 X87.135 Y78.449 E26.90576
G1 X88.058 Y78.122 E26.97119
G1 X88.763 Y77.920 E27.02016
G1 X89.962 Y77.665 E27.10207
G1 X90.933 Y77.537 E27.16751
G1 X91.664 Y77.486 E27.21648
G1 X92.890 Y77.486 E27.29836
G1 X93.867 Y77.563 E27.36383
G1 X94.634 Y77.671 E27.41561
G1 X124.049 Y82.170 E29.40350
G1 X124.696 Y82.316 E29.44783
G1 X125.331 Y82.507 E29.49210
G1 X125.951 Y82.742 E29.53641
G1 X126.554 Y83.020 E29.58074
G1 X127.135 Y83.339 E29.62504
G1 X127.693 Y83.698 E29.66939
G1 X128.224 Y84.094 E29.71366
G1 X128.727 Y84.527 E29.75798
G1 X129.027 Y84.817 E29.78583
G1 X129.477 Y85.304 E29.83018
G1 X130.037 Y86.021 E29.89091
G1 X130.270 Y86.366 E29.91874
G1 X130.603 Y86.926 E29.96226
G1 X130.908 Y87.529 E30.00743
G1 X131.249 Y88.373 E30.06819
G1 X131.378 Y88.769 E30.09604
G1 X131.546 Y89.410 E30.14031
G1 X131.704 Y90.307 E30.20114
G1 X131.758 Y91.006 E30.24802
G1 X131.758 Y118.994 E32.11771
G1 X131.739 Y119.363 E32.14240
G1 X131.670 Y119.939 E32.18116
G1 X131.597 Y120.349 E32.20900
G1 X131.445 Y120.994 E32.25328
G1 X131.249 Y121.627 E32.29757
G1 X130.908 Y122.471 E32.35836
G1 X130.609 Y123.064 E32.40268
G1 X130.270 Y123.634 E32.44701
G1 X129.892 Y124.179 E32.49131
G1 X129.636 Y124.507 E32.51915
G1 X129.199 Y125.005 E32.56342
G1 X128.727 Y125.473 E32.60777
G1 X128.224 Y125.906 E32.65210
G1 X127.489 Y126.440 E32.71286
G1 X126.922 Y126.784 E32.75716
G1 X126.332 Y127.088 E32.80149
G1 X125.711 Y127.354 E32.84661
G1 X125.096 Y127.569 E32.89010
G1 X124.696 Y127.684 E32.91793
G1 X124.049 Y127.830 E32.96225
G1 X94.634 Y132.329 E34.95015
G1 X93.621 Y132.463 E35.01842
G1 X92.644 Y132.523 E35.08385
G1 X91.911 Y132.523 E35.13281
G1 X90.688 Y132.437 E35.21471
G1 X89.719 Y132.292 E35.28016
G1 X89.002 Y132.140 E35.32913
G1 X87.823 Y131.802 E35.41104
G1 X86.906 Y131.459 E35.47647
G1 X86.236 Y131.161 E35.52544
G1 X85.154 Y130.585 E35.60736
G1 X84.532 Y130.197 E35.65632
G1 X83.735 Y129.628 E35.72175
G1 X82.795 Y128.840 E35.80367
G1 X82.268 Y128.331 E35.85263
G1 X81.606 Y127.609 E35.91807
G1 X80.851 Y126.642 E35.99998
G1 X80.442 Y126.035 E36.04895
G1 X79.944 Y125.191 E36.11438
G1 X79.407 Y124.089 E36.19630
G1 X79.132 Y123.409 E36.24527
G1 X78.821 Y122.480 E36.31072
G1 X78.525 Y121.291 E36.39260
G1 X78.398 Y120.569 E36.44156
G1 X78.287 Y119.596 E36.50701
G1 X78.242 Y118.494 E36.58069
G1 X78.242 Y91.506 E38.38358
G1 X78.269 Y90.650 E38.44081
G1 X78.363 Y89.675 E38.50624
G1 X78.525 Y88.709 E38.57168
G1 X78.821 Y87.520 E38.65357
G1 X79.132 Y86.591 E38.71902
G1 X79.507 Y85.686 E38.78446
G1 X79.944 Y84.809 E38.84990
G1 X80.311 Y84.174 E38.89887
G1 X80.851 Y83.358 E38.96430
G1 X81.448 Y82.580 E39.02974
G1 X82.226 Y81.712 E39.10765
G1 E38.50765 F900.00000
G92 E0
G1 X93.585 Y127.801 F3000.000
G1 E0.65000 F900.00000
G1 F720
G1 X93.202 Y128.095 E0.68224
G1 X92.756 Y128.279 E0.71448
G1 X92.277 Y128.342 E0.74673
G1 X91.799 Y128.279 E0.77897
G1 X91.353 Y128.095 E0.81121
G1 X90.970 Y127.801 E0.84345
G1 X90.676 Y127.418 E0.87570
G1 X90.492 Y126.972 E0.90794
G1 X90.429 Y126.494 E0.94018
G1 X90.492 Y126.015 E0.97242
G1 X90.676 Y125.569 E1.00467
G1 X90.970 Y125.186 E1.03691
G1 X91.353 Y124.892 E1.06915
G1 X91.799 Y124.708 E1.10139
G1 X92.264 Y124.647 E1.13275
G1 X92.755 Y124.707 E1.16577
G1 X93.202 Y124.892 E1.19809
G1 X93.585 Y125.186 E1.23034
G1 X93.878 Y125.569 E1.26258
G1 X94.063 Y126.015 E1.29482
G1 X94.126 Y126.494 E1.32706
G1 X94.063 Y126.972 E1.35931
G1 X93.878 Y127.418 E1.39155
G1 X93.621 Y127.753 E1.41978
G1 X93.585 Y127.801 F3000.000
G1 E0.81978 F900.00000
G92 E0
G1 X85.585 Y119.801 F3000.000
G1 E0.65000 F900.00000
G1 F720
G1 X85.202 Y120.095 E0.68224
G1 X84.756 Y120.279 E0.71448
G1 X84.277 Y120.342 E0.74673
G1 X83.799 Y120.279 E0.77897
G1 X83.365 Y120.100 E0.81033
G1 X82.971 Y119.802 E0.84335
G1 X82.676 Y119.418 E0.87567
G1 X82.492 Y118.972 E0.90791
G1 X82.429 Y118.494 E0.94015
G1 X82.492 Y118.015 E0.97240
G1 X82.676 Y117.569 E1.00464
G1 X82.970 Y117.186 E1.03688
G1 X83.353 Y116.892 E1.06912
G1 X83.799 Y116.708 E1.10137
G1 X84.264 Y116.647 E1.13272
G1 X84.755 Y116.707 E1.16575
G1 X85.202 Y116.892 E1.19807
G1 X85.585 Y117.186 E1.23031
G1 X85.878 Y117.569 E1.26255
G1 X86.063 Y118.015 E1.29479
G1 X86.126 Y118.494 E1.32704
G1 X86.063 Y118.972 E1.35928
G1 X85.878 Y119.418 E1.39152
G1 X85.621 Y119.753 E1.41975
G1 X85.585 Y119.801 F3000.000
G1 X87.543 Y119.484 F3000.000
G1 F720
G1 X87.451 Y118.822 E1.46444
G1 X87.451 Y118.171 E1.50794
G1 X87.490 Y117.806 E1.53243
G1 X87.624 Y117.174 E1.57556
G1 X87.733 Y116.840 E1.59909
G1 X87.865 Y116.513 E1.62262
G1 X88.175 Y115.930 E1.66673
G1 X88.563 Y115.396 E1.71084
G1 X88.808 Y115.123 E1.73534
G1 X89.299 Y114.682 E1.77944
G1 X89.838 Y114.317 E1.82293
G1 X90.169 Y114.140 E1.84801
G1 X90.769 Y113.898 E1.89120
G1 X91.121 Y113.797 E1.91570
G1 X91.757 Y113.685 E1.95883
G1 X92.123 Y113.659 E1.98333
G1 X92.768 Y113.682 E2.02646
G1 X93.132 Y113.733 E2.05097
G1 X93.772 Y113.893 E2.09508
G1 X94.384 Y114.140 E2.13919
G1 X94.708 Y114.312 E2.16368
G1 X95.236 Y114.668 E2.20619
G1 X95.524 Y114.908 E2.23127
G1 X95.973 Y115.373 E2.27446
G1 X96.199 Y115.663 E2.29896
G1 X96.541 Y116.210 E2.34209
G1 X96.702 Y116.540 E2.36660
G1 X96.923 Y117.146 E2.40973
G1 X97.011 Y117.503 E2.43427
G1 X97.104 Y118.165 E2.47896
G1 X97.103 Y118.817 E2.52246
G1 X97.065 Y119.181 E2.54695
G1 X96.931 Y119.813 E2.59008
G1 X96.817 Y120.162 E2.61459
G1 X96.555 Y120.751 E2.65772
G1 X96.371 Y121.069 E2.68222
G1 X95.992 Y121.591 E2.72535
G1 X95.746 Y121.864 E2.74986
G1 X95.267 Y122.296 E2.79299
G1 X94.970 Y122.512 E2.81749
G1 X94.398 Y122.842 E2.86160
G1 X93.786 Y123.089 E2.90571
G1 X93.433 Y123.190 E2.93021
G1 X92.797 Y123.302 E2.97335
G1 X92.431 Y123.328 E2.99785
G1 X91.786 Y123.305 E3.04098
G1 X91.423 Y123.254 E3.06548
G1 X90.782 Y123.094 E3.10959
G1 X90.170 Y122.847 E3.15370
G1 X89.846 Y122.675 E3.17821
G1 X89.311 Y122.314 E3.22134
G1 X89.030 Y122.078 E3.24584
G1 X88.582 Y121.614 E3.28898
G1 X88.356 Y121.325 E3.31348
G1 X88.014 Y120.777 E3.35661
G1 X87.853 Y120.447 E3.38111
G1 X87.632 Y119.841 E3.42425
G1 X87.558 Y119.542 E3.44478
G1 X88.070 Y119.382 F3000.000
G1 F720
G1 X87.987 Y118.785 E3.48508
G1 X87.987 Y118.199 E3.52424
G1 X88.020 Y117.890 E3.54498
G1 X88.142 Y117.313 E3.58436
G1 X88.236 Y117.023 E3.60477
G1 X88.351 Y116.740 E3.62517
G1 X88.630 Y116.215 E3.66490
G1 X88.980 Y115.733 E3.70463
G1 X89.188 Y115.503 E3.72539
G1 X89.629 Y115.105 E3.76511
G1 X90.115 Y114.777 E3.80427
G1 X90.397 Y114.626 E3.82558
G1 X90.943 Y114.405 E3.86499
G1 X91.242 Y114.320 E3.88574
G1 X91.823 Y114.217 E3.92512
G1 X92.132 Y114.196 E3.94587
G1 X92.722 Y114.216 E3.98525
G1 X93.029 Y114.259 E4.00601
G1 X93.606 Y114.403 E4.04574
G1 X94.158 Y114.626 E4.08547
G1 X94.432 Y114.772 E4.10622
G1 X94.914 Y115.096 E4.14502
G1 X95.158 Y115.301 E4.16634
G1 X95.568 Y115.725 E4.20574
G1 X95.759 Y115.970 E4.22649
G1 X96.072 Y116.470 E4.26587
G1 X96.208 Y116.749 E4.28662
G1 X96.410 Y117.303 E4.32601
G1 X96.485 Y117.605 E4.34677
G1 X96.568 Y118.202 E4.38707
G1 X96.568 Y118.788 E4.42623
G1 X96.535 Y119.097 E4.44697
G1 X96.413 Y119.674 E4.48636
G1 X96.317 Y119.969 E4.50711
G1 X96.077 Y120.508 E4.54649
G1 X95.921 Y120.777 E4.56724
G1 X95.575 Y121.254 E4.60662
G1 X95.367 Y121.485 E4.62738
G1 X94.929 Y121.879 E4.66676
G1 X94.678 Y122.062 E4.68751
G1 X94.163 Y122.359 E4.72724
G1 X93.611 Y122.582 E4.76698
G1 X93.313 Y122.667 E4.78773
G1 X92.732 Y122.770 E4.82711
G1 X92.422 Y122.792 E4.84786
G1 X91.833 Y122.771 E4.88724
G1 X91.525 Y122.728 E4.90800
G1 X90.948 Y122.584 E4.94773
G1 X90.397 Y122.361 E4.98746
G1 X90.123 Y122.215 E5.00821
G1 X89.634 Y121.886 E5.04760
G1 X89.396 Y121.686 E5.06835
G1 X88.986 Y121.262 E5.10773
G1 X88.795 Y121.017 E5.12848
G1 X88.483 Y120.517 E5.16786
G1 X88.347 Y120.238 E5.18862
G1 X88.145 Y119.684 E5.22800
G1 X88.084 Y119.441 E5.24476
G1 X88.070 Y119.382 F3000.000
G1 X86.979 Y117.427 F3000.000
G1 F720
G1 X86.814 Y117.029 E5.27352
G1 X86.349 Y116.422 E5.32460
G1 X85.742 Y115.957 E5.37569
G1 X85.031 Y115.662 E5.42712
G1 X84.260 Y115.567 E5.47899
G1 X83.609 Y115.652 E5.52288
G1 X83.700 Y115.372 E5.54260
G1 X83.939 Y114.781 E5.58516
G1 X84.218 Y114.208 E5.62773
G1 X84.536 Y113.657 E5.67029
G1 X84.893 Y113.128 E5.71285
G1 X85.285 Y112.626 E5.75542
G1 X85.711 Y112.153 E5.79798
G1 X86.170 Y111.710 E5.84054
G1 X86.658 Y111.301 E5.88311
G1 X87.173 Y110.926 E5.92567
G1 X87.713 Y110.589 E5.96823
G1 X88.276 Y110.289 E6.01079
G1 X88.858 Y110.030 E6.05336
G1 X89.437 Y109.820 E6.09451
G1 X89.348 Y110.494 E6.13992
G1 X89.448 Y111.252 E6.19101
G1 X89.734 Y111.942 E6.24093
G1 X90.202 Y112.562 E6.29280
G1 X90.813 Y113.030 E6.34424
G1 X90.918 Y113.074 E6.35186
G1 X90.905 Y113.302 E6.36710
G1 X90.594 Y113.391 E6.38871
G1 X89.942 Y113.654 E6.43569
G1 X89.562 Y113.858 E6.46453
G1 X88.968 Y114.259 E6.51236
G1 X88.429 Y114.744 E6.56083
G1 X88.146 Y115.058 E6.58908
G1 X87.719 Y115.645 E6.63757
G1 X87.379 Y116.286 E6.68605
G1 X87.229 Y116.656 E6.71271
G1 X86.997 Y117.370 E6.76282
G1 E6.16282 F900.00000
G92 E0
G1 X112.969 Y116.622 F3000.000
G1 E0.65000 F900.00000
G1 F960
G1 X112.969 Y120.365 E0.90002
G1 X117.976 Y120.365 E1.23457
G1 X118.217 Y120.838 E1.27002
G1 X118.485 Y121.249 E1.30280
G1 X118.700 Y121.515 E1.32568
G1 X119.125 Y121.965 E1.36704
G1 X119.522 Y122.286 E1.40111
G1 X119.809 Y122.473 E1.42399
G1 X120.369 Y122.779 E1.46665
G1 X120.715 Y122.900 E1.49110
G1 X120.676 Y123.163 E1.50883
G1 X99.545 Y124.055 E2.92170
G1 X98.843 Y124.834 E2.99178
G1 X98.385 Y125.277 E3.03434
G1 X97.897 Y125.686 E3.07690
G1 X97.382 Y126.061 E3.11947
G1 X96.841 Y126.399 E3.16203
G1 X96.279 Y126.698 E3.20459
