; generated by Slic3r 1.2.9 on 2017-08-07 at 16:43:55

; DMF_3D_0.3mmThin222R25%

; external perimeters extrusion width = 0.60mm
; perimeters extrusion width = 0.54mm
; infill extrusion width = 0.90mm
; solid infill extrusion width = 0.51mm
; top infill extrusion width = 0.51mm

M107
M190 S70 ; set bed temperature
M104 S220 ; set temperature
G92.1 ; clear offsets
G28 ; home all axes
M109 S220 ; wait for temperature to be reached
G21 ; set units to millimeters
G90 ; use absolute coordinates
M82 ; use absolute distances for extrusion
G92 E0
G1 Z0.300 F3000.000
G1 E-0.60000 F900.00000
G92 E0
G1 X76.845 Y87.045 F3000.000
G1 E0.65000 F900.00000
G1 X92.370 Y74.695 E1.97529 F1920.000
G1 X94.078 Y73.842 E2.10284
G1 X95.237 Y73.693 E2.18096
G1 X104.762 Y73.693 E2.81728
G1 X106.630 Y74.089 E2.94483
G1 X107.630 Y74.695 E3.02295 F1920.000
G1 X123.155 Y87.045 E4.34824
G1 X124.371 Y88.517 E4.47579
G1 X124.894 Y90.650 E4.62250
G1 X124.894 Y121.700 E6.69681
G1 X124.499 Y123.568 E6.82436
G1 X123.380 Y125.115 E6.95192
G1 X121.730 Y126.075 E7.07947
G1 X120.287 Y126.307 E7.17704
G1 X79.713 Y126.307 E9.88767
G1 X77.845 Y125.911 E10.01522
G1 X76.298 Y124.792 E10.14277
G1 X75.337 Y123.142 E10.27033
G1 X75.106 Y121.700 E10.36789
G1 X75.106 Y90.650 E12.44220
G1 X75.501 Y88.782 E12.56976
G1 X76.808 Y87.092 E12.71246
G1 X77.178 Y87.464 F3000.000
G1 X92.703 Y75.114 E14.03775 F1920.000
G1 X94.318 Y74.334 E14.15757
G1 X95.237 Y74.229 E14.21939
G1 X104.762 Y74.229 E14.85571
G1 X106.512 Y74.624 E14.97553
G1 X107.297 Y75.114 E15.03735 F1920.000
G1 X122.822 Y87.464 E16.36264
G1 X123.945 Y88.862 E16.48247
G1 X124.359 Y90.650 E16.60505
G1 X124.359 Y121.700 E18.67936
G1 X123.964 Y123.450 E18.79918
G1 X122.855 Y124.860 E18.91900
G1 X121.248 Y125.656 E19.03882
G1 X120.287 Y125.771 E19.10346
G1 X79.713 Y125.771 E21.81409
G1 X77.963 Y125.376 E21.93391
G1 X76.553 Y124.268 E22.05373
G1 X75.756 Y122.661 E22.17355
G1 X75.641 Y121.700 E22.23819
G1 X75.641 Y90.650 E24.31250
G1 X76.036 Y88.900 E24.43232
G1 X77.141 Y87.511 E24.55090
G1 X77.511 Y87.883 F3000.000
G1 X93.036 Y75.533 E25.87618 F1920.000
G1 X95.237 Y74.764 E26.03194
G1 X104.762 Y74.764 E26.66826
G1 X106.964 Y75.533 E26.82401
G1 X122.489 Y87.883 E28.14930 F1920.000
G1 X123.513 Y89.202 E28.26086
G1 X123.823 Y90.650 E28.35980
G1 X123.823 Y121.700 E30.43410
G1 X123.429 Y123.323 E30.54566
G1 X122.334 Y124.583 E30.65722
G1 X120.287 Y125.236 E30.80069
G1 X79.713 Y125.236 E33.51132
G1 X78.090 Y124.841 E33.62288
G1 X76.829 Y123.746 E33.73444
G1 X76.177 Y121.700 E33.87791
G1 X76.177 Y90.650 E35.95222
G1 X76.571 Y89.027 E36.06378
G1 X77.473 Y87.929 E36.15871
G1 E35.55871 F900.00000
G92 E0
G1 X103.005 Y107.592 F3000.000
G1 E0.65000 F900.00000
G1 X102.590 Y107.911 E0.68496 F720.000
G1 X102.106 Y108.111 E0.71991
G1 X101.588 Y108.179 E0.75487
G1 X101.069 Y108.111 E0.78982
G1 X100.585 Y107.911 E0.82478
G1 X100.170 Y107.592 E0.85974
G1 X99.852 Y107.177 E0.89469
G1 X99.651 Y106.694 E0.92965
G1 X99.583 Y106.175 E0.96460
G1 X99.651 Y105.656 E0.99956
G1 X99.852 Y105.173 E1.03452
G1 X100.170 Y104.758 E1.06947
G1 X100.585 Y104.439 E1.10443
G1 X101.069 Y104.239 E1.13938
G1 X101.580 Y104.172 E1.17383 F720.000
G1 X102.106 Y104.239 E1.20924
G1 X102.590 Y104.439 E1.24424
G1 X103.005 Y104.758 E1.27919
G1 X103.323 Y105.173 E1.31415
G1 X103.524 Y105.656 E1.34910
G1 X103.592 Y106.175 E1.38406
G1 X103.524 Y106.694 E1.41902
G1 X103.323 Y107.177 E1.45397
G1 X103.041 Y107.545 E1.48492
G1 X103.091 Y107.983 F3000.000
G1 X100.134 Y108.514 F3000.000
G1 X96.073 Y108.514 E1.75619 F720.000
G1 X96.073 Y103.836 E2.06876
G1 X100.134 Y103.836 E2.34003
G1 X100.208 Y104.054 E2.35541
G1 X99.788 Y104.376 E2.39075
G1 X99.384 Y104.903 E2.43512
G1 X99.130 Y105.516 E2.47950
G1 X99.043 Y106.175 E2.52388
G1 X99.130 Y106.834 E2.56826
G1 X99.384 Y107.447 E2.61263
G1 X99.788 Y107.974 E2.65701
G1 X100.208 Y108.296 E2.69235
G1 X100.153 Y108.458 E2.70372
G1 E2.10372 F900.00000
G92 E0
G1 X102.967 Y104.054 F3000.000
G1 E0.65000 F900.00000
G1 X103.041 Y103.836 E0.66538 F720.000
G1 X103.927 Y103.836 E0.72455
G1 X103.927 Y104.721 E0.78372
G1 X103.709 Y104.795 E0.79910
G1 X103.387 Y104.376 E0.83444
G1 X103.015 Y104.090 E0.86576
G1 X103.927 Y107.629 F3000.000
G1 X103.927 Y108.514 E0.92493 F720.000
G1 X103.041 Y108.514 E0.98410
G1 X102.967 Y108.296 E0.99948
G1 X103.387 Y107.974 E1.03482
G1 X103.709 Y107.555 E1.07015
G1 X103.870 Y107.609 E1.08153
G1 X104.462 Y109.050 F3000.000
G1 X95.537 Y109.050 E1.67777 F720.000
G1 X95.537 Y103.300 E2.06190
G1 X104.462 Y103.300 E2.65814
G1 X104.462 Y108.990 E3.03826
G1 X104.116 Y108.850 F3000.000
G1 X103.885 Y107.332 F3000.000
G1 X103.989 Y106.791 E3.11629 F960.000
G1 X104.026 Y106.215 E3.19805
G1 X104.026 Y106.135 F3000.000
G1 X103.989 Y105.559 E3.27981 F960.000
G1 X103.885 Y105.018 E3.35784
G1 X102.744 Y103.878 F3000.000
G1 X102.201 Y103.774 E3.43615 F960.000
G1 X101.617 Y103.736 E3.51904
G1 X101.548 Y103.736 F3000.000
G1 X100.972 Y103.774 E3.60078 F960.000
G1 X100.431 Y103.878 E3.67882
G1 X99.353 Y104.446 F3000.000
G1 X99.091 Y104.184 E3.70485 F1920.000
G1 X99.035 Y104.926 E3.75719
G1 X98.293 Y104.184 E3.83100
G1 X97.495 Y104.184 E3.88717
G1 X98.801 Y105.490 E4.01715
G1 X98.703 Y106.190 E4.06693
G1 X96.697 Y104.184 E4.26662
G1 X96.422 Y104.706 E4.30820
G1 X98.800 Y107.085 E4.54497
G1 X99.083 Y108.166 E4.62361
G1 X96.422 Y105.505 E4.88853
G1 X96.422 Y106.303 E4.94471
G1 X98.285 Y108.166 E5.13019
G1 X97.487 Y108.166 E5.18636
G1 X96.422 Y107.101 E5.29240
G1 X96.422 Y107.899 E5.34858
G1 X96.689 Y108.166 E5.37518
G1 X100.431 Y108.472 F3000.000
G1 X100.972 Y108.576 E5.45321 F960.000
G1 X101.548 Y108.614 E5.53497
G1 X101.627 Y108.614 F3000.000
G1 X102.203 Y108.576 E5.61672 F960.000
G1 X102.744 Y108.472 E5.69475
G1 E5.09475 F900.00000
G92 E0
G1 X103.005 Y95.242 F3000.000
G1 E0.65000 F900.00000
G1 X102.590 Y95.561 E0.68496 F720.000
G1 X102.106 Y95.761 E0.71991
G1 X101.588 Y95.829 E0.75487
G1 X101.069 Y95.761 E0.78982
G1 X100.585 Y95.561 E0.82478
G1 X100.170 Y95.242 E0.85974
G1 X99.852 Y94.827 E0.89469
G1 X99.651 Y94.344 E0.92965
G1 X99.583 Y93.825 E0.96460
G1 X99.651 Y93.306 E0.99956
G1 X99.852 Y92.823 E1.03452
G1 X100.170 Y92.408 E1.06947
G1 X100.585 Y92.089 E1.10443
G1 X101.069 Y91.889 E1.13938
G1 X101.580 Y91.822 E1.17383 F720.000
G1 X102.106 Y91.889 E1.20924
G1 X102.590 Y92.089 E1.24424
G1 X103.005 Y92.408 E1.27919
G1 X103.323 Y92.823 E1.31415
G1 X103.524 Y93.306 E1.34910
G1 X103.592 Y93.825 E1.38406
G1 X103.524 Y94.344 E1.41902
G1 X103.323 Y94.827 E1.45397
G1 X103.041 Y95.195 E1.48492
G1 X103.091 Y95.633 F3000.000
G1 X100.134 Y96.164 F3000.000
G1 X96.073 Y96.164 E1.75619 F720.000
G1 X96.073 Y91.486 E2.06876
G1 X100.134 Y91.486 E2.34003
G1 X100.208 Y91.704 E2.35541
G1 X99.788 Y92.026 E2.39075
G1 X99.384 Y92.553 E2.43512
G1 X99.130 Y93.166 E2.47950
G1 X99.043 Y93.825 E2.52388
G1 X99.130 Y94.484 E2.56826
G1 X99.384 Y95.097 E2.61263
G1 X99.788 Y95.624 E2.65701
G1 X100.208 Y95.946 E2.69235
G1 X100.153 Y96.108 E2.70372
G1 E2.10372 F900.00000
G92 E0
G1 X102.967 Y91.704 F3000.000
G1 E0.65000 F900.00000
G1 X103.041 Y91.486 E0.66538 F720.000
G1 X103.927 Y91.486 E0.72455
G1 X103.927 Y92.371 E0.78372
G1 X103.709 Y92.445 E0.79910
G1 X103.387 Y92.026 E0.83444
G1 X103.015 Y91.740 E0.86576
G1 X103.927 Y95.279 F3000.000
G1 X103.927 Y96.164 E0.92493 F720.000
G1 X103.041 Y96.164 E0.98410
G1 X102.967 Y95.946 E0.99948
G1 X103.387 Y95.624 E1.03482
G1 X103.709 Y95.205 E1.07015
G1 X103.870 Y95.259 E1.08153
G1 X104.462 Y96.700 F3000.000
G1 X95.537 Y96.700 E1.67777 F720.000
G1 X95.537 Y90.950 E2.06190
G1 X104.462 Y90.950 E2.65814
G1 X104.462 Y96.640 E3.03826
G1 X104.116 Y96.500 F3000.000
G1 X103.885 Y94.982 F3000.000
G1 X103.989 Y94.441 E3.11629 F960.000
G1 X104.026 Y93.865 E3.19805
G1 X104.026 Y93.785 F3000.000
G1 X103.989 Y93.209 E3.27981 F960.000
G1 X103.885 Y92.668 E3.35784
G1 X102.744 Y91.528 F3000.000
G1 X102.201 Y91.423 E3.43615 F960.000
G1 X101.617 Y91.386 E3.51904
G1 X101.548 Y91.386 F3000.000
G1 X100.972 Y91.424 E3.60078 F960.000
G1 X100.431 Y91.528 E3.67882
G1 X99.353 Y92.096 F3000.000
G1 X99.091 Y91.834 E3.70485 F1920.000
G1 X99.035 Y92.576 E3.75719
G1 X98.293 Y91.834 E3.83100
G1 X97.495 Y91.834 E3.88717
G1 X98.801 Y93.140 E4.01715
G1 X98.703 Y93.840 E4.06693
G1 X96.697 Y91.834 E4.26662
G1 X96.422 Y92.356 E4.30820
G1 X98.800 Y94.735 E4.54497
G1 X99.083 Y95.816 E4.62361
G1 X96.422 Y93.154 E4.88853
G1 X96.422 Y93.953 E4.94471
G1 X98.285 Y95.816 E5.13019
G1 X97.487 Y95.816 E5.18636
G1 X96.422 Y94.751 E5.29240
G1 X96.422 Y95.549 E5.34858
G1 X96.689 Y95.816 E5.37518
G1 X100.431 Y96.122 F3000.000
G1 X100.972 Y96.226 E5.45321 F960.000
G1 X101.548 Y96.264 E5.53497
G1 X101.627 Y96.264 F3000.000
G1 X102.203 Y96.226 E5.61672 F960.000
G1 X102.744 Y96.122 E5.69475
G1 E5.09475 F900.00000
G92 E0
G1 X103.005 Y82.892 F3000.000
G1 E0.65000 F900.00000
G1 X102.590 Y83.211 E0.68496 F720.000
G1 X102.106 Y83.411 E0.71991
G1 X101.588 Y83.479 E0.75487
G1 X101.069 Y83.411 E0.78982
G1 X100.585 Y83.211 E0.82478
G1 X100.170 Y82.892 E0.85974
G1 X99.852 Y82.477 E0.89469
G1 X99.651 Y81.994 E0.92965
G1 X99.583 Y81.475 E0.96460
G1 X99.651 Y80.956 E0.99956
G1 X99.852 Y80.473 E1.03452
G1 X100.170 Y80.058 E1.06947
G1 X100.585 Y79.739 E1.10443
G1 X101.069 Y79.539 E1.13938
G1 X101.580 Y79.472 E1.17383 F720.000
G1 X102.106 Y79.539 E1.20924
G1 X102.590 Y79.739 E1.24424
G1 X103.005 Y80.058 E1.27919
G1 X103.323 Y80.473 E1.31415
G1 X103.524 Y80.956 E1.34910
G1 X103.592 Y81.475 E1.38406
G1 X103.524 Y81.994 E1.41902
G1 X103.323 Y82.477 E1.45397
G1 X103.041 Y82.845 E1.48492
G1 X103.091 Y83.283 F3000.000
G1 X100.134 Y83.814 F3000.000
G1 X96.073 Y83.814 E1.75619 F720.000
G1 X96.073 Y79.136 E2.06876
G1 X100.134 Y79.136 E2.34003
G1 X100.208 Y79.354 E2.35541
G1 X99.788 Y79.676 E2.39075
G1 X99.384 Y80.203 E2.43512
G1 X99.130 Y80.816 E2.47950
G1 X99.043 Y81.475 E2.52388
G1 X99.130 Y82.134 E2.56826
G1 X99.384 Y82.747 E2.61263
G1 X99.788 Y83.274 E2.65701
G1 X100.208 Y83.596 E2.69235
G1 X100.153 Y83.758 E2.70372
G1 E2.10372 F900.00000
G92 E0
G1 X102.967 Y79.354 F3000.000
G1 E0.65000 F900.00000
G1 X103.041 Y79.136 E0.66538 F720.000
G1 X103.927 Y79.136 E0.72455
G1 X103.927 Y80.021 E0.78372
G1 X103.709 Y80.095 E0.79910
G1 X103.387 Y79.676 E0.83444
G1 X103.015 Y79.390 E0.86576
G1 X103.927 Y82.929 F3000.000
G1 X103.927 Y83.814 E0.92493 F720.000
G1 X103.041 Y83.814 E0.98410
G1 X102.967 Y83.596 E0.99948
G1 X103.387 Y83.274 E1.03482
G1 X103.709 Y82.855 E1.07015
G1 X103.870 Y82.909 E1.08153
G1 X104.462 Y84.350 F3000.000
G1 X95.537 Y84.350 E1.67777 F720.000
G1 X95.537 Y78.600 E2.06190
G1 X104.462 Y78.600 E2.65814
G1 X104.462 Y84.290 E3.03826
G1 X104.116 Y84.150 F3000.000
G1 X103.885 Y82.632 F3000.000
G1 X103.989 Y82.091 E3.11629 F960.000
G1 X104.026 Y81.515 E3.19805
G1 X104.026 Y81.435 F3000.000
G1 X103.989 Y80.859 E3.27981 F960.000
G1 X103.885 Y80.318 E3.35784
G1 X102.744 Y79.178 F3000.000
G1 X102.201 Y79.073 E3.43615 F960.000
G1 X101.617 Y79.036 E3.51904
G1 X101.548 Y79.036 F3000.000
G1 X100.972 Y79.074 E3.60078 F960.000
G1 X100.431 Y79.178 E3.67882
G1 X99.353 Y79.746 F3000.000
G1 X99.091 Y79.484 E3.70485 F1920.000
G1 X99.035 Y80.226 E3.75719
G1 X98.293 Y79.484 E3.83100
G1 X97.495 Y79.484 E3.88717
G1 X98.801 Y80.790 E4.01715
G1 X98.703 Y81.490 E4.06693
G1 X96.697 Y79.484 E4.26662
G1 X96.422 Y80.006 E4.30820
G1 X98.800 Y82.385 E4.54497
G1 X99.083 Y83.466 E4.62361
G1 X96.422 Y80.804 E4.88853
G1 X96.422 Y81.603 E4.94471
G1 X98.285 Y83.466 E5.13019
G1 X97.487 Y83.466 E5.18636
G1 X96.422 Y82.401 E5.29240
G1 X96.422 Y83.199 E5.34858
G1 X96.689 Y83.466 E5.37518
G1 X100.431 Y83.772 F3000.000
G1 X100.972 Y83.876 E5.45321 F960.000
G1 X101.548 Y83.914 E5.53497
G1 X101.627 Y83.914 F3000.000
G1 X102.203 Y83.876 E5.61672 F960.000
G1 X102.744 Y83.772 E5.69475
G1 E5.09475 F900.00000
G92 E0
G1 X118.530 Y95.242 F3000.000
G1 E0.65000 F900.00000
G1 X118.115 Y95.561 E0.68496 F720.000
G1 X117.631 Y95.761 E0.71991
G1 X117.112 Y95.829 E0.75487
G1 X116.594 Y95.761 E0.78982
G1 X116.110 Y95.561 E0.82478
G1 X115.695 Y95.242 E0.85974
G1 X115.377 Y94.827 E0.89469
G1 X115.176 Y94.344 E0.92965
G1 X115.108 Y93.825 E0.96460
G1 X115.176 Y93.306 E0.99956
G1 X115.377 Y92.823 E1.03452
G1 X115.695 Y92.408 E1.06947
G1 X116.110 Y92.089 E1.10443
G1 X116.594 Y91.889 E1.13938
G1 X117.105 Y91.822 E1.17383 F720.000
G1 X117.631 Y91.889 E1.20924
G1 X118.115 Y92.089 E1.24424
G1 X118.530 Y92.408 E1.27919
G1 X118.848 Y92.823 E1.31415
G1 X119.049 Y93.306 E1.34910
G1 X119.117 Y93.825 E1.38406
G1 X119.049 Y94.344 E1.41902
G1 X118.848 Y94.827 E1.45397
G1 X118.566 Y95.195 E1.48492
G1 X118.616 Y95.633 F3000.000
G1 X115.659 Y96.164 F3000.000
G1 X111.598 Y96.164 E1.75619 F720.000
G1 X111.598 Y91.486 E2.06876
G1 X115.659 Y91.486 E2.34003
G1 X115.733 Y91.704 E2.35541
G1 X115.313 Y92.026 E2.39075
G1 X114.909 Y92.553 E2.43512
G1 X114.655 Y93.166 E2.47950
G1 X114.568 Y93.825 E2.52388
G1 X114.655 Y94.484 E2.56826
G1 X114.909 Y95.097 E2.61263
G1 X115.313 Y95.624 E2.65701
G1 X115.733 Y95.946 E2.69235
G1 X115.678 Y96.108 E2.70372
G1 E2.10372 F900.00000
G92 E0
G1 X118.492 Y91.704 F3000.000
G1 E0.65000 F900.00000
G1 X118.566 Y91.486 E0.66538 F720.000
G1 X119.452 Y91.486 E0.72455
G1 X119.452 Y92.371 E0.78372
G1 X119.234 Y92.445 E0.79910
G1 X118.912 Y92.026 E0.83444
G1 X118.540 Y91.740 E0.86576
G1 X119.452 Y95.279 F3000.000
G1 X119.452 Y96.164 E0.92493 F720.000
G1 X118.566 Y96.164 E0.98410
G1 X118.492 Y95.946 E0.99948
G1 X118.912 Y95.624 E1.03482
G1 X119.234 Y95.205 E1.07015
G1 X119.395 Y95.259 E1.08153
G1 X119.987 Y96.700 F3000.000
G1 X111.062 Y96.700 E1.67777 F720.000
G1 X111.062 Y90.950 E2.06190
G1 X119.987 Y90.950 E2.65814
G1 X119.987 Y96.640 E3.03826
G1 X119.641 Y96.500 F3000.000
G1 X119.410 Y94.982 F3000.000
G1 X119.514 Y94.441 E3.11629 F960.000
G1 X119.551 Y93.865 E3.19805
G1 X119.551 Y93.785 F3000.000
G1 X119.514 Y93.209 E3.27981 F960.000
G1 X119.410 Y92.668 E3.35784
G1 X118.269 Y91.528 F3000.000
G1 X117.726 Y91.423 E3.43615 F960.000
G1 X117.142 Y91.386 E3.51904
G1 X117.073 Y91.386 F3000.000
G1 X116.497 Y91.424 E3.60078 F960.000
G1 X115.956 Y91.528 E3.67882
G1 X114.878 Y92.096 F3000.000
G1 X114.616 Y91.834 E3.70485 F1920.000
G1 X114.560 Y92.576 E3.75719
G1 X113.818 Y91.834 E3.83100
G1 X113.020 Y91.834 E3.88717
G1 X114.326 Y93.140 E4.01715
G1 X114.228 Y93.840 E4.06693
G1 X112.222 Y91.834 E4.26662
G1 X111.947 Y92.356 E4.30820
G1 X114.325 Y94.735 E4.54497
G1 X114.608 Y95.816 E4.62361
G1 X111.947 Y93.154 E4.88853
G1 X111.947 Y93.953 E4.94471
G1 X113.810 Y95.816 E5.13019
G1 X113.012 Y95.816 E5.18636
G1 X111.947 Y94.751 E5.29240
G1 X111.947 Y95.549 E5.34858
G1 X112.214 Y95.816 E5.37518
G1 X115.956 Y96.122 F3000.000
G1 X116.497 Y96.226 E5.45321 F960.000
G1 X117.073 Y96.264 E5.53497
G1 X117.152 Y96.264 F3000.000
G1 X117.728 Y96.226 E5.61672 F960.000
G1 X118.269 Y96.122 E5.69475
G1 E5.09475 F900.00000
G92 E0
G1 X118.530 Y107.592 F3000.000
G1 E0.65000 F900.00000
G1 X118.115 Y107.911 E0.68496 F720.000
G1 X117.631 Y108.111 E0.71991
G1 X117.112 Y108.179 E0.75487
G1 X116.594 Y108.111 E0.78982
G1 X116.110 Y107.911 E0.82478
G1 X115.695 Y107.592 E0.85974
G1 X115.377 Y107.177 E0.89469
G1 X115.176 Y106.694 E0.92965
G1 X115.108 Y106.175 E0.96460
G1 X115.176 Y105.656 E0.99956
G1 X115.377 Y105.173 E1.03452
G1 X115.695 Y104.758 E1.06947
G1 X116.110 Y104.439 E1.10443
G1 X116.594 Y104.239 E1.13938
G1 X117.105 Y104.172 E1.17383 F720.000
G1 X117.631 Y104.239 E1.20924
G1 X118.115 Y104.439 E1.24424
G1 X118.530 Y104.758 E1.27919
G1 X118.848 Y105.173 E1.31415
G1 X119.049 Y105.656 E1.34910
G1 X119.117 Y106.175 E1.38406
G1 X119.049 Y106.694 E1.41902
G1 X118.848 Y107.177 E1.45397
G1 X118.566 Y107.545 E1.48492
G1 X118.616 Y107.983 F3000.000
G1 X115.659 Y108.514 F3000.000
G1 X111.598 Y108.514 E1.75619 F720.000
G1 X111.598 Y103.836 E2.06876
G1 X115.659 Y103.836 E2.34003
G1 X115.733 Y104.054 E2.35541
G1 X115.313 Y104.376 E2.39075
G1 X114.909 Y104.903 E2.43512
G1 X114.655 Y105.516 E2.47950
G1 X114.568 Y106.175 E2.52388
G1 X114.655 Y106.834 E2.56826
G1 X114.909 Y107.447 E2.61263
G1 X115.313 Y107.974 E2.65701
G1 X115.733 Y108.296 E2.69235
G1 X115.678 Y108.458 E2.70372
G1 E2.10372 F900.00000
